; generated by PrusaSlicer 2.9.3 on 2025-10-29 at 18:41:18 UTC


;
;

;
;

;
;

;
;

;
;
; 

; external perimeters extrusion width = 0.45mm
; perimeters extrusion width = 0.45mm
; infill extrusion width = 0.45mm
; solid infill extrusion width = 0.45mm
; top infill extrusion width = 0.42mm
; support material extrusion width = 0.37mm
; first layer extrusion width = 0.50mm

M73 P0 R6

EXCLUDE_OBJECT_DEFINE NAME='adxl345_mount_for_nema17_stl' CENTER=125.000,98.541 POLYGON=[[147.998,92.587],[147.998,125.499],[143.853,125.499],[146.003,123.349],[146.003,93.653],[139.848,87.498],[110.152,87.498],[103.997,93.653],[103.997,123.349],[106.147,125.499],[102.002,125.499],[102.002,92.587],[110.088,84.501],[139.912,84.501]]

;TYPE:Custom
G90 ; use absolute coordinates
M83 ; extruder relative mode
M104 S170 ; preheat hotend to 170
M140 S85 ; set bed temp
M190 S85 ; wait for bed temp
G28 ; home all
;G29 ; mesh bed leveling
BED_MESH_CALIBRATE
G0 X0 Z0.6 Y-3.0 F1000.0 ; go outside print area for intro line
M104 S225 ; set hotend temp
M109 S225 ; wait for hotend temp
;M104 S0 ; Stops PS/SS from sending temp waits separately
;M140 S0
;PRINT_START BED=85 HOTEND=225
G92 E0.0
G1 X60.0 E9.0 F1000.0 ; intro line
G1 X100.0 E12.5 F1000.0 ; intro line
M73 P1 R6
G92 E0.0
SKEW_PROFILE LOAD=CaliFlower

; KLIPPER_PLR
G31
save_last_file
SAVE_VARIABLE VARIABLE=was_interrupted VALUE=True
G21 ; set units to millimeters
G90 ; use absolute coordinates
M83 ; use relative distances for extrusion
M900 K0.07 ; Filament gcode



M142 S36 ; set heatbreak target temp
M107
;LAYER_CHANGE
;Z:0.25
;HEIGHT:0.25
G1 E-.8 F2100
G1 Z1.75 F720
EXCLUDE_OBJECT_START NAME='adxl345_mount_for_nema17_stl'
G1 X139.749 Y86.189 F12000
G1 Z.25 F720
G1 E.8 F1500
M204 S600
;TYPE:Perimeter
;WIDTH:0.432625
G1 F1200
G1 X110.251 Y86.189 E1.16192
G1 X110.63 Y85.81 E.02111
M73 P2 R6
G1 X139.37 Y85.81 E1.13206
G1 X139.706 Y86.147 E.01874
M204 S1000
G1 E-.16 F2100
;WIPE_START
G1 F9600
G1 X139.749 Y86.189 E-.01249
G1 X136.729 Y86.189 E-.62751
;WIPE_END
G1 X146.774 Y123.67 Z.927 F12000
G1 Z.25 F720
G1 E.8 F1500
M204 S600
;WIDTH:0.47267
G1 F1200
G1 X146.791 Y123.607 E.00284
;WIDTH:0.425373
G1 X146.838 Y123.443 E.00659
;WIDTH:0.378076
G1 X146.838 Y93.559 E1.00769
;WIDTH:0.422209
G1 X146.793 Y93.361 E.00778
M73 P3 R5
;WIDTH:0.466442
G1 X146.748 Y93.162 E.00875
G1 X146.69 Y93.099 E.00367
;WIDTH:0.462703
G1 X140.402 Y86.811 E.37808
;WIDTH:0.469183
G1 X140.318 Y86.736 E.00486
;WIDTH:0.499999
G1 X139.942 Y86.602 E.01852
G1 X110.058 Y86.602 E1.3864
G1 X109.598 Y86.811 E.02344
;WIDTH:0.462703
G1 X103.31 Y93.099 E.37808
;WIDTH:0.466442
G1 X103.252 Y93.162 E.00367
G1 X103.207 Y93.361 E.00875
;WIDTH:0.422209
G1 X103.162 Y93.559 E.00778
;WIDTH:0.378075
G1 X103.162 Y123.443 E1.00769
;WIDTH:0.425372
G1 X103.209 Y123.607 E.00659
M73 P4 R5
;WIDTH:0.472669
G1 X103.255 Y123.772 E.00746
;WIDTH:0.519965
G1 X103.302 Y123.936 E.00827
;WIDTH:0.559605
G1 X103.355 Y124.014 E.00496
;WIDTH:0.599244
G1 X103.409 Y124.092 E.00538
G1 X103.914 Y124.572 E.03951
G1 X102.948 Y124.56 E.05478
G1 X102.928 Y124.332 E.01298
;WIDTH:0.559605
G1 X102.908 Y124.105 E.01198
;WIDTH:0.519965
G1 X102.885 Y123.884 E.01077
;WIDTH:0.472669
G1 X102.861 Y123.664 E.00964
;WIDTH:0.425372
G1 X102.837 Y123.443 E.00859
;WIDTH:0.378075
G1 X102.837 Y93.559 E1.00769
;WIDTH:0.422209
G1 X102.859 Y93.255 E.01168
;WIDTH:0.466442
G1 X102.882 Y92.951 E.01308
G1 X103.021 Y92.81 E.00849
;WIDTH:0.462703
G1 X109.309 Y86.522 E.37808
;WIDTH:0.499999
G1 X110.459 Y85.397 E.07463
G1 X139.541 Y85.397 E1.34919
M73 P5 R5
G1 X140.691 Y86.522 E.07463
;WIDTH:0.462703
G1 X146.979 Y92.81 E.37808
;WIDTH:0.466442
G1 X147.118 Y92.951 E.00849
G1 X147.118 Y93.037 E.00369
G1 X147.141 Y93.298 E.01124
;WIDTH:0.422209
G1 X147.163 Y93.559 E.01003
;WIDTH:0.378076
G1 X147.163 Y123.443 E1.00769
;WIDTH:0.383915
G1 X147.16 Y123.577 E.0046
;WIDTH:0.426981
G1 X147.138 Y123.774 E.00769
;WIDTH:0.470047
G1 X147.117 Y123.97 E.00853
;WIDTH:0.513113
G1 X147.095 Y124.167 E.00947
;WIDTH:0.556179
G1 X147.074 Y124.363 E.0103
;WIDTH:0.599245
G1 X147.052 Y124.56 E.01124
G1 X146.086 Y124.572 E.05478
G1 X146.591 Y124.092 E.03951
G1 X146.645 Y124.014 E.00538
M73 P6 R5
;WIDTH:0.559606
G1 X146.698 Y123.936 E.00496
;WIDTH:0.519966
G1 X146.745 Y123.772 E.00827
;WIDTH:0.47267
G1 X146.757 Y123.727 E.00203
M204 S1000
G1 X146.419 Y123.522 F12000
M204 S600
;TYPE:External perimeter
;WIDTH:0.499999
G1 F1200
G1 X146.453 Y123.443 E.00399
G1 X146.453 Y93.559 E1.3864
G1 X146.388 Y93.401 E.00793
G1 X140.1 Y87.113 E.41255
G1 X139.942 Y87.048 E.00793
G1 X110.058 Y87.048 E1.3864
G1 X109.9 Y87.113 E.00793
G1 X103.612 Y93.401 E.41255
G1 X103.547 Y93.559 E.00793
M73 P7 R5
G1 X103.547 Y123.443 E1.3864
G1 X103.617 Y123.605 E.00819
G1 X104.346 Y124.294 E.04654
G1 X105.067 Y124.773 E.04016
G1 X105.541 Y125.247 E.0311
G1 X104.897 Y125.236 E.02988
G1 X104.364 Y125.126 E.02525
G1 X103.848 Y125.064 E.02411
G1 X102.452 Y125.051 E.06477
G1 X102.452 Y92.773 E1.49746
G1 X110.274 Y84.951 E.51319
G1 X139.726 Y84.951 E1.36635
M73 P8 R5
G1 X147.548 Y92.773 E.51319
G1 X147.548 Y93.037 E.01225
G1 X147.548 Y125.051 E1.48521
G1 X145.945 Y125.087 E.07439
M73 P9 R5
G1 X145.202 Y125.234 E.03514
G1 X144.459 Y125.247 E.03447
G1 X145.01 Y124.721 E.03534
G1 X145.684 Y124.27 E.03762
G1 X146.383 Y123.605 E.04476
G1 X146.395 Y123.577 E.00141
M204 S1000
;LAYER_CHANGE
;Z:0.45
;HEIGHT:0.2
;BEFORE_LAYER_CHANGE
G92 E0.0
;0.45

; KLIPPER_PLR
LOG_Z
G1 E-.16 F2100
;WIPE_START
G1 F9600
G1 X146.419 Y123.522 E-.01247
G1 X146.453 Y123.443 E-.01787
G1 X146.453 Y120.509 E-.60966
;WIPE_END
G1 X146.453 Y120.509 Z.25 F12000
G1 X103.673 Y124.474 Z1
;AFTER_LAYER_CHANGE
;0.45
;@SNAPSHOT
G1 Z.45 F720
G1 E.8 F1500
;TYPE:Perimeter
;WIDTH:0.421345
G1 F2054.575
G1 X103.027 Y124.474 E.02033
G1 F2052.57
G1 X103.027 Y124.166 E.00969
G1 F2049.286
G1 X103.007 Y123.528 E.02009
G1 F2045.264
G1 X103.266 Y124.067 E.01882
G1 F2048.216
G1 X103.63 Y124.432 E.01622
G1 X103.007 Y123.528 F12000
;WIDTH:0.381474
G1 F2048.349
G1 X103 Y123.358 E.00479
;WIDTH:0.366684
G1 F2100
G1 X103 Y93.644 E.79993
;WIDTH:0.413574
G1 F2065.751
G1 X103.023 Y93.493 E.00471
;WIDTH:0.460463
G1 F2060.174
G1 X103.046 Y93.342 E.0053
;WIDTH:0.507353
G1 F2055.539
G1 X103.07 Y93.19 E.00594
;WIDTH:0.554242
G1 F2051.748
G1 X103.093 Y93.039 E.00649
G1 F2050.707
G1 X103.225 Y92.894 E.00834
;WIDTH:0.536138
G1 F2051.22
G1 X109.393 Y86.726 E.35774
G1 E-.16 F2100
;WIPE_START
G1 F9600
G1 X107.215 Y88.904 E-.64
;WIPE_END
G1 X140.607 Y86.726 Z1.034 F12000
G1 Z.45 F720
G1 E.8 F1500
;WIDTH:0.536136
G1 F3609.078
G1 X140.232 Y86.593 E.01632
;WIDTH:0.493068
G1 F3678.531
G1 X139.857 Y86.459 E.01491
;WIDTH:0.449999
G1 F3873.044
G1 X110.143 Y86.459 E1.00578
;WIDTH:0.493069
G1 F3675.192
M73 P10 R5
G1 X109.768 Y86.593 E.01491
;WIDTH:0.536138
G1 F3605.293
G1 X109.393 Y86.726 E.01632
G1 F3579.158
G1 X109.689 Y86.401 E.01803
;WIDTH:0.493069
G1 F3592.975
G1 X109.984 Y86.075 E.01646
;WIDTH:0.449999
G1 F3612.67
G1 X110.518 Y85.54 E.02559
G1 X139.482 Y85.54 E.9804
G1 F3595.848
G1 X140.016 Y86.075 E.02559
;WIDTH:0.493068
G1 F3596.837
G1 X140.312 Y86.401 E.01648
;WIDTH:0.536136
G1 F3583.109
G1 X140.567 Y86.682 E.01556
G1 E-.16 F2100
;WIPE_START
G1 F9600
G1 X140.607 Y86.726 E-.01236
G1 X140.232 Y86.593 E-.08269
G1 X139.857 Y86.459 E-.08276
G1 X137.633 Y86.459 E-.46219
;WIPE_END
G1 X146.9 Y123.721 Z1.12 F12000
G1 Z.45 F720
G1 E.8 F1500
;WIDTH:0.421344
G1 F2065.241
G1 X146.993 Y123.528 E.00674
G1 F2059.065
G1 X146.973 Y124.474 E.02977
G1 F2056.428
G1 X146.327 Y124.474 E.02033
G1 F2061.466
G1 X146.734 Y124.067 E.01811
G1 F2065.241
G1 X146.874 Y123.775 E.01019
G1 E-.16 F2100
;WIPE_START
G1 F9600
G1 X146.9 Y123.721 E-.01245
G1 X146.993 Y123.528 E-.04452
G1 X146.973 Y124.474 E-.19663
G1 X146.327 Y124.474 E-.13425
G1 X146.734 Y124.067 E-.11961
G1 X146.874 Y123.775 E-.0673
;WIPE_END
G1 E-.06524 F2100
G1 X140.607 Y86.726 Z1.106 F12000
G1 Z.45 F720
G1 E.8 F1500
;WIDTH:0.536138
G1 F2051.53
G1 X146.775 Y92.894 E.35774
;WIDTH:0.554244
G1 F2047.416
G1 X146.907 Y93.039 E.00834
G1 F2045.704
G1 X146.93 Y93.19 E.00649
;WIDTH:0.507354
G1 F2047.616
G1 X146.954 Y93.342 E.00594
;WIDTH:0.460464
G1 F2050.482
G1 X146.977 Y93.493 E.0053
;WIDTH:0.413574
G1 F2053.436
G1 X147.001 Y93.644 E.00471
;WIDTH:0.366684
G1 F2061.413
G1 X147.001 Y123.358 E.79993
;WIDTH:0.381474
G1 F2074.777
G1 X146.993 Y123.528 E.00479
G1 X146.564 Y123.582 F12000
;WIDTH:0.449999
G1 F3828.83
G1 X146.626 Y123.463 E.00454
G1 F3858.454
G1 X146.635 Y123.358 E.00357
G1 F3762.096
G1 X146.635 Y93.644 E1.00578
G1 F3702.978
M73 P11 R5
G1 X146.528 Y93.299 E.01223
G1 F3712.879
G1 X146.456 Y93.212 E.00382
G1 F3762.143
G1 X140.289 Y87.045 E.29521
G1 F3786.327
G1 X139.857 Y86.866 E.01583
G1 F3962.166
G1 X110.143 Y86.866 E1.00578
G1 F3783.679
G1 X109.711 Y87.045 E.01583
G1 F3759.339
G1 X103.476 Y93.293 E.29878
G1 F3784.91
G1 X103.365 Y93.644 E.01246
G1 F4200
G1 X103.365 Y123.358 E1.00578
G1 F3347.985
G1 X103.374 Y123.463 E.00357
G1 X103.544 Y123.79 E.01247
G1 F3527.862
G1 X104.621 Y124.867 E.05156
G1 F3474.828
G1 X102.634 Y124.867 E.06726
G1 F4200
G1 X102.634 Y92.849 E1.08377
G1 F3475.772
G1 X110.35 Y85.133 E.36936
G1 X139.65 Y85.133 E.99177
G1 X147.366 Y92.849 E.36936
G1 F3551.021
G1 X147.366 Y124.867 E1.08377
G1 F3504.403
M73 P12 R5
G1 X145.379 Y124.867 E.06726
G1 F3675.438
G1 X146.456 Y123.79 E.05156
G1 F3828.83
G1 X146.537 Y123.635 E.00592
G1 X146.198 Y123.43 F12000
M204 S800
;TYPE:External perimeter
G1 F2338.34
G1 X146.228 Y123.358 E.00264
G1 F2355.718
G1 X146.228 Y122.683 E.02285
G1 F2328.783
G1 X146.228 Y94.319 E.96009
G1 F2324.428
G1 X146.228 Y93.644 E.02285
G1 F2318.994
G1 X146.168 Y93.5 E.00528
G1 F2329.828
G1 X140.001 Y87.333 E.29521
G1 X139.857 Y87.273 E.00528
G1 F2344.048
G1 X139.182 Y87.273 E.02285
G1 F2365.713
G1 X110.818 Y87.273 E.96009
G1 F2343.69
G1 X110.143 Y87.273 E.02285
G1 F2330.882
G1 X109.999 Y87.333 E.00528
G1 X103.832 Y93.5 E.29521
G1 X103.772 Y93.644 E.00528
G1 F2343.747
G1 X103.772 Y94.319 E.02285
G1 F2399.997
G1 X103.772 Y122.683 E.96009
G1 F2214.574
G1 X103.772 Y123.358 E.02285
G1 F2183.296
G1 X103.832 Y123.502 E.00528
G1 F2280.976
G1 X105.604 Y125.274 E.08482
G1 F2215.453
G1 X102.227 Y125.274 E.11431
G1 F2181.515
G1 X102.227 Y124.599 E.02285
G1 F2399.997
G1 X102.227 Y93.355 E1.05757
G1 F2257.13
M73 P13 R5
G1 X102.227 Y92.68 E.02285
G1 F2215.694
G1 X110.181 Y84.726 E.38075
G1 F2205.075
G1 X110.856 Y84.726 E.02285
G1 F2217.965
G1 X139.144 Y84.726 E.95751
G1 F2226.028
G1 X139.819 Y84.726 E.02285
G1 F2205.075
G1 X140.296 Y85.203 E.02283
G1 F2216.866
G1 X147.773 Y92.68 E.35792
G1 F2197.321
G1 X147.773 Y93.355 E.02285
G1 F2234.844
G1 X147.773 Y124.599 E1.05757
G1 F2182.781
G1 X147.773 Y125.274 E.02285
G1 F2222.98
G1 X144.396 Y125.274 E.11431
G1 F2285.83
G1 X146.168 Y123.502 E.08482
G1 F2338.34
G1 X146.175 Y123.485 E.00062
M204 S1000
G1 E-.16 F2100
;WIPE_START
G1 F9600
G1 X146.198 Y123.43 E-.01239
G1 X146.228 Y123.358 E-.01621
G1 X146.228 Y122.683 E-.14027
G1 X146.228 Y120.416 E-.47113
;WIPE_END
G1 X110.709 Y86 Z1.313 F12000
G1 Z.45 F720
G1 E.8 F1500
M73 P14 R5
M204 S1500
;TYPE:Solid infill
;WIDTH:0.635944
G1 F6070.581
G1 X139.291 Y86 E1.40938
M204 S1000
;LAYER_CHANGE
;Z:0.65
;HEIGHT:0.2
;BEFORE_LAYER_CHANGE
G92 E0.0
;0.65

; KLIPPER_PLR
LOG_Z
G1 E-.16 F2100
;WIPE_START
G1 F9600
G1 X136.211 Y86 E-.64
;WIPE_END
G1 X136.211 Y86 Z.45 F12000
G1 X103.673 Y124.474 Z1.33
;AFTER_LAYER_CHANGE
;0.65
;@SNAPSHOT
G1 Z.65 F720
G1 E.8 F1500
;TYPE:Perimeter
;WIDTH:0.421345
G1 F2100
G1 X103.027 Y124.474 E.02033
G1 X103.027 Y124.166 E.00969
G1 X103.007 Y123.528 E.02009
G1 X103.266 Y124.067 E.01882
G1 X103.63 Y124.432 E.01622
G1 X103.007 Y123.528 F12000
;WIDTH:0.381474
G1 F2100
G1 X103 Y123.358 E.00479
;WIDTH:0.366684
G1 X103 Y93.644 E.79993
;WIDTH:0.413574
G1 X103.023 Y93.493 E.00471
;WIDTH:0.460463
G1 X103.046 Y93.342 E.0053
;WIDTH:0.507353
G1 X103.07 Y93.19 E.00594
;WIDTH:0.554242
G1 X103.093 Y93.039 E.00649
G1 X103.225 Y92.894 E.00834
;WIDTH:0.536138
G1 X109.393 Y86.726 E.35774
G1 E-.16
;WIPE_START
G1 F9600
G1 X107.215 Y88.904 E-.64
;WIPE_END
G1 X140.607 Y86.726 Z1.234 F12000
G1 Z.65 F720
G1 E.8 F1500
;WIDTH:0.536136
G1 F4200
G1 X140.232 Y86.593 E.01632
;WIDTH:0.493068
G1 X139.857 Y86.459 E.01491
;WIDTH:0.449999
G1 X110.143 Y86.459 E1.00578
;WIDTH:0.493069
G1 X109.768 Y86.593 E.01491
;WIDTH:0.536138
G1 X109.393 Y86.726 E.01632
G1 X109.689 Y86.401 E.01803
;WIDTH:0.493069
G1 X109.984 Y86.075 E.01646
;WIDTH:0.449999
G1 X110.518 Y85.54 E.02559
G1 X139.482 Y85.54 E.9804
G1 X140.016 Y86.075 E.02559
M73 P15 R5
;WIDTH:0.493068
G1 X140.312 Y86.401 E.01648
;WIDTH:0.536136
G1 X140.567 Y86.682 E.01556
G1 E-.16 F2100
;WIPE_START
G1 F9600
G1 X140.607 Y86.726 E-.01236
G1 X140.232 Y86.593 E-.08269
G1 X139.857 Y86.459 E-.08276
G1 X137.633 Y86.459 E-.46219
;WIPE_END
G1 X146.9 Y123.721 Z1.32 F12000
G1 Z.65 F720
G1 E.8 F1500
;WIDTH:0.421344
G1 F2100
G1 X146.993 Y123.528 E.00674
G1 X146.973 Y124.474 E.02977
G1 X146.327 Y124.474 E.02033
G1 X146.734 Y124.067 E.01811
G1 X146.874 Y123.775 E.01019
G1 E-.16
;WIPE_START
G1 F9600
G1 X146.9 Y123.721 E-.01245
G1 X146.993 Y123.528 E-.04452
G1 X146.973 Y124.474 E-.19663
G1 X146.327 Y124.474 E-.13425
G1 X146.734 Y124.067 E-.11961
G1 X146.874 Y123.775 E-.0673
;WIPE_END
G1 E-.06524 F2100
G1 X140.607 Y86.726 Z1.306 F12000
G1 Z.65 F720
G1 E.8 F1500
;WIDTH:0.536138
G1 F2100
G1 X146.775 Y92.894 E.35774
;WIDTH:0.554244
G1 X146.907 Y93.039 E.00834
G1 X146.93 Y93.19 E.00649
;WIDTH:0.507354
G1 X146.954 Y93.342 E.00594
;WIDTH:0.460464
G1 X146.977 Y93.493 E.0053
;WIDTH:0.413574
G1 X147.001 Y93.644 E.00471
;WIDTH:0.366684
G1 X147.001 Y123.358 E.79993
;WIDTH:0.381474
G1 X146.993 Y123.528 E.00479
G1 X146.564 Y123.582 F12000
;WIDTH:0.449999
G1 F4200
G1 X146.626 Y123.463 E.00454
G1 X146.635 Y123.358 E.00357
G1 X146.635 Y93.644 E1.00578
G1 X146.528 Y93.299 E.01223
G1 X146.456 Y93.212 E.00382
G1 X140.289 Y87.045 E.29521
G1 X139.857 Y86.866 E.01583
G1 X110.143 Y86.866 E1.00578
G1 X109.711 Y87.045 E.01583
M73 P16 R5
G1 X103.544 Y93.212 E.29521
G1 X103.476 Y93.293 E.00358
G1 X103.365 Y93.644 E.01246
G1 X103.365 Y123.358 E1.00578
G1 X103.374 Y123.463 E.00357
G1 X103.544 Y123.79 E.01247
G1 X104.621 Y124.867 E.05156
G1 X102.634 Y124.867 E.06726
G1 X102.634 Y92.849 E1.08377
G1 X110.35 Y85.133 E.36936
G1 X139.65 Y85.133 E.99177
G1 X147.366 Y92.849 E.36936
G1 X147.366 Y124.867 E1.08377
G1 X145.379 Y124.867 E.06726
G1 X146.456 Y123.79 E.05156
G1 X146.537 Y123.635 E.00592
G1 X146.198 Y123.43 F12000
M204 S800
;TYPE:External perimeter
G1 F2399.997
G1 X146.228 Y123.358 E.00264
G1 X146.228 Y93.644 E1.00578
G1 X146.168 Y93.5 E.00528
M73 P17 R5
G1 X140.001 Y87.333 E.29521
G1 X139.857 Y87.273 E.00528
G1 X110.143 Y87.273 E1.00578
G1 X109.999 Y87.333 E.00528
G1 X103.832 Y93.5 E.29521
G1 X103.772 Y93.644 E.00528
G1 X103.772 Y123.358 E1.00578
G1 X103.832 Y123.502 E.00528
G1 X105.604 Y125.274 E.08482
G1 X102.227 Y125.274 E.11431
G1 X102.227 Y92.68 E1.10327
G1 X110.181 Y84.726 E.38075
G1 X139.819 Y84.726 E1.00321
G1 X147.773 Y92.68 E.38075
M73 P18 R5
G1 X147.773 Y125.274 E1.10327
G1 X144.396 Y125.274 E.11431
G1 X146.168 Y123.502 E.08482
G1 X146.175 Y123.485 E.00062
M204 S1000
G1 E-.16 F2100
;WIPE_START
G1 F9600
G1 X146.198 Y123.43 E-.01239
G1 X146.228 Y123.358 E-.01621
G1 X146.228 Y120.416 E-.6114
;WIPE_END
G1 X110.709 Y86 Z1.513 F12000
G1 Z.65 F720
G1 E.8 F1500
M204 S1500
;TYPE:Solid infill
;WIDTH:0.635942
G1 F6070.601
G1 X139.291 Y86 E1.40938
M204 S1000
M106 S51
;LAYER_CHANGE
;Z:0.85
;HEIGHT:0.2
;BEFORE_LAYER_CHANGE
G92 E0.0
;0.85

; KLIPPER_PLR
LOG_Z
G1 E-.16 F2100
;WIPE_START
G1 F9600
G1 X136.211 Y86 E-.64
;WIPE_END
G1 X136.211 Y86 Z.65 F12000
G1 X103.673 Y124.474 Z1.53
;AFTER_LAYER_CHANGE
;0.85
;@SNAPSHOT
G1 Z.85 F720
G1 E.8 F1500
M73 P19 R5
;TYPE:Perimeter
;WIDTH:0.421345
G1 F2100
G1 X103.027 Y124.474 E.02033
G1 X103.027 Y124.166 E.00969
G1 X103.007 Y123.528 E.02009
G1 X103.266 Y124.067 E.01882
G1 X103.63 Y124.432 E.01622
G1 X103.007 Y123.528 F12000
;WIDTH:0.381474
G1 F2100
G1 X103 Y123.358 E.00479
;WIDTH:0.366684
G1 X103 Y93.644 E.79993
;WIDTH:0.413574
G1 X103.023 Y93.493 E.00471
M73 P19 R4
;WIDTH:0.460463
