; generated by PrusaSlicer 2.9.3 on 2025-10-06 at 23:09:25 UTC


;
;

;
;

;
;

;
;

;
;
; 

; external perimeters extrusion width = 0.45mm
; perimeters extrusion width = 0.45mm
; infill extrusion width = 0.45mm
; solid infill extrusion width = 0.45mm
; top infill extrusion width = 0.40mm
; first layer extrusion width = 0.50mm

M73 P0 R28

EXCLUDE_OBJECT_DEFINE NAME='Cube_stl' CENTER=175.000,75.000 POLYGON=[[185.000,67.000],[185.000,83.000],[183.000,85.000],[167.000,85.000],[165.000,83.000],[165.000,67.000],[167.000,65.000],[183.000,65.000]]

;TYPE:Custom
G90 ; use absolute coordinates
M83 ; extruder relative mode
M104 S170 ; preheat hotend to 170
M140 S60 ; set bed temp
M190 S60 ; wait for bed temp
G28 ; home all
;G29 ; mesh bed leveling
BED_MESH_CALIBRATE
G0 X0 Z0.6 Y-3.0 F1000.0 ; go outside print area for intro line
M104 S200 ; set hotend temp
M109 S200 ; wait for hotend temp
;M104 S0 ; Stops PS/SS from sending temp waits separately
;M140 S0
;PRINT_START BED=60 HOTEND=200
G92 E0.0
G1 X60.0 E9.0 F1000.0 ; intro line
G1 X100.0 E12.5 F1000.0 ; intro line
G92 E0.0
G21 ; set units to millimeters
G90 ; use absolute coordinates
M83 ; use relative distances for extrusion
M900 K0.05 ; Filament gcode



M142 S36 ; set heatbreak target temp
M107
;LAYER_CHANGE
;Z:0.2
;HEIGHT:0.2
G1 E-2 F2100
G1 Z.8 F720
EXCLUDE_OBJECT_START NAME='Cube_stl'
G1 X167.761 Y82.393 F12000
G1 Z.2 F720
G1 E2 F1500
M204 S600
;TYPE:Perimeter
;WIDTH:0.499999
G1 F1200
G1 X167.607 Y82.393 E.00585
G1 X167.607 Y67.607 E.56196
G1 X182.393 Y67.607 E.56196
M73 P0 R27
G1 X182.393 Y82.393 E.56196
G1 X167.821 Y82.393 E.55383
M204 S1000
G1 X167.169 Y82.85 F12000
M204 S600
;TYPE:External perimeter
G1 F1200
G1 X167.15 Y82.85 E.00072
G1 X167.15 Y67.15 E.5967
G1 X182.85 Y67.15 E.5967
G1 X182.85 Y82.85 E.5967
G1 X167.229 Y82.85 E.5937
M204 S1000
G1 E-1.6 F2100
;WIPE_START
G1 F9600
G1 X167.169 Y82.85 E-.01247
G1 X167.15 Y82.85 E-.00395
G1 X167.15 Y81.004 E-.38358
;WIPE_END
G1 X182.187 Y68.75 Z.539 F12000
G1 Z.2 F720
G1 E2 F1500
M204 S600
;TYPE:Solid infill
;WIDTH:0.506402
G1 F1200
G1 X181.455 Y68.018 E.0399
G1 X180.8 Y68.018 E.02524
G1 X181.982 Y69.2 E.06442
G1 X181.982 Y69.856 E.02528
G1 X180.144 Y68.018 E.10017
G1 X179.489 Y68.018 E.02524
G1 X181.982 Y70.511 E.13587
G1 X181.982 Y71.166 E.02524
G1 X178.834 Y68.018 E.17157
G1 X178.178 Y68.018 E.02528
G1 X181.982 Y71.822 E.20733
G1 X181.982 Y72.477 E.02524
G1 X177.523 Y68.018 E.24302
G1 X176.867 Y68.018 E.02528
G1 X181.982 Y73.133 E.27878
G1 X181.982 Y73.788 E.02524
G1 X176.212 Y68.018 E.31448
G1 X175.556 Y68.018 E.02528
G1 X181.982 Y74.444 E.35023
G1 X181.982 Y75.099 E.02524
M73 P1 R27
G1 X174.901 Y68.018 E.38593
G1 X174.245 Y68.018 E.02528
G1 X181.982 Y75.755 E.42168
G1 X181.982 Y76.41 E.02524
G1 X173.59 Y68.018 E.45738
G1 X172.934 Y68.018 E.02528
G1 X181.982 Y77.066 E.49313
G1 X181.982 Y77.721 E.02524
G1 X172.279 Y68.018 E.52883
G1 X171.623 Y68.018 E.02528
G1 X181.982 Y78.377 E.56459
G1 X181.982 Y79.032 E.02524
G1 X170.968 Y68.018 E.60028
G1 X170.313 Y68.018 E.02524
G1 X181.982 Y79.688 E.63601
G1 X181.982 Y80.343 E.02524
G1 X169.657 Y68.018 E.67174
G1 X169.002 Y68.018 E.02524
G1 X181.982 Y80.998 E.70744
G1 X181.982 Y81.654 E.02528
G1 X168.346 Y68.018 E.74319
G1 X168.018 Y68.018 E.01264
G1 X168.018 Y68.346 E.01264
G1 X181.654 Y81.982 E.74319
G1 X180.998 Y81.982 E.02528
G1 X168.018 Y69.002 E.70744
G1 X168.018 Y69.657 E.02524
G1 X180.343 Y81.982 E.67174
G1 X179.687 Y81.982 E.02528
G1 X168.018 Y70.313 E.63598
G1 X168.018 Y70.968 E.02524
G1 X179.032 Y81.982 E.60028
G1 X178.376 Y81.982 E.02528
G1 X168.018 Y71.624 E.56453
G1 X168.018 Y72.279 E.02524
G1 X177.721 Y81.982 E.52883
G1 X177.066 Y81.982 E.02524
G1 X168.018 Y72.934 E.49313
G1 X168.018 Y73.59 E.02528
G1 X176.41 Y81.982 E.45738
G1 X175.755 Y81.982 E.02524
G1 X168.018 Y74.245 E.42168
G1 X168.018 Y74.901 E.02528
G1 X175.099 Y81.982 E.38593
G1 X174.444 Y81.982 E.02524
M73 P2 R27
G1 X168.018 Y75.556 E.35023
G1 X168.018 Y76.212 E.02528
G1 X173.788 Y81.982 E.31448
G1 X173.133 Y81.982 E.02524
G1 X168.018 Y76.867 E.27878
G1 X168.018 Y77.523 E.02528
G1 X172.477 Y81.982 E.24302
G1 X171.822 Y81.982 E.02524
G1 X168.018 Y78.178 E.20733
G1 X168.018 Y78.834 E.02528
G1 X171.166 Y81.982 E.17157
G1 X170.511 Y81.982 E.02524
G1 X168.018 Y79.489 E.13587
G1 X168.018 Y80.145 E.02528
G1 X169.855 Y81.982 E.10012
G1 X169.2 Y81.982 E.02524
G1 X168.018 Y80.8 E.06442
G1 X168.018 Y81.456 E.02528
G1 X168.75 Y82.187 E.03987
M204 S1000
M106 S127.5
;LAYER_CHANGE
;Z:0.4
;HEIGHT:0.2
;BEFORE_LAYER_CHANGE
G92 E0.0
;0.4


G1 E-1.6 F2100
;WIPE_START
G1 F9600
G1 X168.018 Y81.456 E-.21498
G1 X168.018 Y80.8 E-.13633
G1 X168.184 Y80.966 E-.04869
;WIPE_END
G1 X168.184 Y80.966 Z.2 F12000
G1 X167.36 Y82.668 Z.4 F6845.764
G1 X167.36 Y82.668 Z.4 F12000
;AFTER_LAYER_CHANGE
;0.4
;@SNAPSHOT
M104 S195 ; set temperature
G1 Z.4 F720
G1 E2 F1500
M204 S900
;TYPE:Perimeter
;WIDTH:0.449999
G1 F2283.133
G1 X167.332 Y82.668 E.00095
G1 F2275.178
G1 X167.332 Y82.2 E.01584
G1 F2283.131
G1 X167.332 Y67.332 E.50326
G1 F2275.178
G1 X167.8 Y67.332 E.01584
G1 F2283.13
G1 X182.668 Y67.332 E.50326
G1 F2267.663
G1 X182.668 Y67.8 E.01584
G1 F2287.633
G1 X182.668 Y82.668 E.50326
G1 F2275.18
G1 X182.2 Y82.668 E.01584
G1 F2283.133
G1 X167.42 Y82.668 E.50028
M204 S1000
G1 X166.925 Y82.907 F12000
M204 S700
;TYPE:External perimeter
G1 F1266.664
G1 X166.925 Y67.093 E.53528
G1 X167.093 Y66.925 E.00804
G1 X182.907 Y66.925 E.53528
G1 X183.075 Y67.093 E.00804
G1 X183.075 Y67.968 E.02962
G1 X183.075 Y82.907 E.50567
G1 X182.907 Y83.075 E.00804
G1 X167.093 Y83.075 E.53528
G1 X166.967 Y82.949 E.00603
M204 S1000
G1 E-1.6 F2100
;WIPE_START
G1 F9600
G1 X166.925 Y82.907 E-.01234
G1 X166.925 Y81.042 E-.38766
;WIPE_END
G1 X167.809 Y67.731 Z.633 F12000
G1 Z.4 F720
G1 E2 F1500
M204 S1500
;TYPE:Solid infill
;WIDTH:0.548766
G1 F5400
G1 X167.764 Y67.687 E.00265
G1 X167.703 Y67.703 E.00265
G1 X167.687 Y67.764 E.00265
G1 X167.731 Y67.809 E.00265
G1 X167.793 Y67.793 E.00269
M204 S1000
G1 X167.566 Y68.588 F12000
M204 S1500
;WIDTH:0.38292
G1 F5400
G1 X167.495 Y68.569 E.00208
G1 X167.514 Y68.64 E.00208
G1 X167.555 Y68.629 E.0012
;WIDTH:0.41646
G1 X167.627 Y68.536 E.00365
;WIDTH:0.449999
G1 X167.698 Y68.443 E.00396
G1 X168.443 Y67.698 E.03566
G1 X168.536 Y67.627 E.00396
;WIDTH:0.41646
G1 X168.629 Y67.555 E.00365
;WIDTH:0.38292
G1 X168.588 Y67.566 E.0012
G1 X168.569 Y67.495 E.00208
G1 X168.64 Y67.514 E.00208
;WIDTH:0.449999
G1 X169.018 Y67.698 E.01423
G1 X167.698 Y69.018 E.06319
G1 X167.698 Y69.594 E.0195
G1 X169.594 Y67.698 E.09076
G1 X170.17 Y67.698 E.0195
G1 X167.698 Y70.17 E.11833
G1 X167.698 Y70.746 E.0195
G1 X170.746 Y67.698 E.14591
G1 X171.321 Y67.698 E.01946
G1 X167.698 Y71.321 E.17343
G1 X167.698 Y71.897 E.0195
G1 X171.897 Y67.698 E.201
G1 X172.473 Y67.698 E.0195
G1 X167.698 Y72.473 E.22858
G1 X167.698 Y73.048 E.01946
G1 X173.048 Y67.698 E.2561
G1 X173.624 Y67.698 E.0195
G1 X167.698 Y73.624 E.28367
G1 X167.698 Y74.2 E.0195
G1 X174.2 Y67.698 E.31125
G1 X174.775 Y67.698 E.01946
G1 X167.698 Y74.775 E.33877
G1 X167.698 Y75.351 E.0195
G1 X175.351 Y67.698 E.36634
G1 X175.927 Y67.698 E.0195
G1 X167.698 Y75.927 E.39392
G1 X167.698 Y76.503 E.0195
G1 X176.503 Y67.698 E.42149
G1 X177.078 Y67.698 E.01946
G1 X167.698 Y77.078 E.44901
G1 X167.698 Y77.654 E.0195
G1 X177.654 Y67.698 E.47659
G1 X178.23 Y67.698 E.0195
G1 X167.698 Y78.23 E.50416
G1 X167.698 Y78.805 E.01946
G1 X178.805 Y67.698 E.53169
G1 X179.381 Y67.698 E.0195
G1 X167.698 Y79.381 E.55926
G1 X167.698 Y79.957 E.0195
G1 X179.957 Y67.698 E.58683
G1 X180.532 Y67.698 E.01946
G1 X167.698 Y80.532 E.61436
G1 X167.698 Y81.108 E.0195
G1 X181.108 Y67.698 E.64193
G1 X181.684 Y67.698 E.0195
G1 X167.698 Y81.684 E.6695
G1 X167.698 Y82.259 E.01946
G1 X182.259 Y67.698 E.69703
G1 X182.302 Y68.232 E.01813
G1 X168.232 Y82.302 E.67352
G1 X168.808 Y82.302 E.0195
G1 X182.302 Y68.808 E.64595
G1 X182.302 Y69.383 E.01946
G1 X169.383 Y82.302 E.61842
G1 X169.959 Y82.302 E.0195
G1 X182.302 Y69.959 E.59085
G1 X182.302 Y70.535 E.0195
G1 X170.535 Y82.302 E.56328
G1 X171.111 Y82.302 E.0195
G1 X182.302 Y71.111 E.53571
G1 X182.302 Y71.686 E.01946
G1 X171.686 Y82.302 E.50818
G1 X172.262 Y82.302 E.0195
G1 X182.302 Y72.262 E.48061
G1 X182.302 Y72.838 E.0195
G1 X172.838 Y82.302 E.45304
G1 X173.413 Y82.302 E.01946
G1 X182.302 Y73.413 E.42551
G1 X182.302 Y73.989 E.0195
G1 X173.989 Y82.302 E.39794
G1 X174.565 Y82.302 E.0195
G1 X182.302 Y74.565 E.37037
G1 X182.302 Y75.14 E.01946
M73 P3 R27
G1 X175.14 Y82.302 E.34284
G1 X175.716 Y82.302 E.0195
G1 X182.302 Y75.716 E.31527
G1 X182.302 Y76.292 E.0195
G1 X176.292 Y82.302 E.28769
G1 X176.868 Y82.302 E.0195
G1 X182.302 Y76.868 E.26012
G1 X182.302 Y77.443 E.01946
G1 X177.443 Y82.302 E.2326
G1 X178.019 Y82.302 E.0195
G1 X182.302 Y78.019 E.20502
G1 X182.302 Y78.595 E.0195
G1 X178.595 Y82.302 E.17745
G1 X179.17 Y82.302 E.01946
G1 X182.302 Y79.17 E.14993
G1 X182.302 Y79.746 E.0195
G1 X179.746 Y82.302 E.12235
G1 X180.322 Y82.302 E.0195
G1 X182.302 Y80.322 E.09478
G1 X182.302 Y82.302 E.06702
G1 X180.897 Y82.302 E.04756
G1 X182.158 Y81.041 E.06036
M204 S1000
G1 X181.94 Y81.877 F12000
M204 S1500
;WIDTH:0.45836
G1 F5400
G1 X181.904 Y81.84 E.00178
G1 X181.854 Y81.854 E.00179
G1 X181.84 Y81.904 E.00179
G1 X181.877 Y81.94 E.00178
G1 X181.927 Y81.927 E.00178
M204 S1000
M106 S255
;LAYER_CHANGE
;Z:0.6
;HEIGHT:0.2
;BEFORE_LAYER_CHANGE
G92 E0.0
;0.6


G1 E-1.6 F2100
;WIPE_START
G1 F9600
G1 X181.877 Y81.94 E-.01074
G1 X181.84 Y81.904 E-.01073
G1 X181.854 Y81.854 E-.01079
G1 X181.904 Y81.84 E-.01079
G1 X181.94 Y81.877 E-.01073
;WIPE_END
G1 E-.34622 F2100
G1 X181.94 Y81.877 Z.4 F12000
G1 X167.132 Y82.738 Z.659
;AFTER_LAYER_CHANGE
;0.6
;@SNAPSHOT
G1 Z.6 F720
G1 E2 F1500
M204 S900
;TYPE:Perimeter
;WIDTH:0.449999
G1 F2203.297
G1 X167.132 Y82.27 E.01584
G1 F2238.13
G1 X167.132 Y67.73 E.49216
G1 F2225.631
G1 X167.132 Y67.262 E.01584
G1 F2203.297
G1 X167.262 Y67.132 E.00622
G1 X167.73 Y67.132 E.01584
G1 F2238.13
G1 X182.27 Y67.132 E.49216
G1 F2225.641
G1 X182.738 Y67.132 E.01584
G1 F2205.915
G1 X182.868 Y67.262 E.00622
G1 F2195.87
G1 X182.868 Y67.73 E.01584
G1 F2262.357
G1 X182.868 Y82.27 E.49216
G1 F2225.716
G1 X182.868 Y82.738 E.01584
G1 F2203.297
G1 X182.738 Y82.868 E.00622
G1 X182.27 Y82.868 E.01584
G1 F2238.13
G1 X167.73 Y82.868 E.49216
G1 F2225.631
G1 X167.262 Y82.868 E.01584
G1 F2203.297
G1 X167.175 Y82.781 E.00416
M204 S1000
G1 X166.725 Y82.907 F12000
M204 S700
;TYPE:External perimeter
G1 F1266.667
G1 X166.725 Y67.093 E.53528
G1 X167.093 Y66.725 E.01762
G1 X182.907 Y66.725 E.53528
G1 X183.275 Y67.093 E.01762
G1 X183.275 Y67.968 E.02962
G1 X183.275 Y82.907 E.50567
G1 X182.907 Y83.275 E.01762
G1 X167.093 Y83.275 E.53528
G1 X166.767 Y82.949 E.01561
M204 S1000
G1 X167.531 Y82.391 F12000
M204 S1500
;TYPE:Solid infill
;WIDTH:0.548766
G1 F5400
G1 X167.487 Y82.436 E.00265
G1 X167.503 Y82.497 E.00265
G1 X167.564 Y82.513 E.00265
G1 X167.609 Y82.469 E.00265
G1 X167.593 Y82.407 E.00269
M204 S1000
G1 X168.388 Y82.634 F12000
M204 S1500
;WIDTH:0.38292
G1 F5400
G1 X168.369 Y82.705 E.00208
G1 X168.44 Y82.686 E.00208
G1 X168.429 Y82.645 E.0012
;WIDTH:0.41646
G1 X168.336 Y82.573 E.00365
;WIDTH:0.449999
G1 X168.243 Y82.502 E.00396
G1 X167.498 Y81.757 E.03566
G1 X167.427 Y81.664 E.00396
;WIDTH:0.41646
G1 X167.355 Y81.571 E.00365
;WIDTH:0.38292
G1 X167.366 Y81.612 E.0012
G1 X167.295 Y81.631 E.00208
G1 X167.314 Y81.56 E.00208
;WIDTH:0.449999
G1 X167.498 Y81.182 E.01423
G1 X168.818 Y82.502 E.06319
G1 X169.394 Y82.502 E.0195
G1 X167.498 Y80.606 E.09076
G1 X167.498 Y80.03 E.0195
G1 X169.97 Y82.502 E.11833
G1 X170.546 Y82.502 E.0195
G1 X167.498 Y79.454 E.14591
G1 X167.498 Y78.879 E.01946
G1 X171.121 Y82.502 E.17343
G1 X171.697 Y82.502 E.0195
G1 X167.498 Y78.303 E.201
G1 X167.498 Y77.727 E.0195
G1 X172.273 Y82.502 E.22858
G1 X172.848 Y82.502 E.01946
G1 X167.498 Y77.152 E.2561
G1 X167.498 Y76.576 E.0195
G1 X173.424 Y82.502 E.28367
G1 X174 Y82.502 E.0195
G1 X167.498 Y76 E.31125
G1 X167.498 Y75.425 E.01946
G1 X174.575 Y82.502 E.33877
G1 X175.151 Y82.502 E.0195
G1 X167.498 Y74.849 E.36634
G1 X167.498 Y74.273 E.0195
G1 X175.727 Y82.502 E.39392
G1 X176.303 Y82.502 E.0195
G1 X167.498 Y73.697 E.42149
G1 X167.498 Y73.122 E.01946
G1 X176.878 Y82.502 E.44901
G1 X177.454 Y82.502 E.0195
G1 X167.498 Y72.546 E.47659
G1 X167.498 Y71.97 E.0195
G1 X178.03 Y82.502 E.50416
G1 X178.605 Y82.502 E.01946
G1 X167.498 Y71.395 E.53169
G1 X167.498 Y70.819 E.0195
G1 X179.181 Y82.502 E.55926
G1 X179.757 Y82.502 E.0195
G1 X167.498 Y70.243 E.58683
G1 X167.498 Y69.668 E.01946
G1 X180.332 Y82.502 E.61436
G1 X180.908 Y82.502 E.0195
G1 X167.498 Y69.092 E.64193
G1 X167.498 Y68.516 E.0195
G1 X181.484 Y82.502 E.6695
G1 X182.059 Y82.502 E.01946
G1 X167.498 Y67.941 E.69703
G1 X167.374 Y67.344 E.02064
;WIDTH:0.38292
G1 X167.355 Y67.415 E.00208
G1 X167.426 Y67.396 E.00208
G1 X167.415 Y67.355 E.0012
;WIDTH:0.41646
G1 X167.524 Y67.427 E.00406
;WIDTH:0.449999
G1 X167.632 Y67.499 E.00439
G1 X182.501 Y82.368 E.71177
G1 X182.553 Y82.471 E.00391
;WIDTH:0.41646
G1 X182.604 Y82.574 E.00357
;WIDTH:0.38292
G1 X182.585 Y82.645 E.00208
G1 X182.656 Y82.626 E.00208
G1 X182.645 Y82.585 E.0012
;WIDTH:0.449999
G1 X182.501 Y81.792 E.02728
G1 X168.208 Y67.499 E.6842
G1 X168.784 Y67.499 E.0195
G1 X182.501 Y81.216 E.65662
G1 X182.501 Y80.64 E.0195
G1 X169.36 Y67.499 E.62905
G1 X169.936 Y67.499 E.0195
G1 X182.501 Y80.064 E.60148
G1 X182.5 Y79.488 E.0195
G1 X170.512 Y67.5 E.57386
G1 X171.088 Y67.5 E.0195
G1 X182.5 Y78.912 E.54629
G1 X182.5 Y78.337 E.01946
G1 X171.663 Y67.5 E.51876
G1 X172.239 Y67.5 E.0195
G1 X182.5 Y77.761 E.49119
G1 X182.5 Y77.185 E.0195
G1 X172.815 Y67.5 E.46361
G1 X173.391 Y67.501 E.0195
G1 X182.499 Y76.609 E.43599
G1 X182.499 Y76.033 E.0195
G1 X173.967 Y67.501 E.40842
G1 X174.543 Y67.501 E.0195
G1 X182.499 Y75.457 E.38085
G1 X182.499 Y74.881 E.0195
G1 X175.119 Y67.501 E.35328
G1 X175.695 Y67.501 E.0195
G1 X182.499 Y74.305 E.3257
G1 X182.498 Y73.729 E.0195
G1 X176.271 Y67.502 E.29808
G1 X176.846 Y67.502 E.01946
G1 X182.498 Y73.154 E.27056
G1 X182.498 Y72.578 E.0195
G1 X177.422 Y67.502 E.24298
G1 X177.998 Y67.502 E.0195
G1 X182.498 Y72.002 E.21541
G1 X182.498 Y71.426 E.0195
G1 X178.574 Y67.502 E.18784
G1 X179.15 Y67.503 E.0195
G1 X182.498 Y70.85 E.16024
G1 X182.497 Y70.274 E.0195
G1 X179.726 Y67.503 E.13265
G1 X180.302 Y67.503 E.0195
M73 P4 R27
G1 X182.497 Y69.698 E.10507
M73 P4 R26
M204 S1000
G1 E-1.6 F2100
;WIPE_START
G1 F9600
G1 X181.136 Y68.337 E-.4
;WIPE_END
G1 X181.022 Y67.647 Z.612 F12000
G1 Z.6 F720
G1 E2 F1500
M204 S1500
G1 F5400
G1 X182.497 Y69.122 E.07061
G1 X182.496 Y67.504 E.05477
G1 X180.878 Y67.503 E.05477
M204 S1000
G1 X182.005 Y67.912 F12000
M204 S1500
;WIDTH:0.583856
G1 F5400
G1 X181.957 Y67.96 E.00305
G1 X181.975 Y68.025 E.00303
G1 X182.04 Y68.043 E.00303
G1 X182.088 Y67.995 E.00305
G1 X182.07 Y67.93 E.00303
M204 S1000
;LAYER_CHANGE
;Z:0.8
;HEIGHT:0.2
;BEFORE_LAYER_CHANGE
G92 E0.0
;0.8


G1 E-1.6 F2100
;WIPE_START
G1 F9600
G1 X182.088 Y67.995 E-.01402
G1 X182.04 Y68.043 E-.01411
G1 X181.975 Y68.025 E-.01402
G1 X181.957 Y67.96 E-.01402
G1 X182.005 Y67.912 E-.01411
;WIPE_END
G1 E-.32972 F2100
G1 X182.005 Y67.912 Z.6 F12000
G1 X166.932 Y82.738 Z.969
;AFTER_LAYER_CHANGE
;0.8
;@SNAPSHOT
G1 Z.8 F720
G1 E2 F1500
M204 S900
;TYPE:Perimeter
;WIDTH:0.449999
G1 F2129.553
G1 X166.932 Y82.27 E.01584
G1 F2202.793
G1 X166.932 Y67.73 E.49216
G1 F2166.996
G1 X166.932 Y67.262 E.01584
G1 F2162.142
G1 X167.262 Y66.932 E.0158
G1 F2129.554
G1 X167.73 Y66.932 E.01584
G1 F2202.793
G1 X182.27 Y66.932 E.49216
G1 F2180.013
G1 X182.738 Y66.932 E.01584
G1 F2166.091
G1 X183.068 Y67.262 E.0158
G1 F2120.332
G1 X183.068 Y67.73 E.01584
G1 F2283.174
G1 X183.068 Y82.27 E.49216
G1 F2167.181
G1 X183.068 Y82.738 E.01584
G1 F2162.145
G1 X182.738 Y83.068 E.0158
G1 F2129.556
G1 X182.27 Y83.068 E.01584
G1 F2202.796
G1 X167.73 Y83.068 E.49216
G1 F2166.998
G1 X167.262 Y83.068 E.01584
G1 F2162.142
G1 X166.975 Y82.781 E.01374
M204 S1000
G1 X166.525 Y82.907 F12000
M204 S700
;TYPE:External perimeter
G1 F1266.664
G1 X166.525 Y82.032 E.02962
G1 X166.525 Y67.093 E.50567
G1 X167.093 Y66.525 E.02719
