; generated by PrusaSlicer 2.9.3 on 2025-09-29 at 18:41:02 UTC


;
;

;
;

;
;

;
;

;
;
; 

; external perimeters extrusion width = 0.45mm
; perimeters extrusion width = 0.45mm
; infill extrusion width = 0.45mm
; solid infill extrusion width = 0.45mm
; top infill extrusion width = 0.40mm
; first layer extrusion width = 0.50mm

M73 P0 R31

EXCLUDE_OBJECT_DEFINE NAME='d20_fair_stl' CENTER=78.735,31.487 POLYGON=[[90.510,24.689],[90.510,38.286],[78.735,45.084],[66.960,38.286],[66.960,24.689],[78.735,17.891]]

;TYPE:Custom
G90 ; use absolute coordinates
M83 ; extruder relative mode
M104 S170 ; preheat hotend to 170
M140 S60 ; set bed temp
M190 S60 ; wait for bed temp
G28 ; home all
;G29 ; mesh bed leveling
BED_MESH_CALIBRATE
G0 X0 Z0.6 Y-3.0 F1000.0 ; go outside print area for intro line
M104 S200 ; set hotend temp
M109 S200 ; wait for hotend temp
;M104 S0 ; Stops PS/SS from sending temp waits separately
;M140 S0
;PRINT_START BED=60 HOTEND=200
G92 E0.0
G1 X60.0 E9.0 F1000.0 ; intro line
G1 X100.0 E12.5 F1000.0 ; intro line
G92 E0.0
G21 ; set units to millimeters
G90 ; use absolute coordinates
M83 ; use relative distances for extrusion
M900 K0.05 ; Filament gcode



M142 S36 ; set heatbreak target temp
M107
;LAYER_CHANGE
;Z:0.2
;HEIGHT:0.2
G1 E-2 F2100
G1 Z.8 F720
EXCLUDE_OBJECT_START NAME='d20_fair_stl'
G1 X78.693 Y34.14 F12000
M73 P0 R30
G1 Z.2 F720
G1 E2 F1500
M204 S600
;TYPE:Perimeter
;WIDTH:0.499999
G1 F1200
G1 X78.65 Y34.312 E.00674
G1 X78.399 Y34.563 E.01349
G1 X77.779 Y34.921 E.02721
G1 X77.354 Y35.008 E.01649
G1 X76.924 Y34.757 E.01892
;WIDTH:0.466037
G1 X76.86 Y34.66 E.00409
;WIDTH:0.459421
G1 X75.305 Y31.966 E.10773
;WIDTH:0.499999
G1 X75.25 Y31.364 E.02298
G1 X75.538 Y31.039 E.0165
G1 X76.158 Y30.681 E.02721
G1 X76.501 Y30.589 E.0135
G1 X76.782 Y30.65 E.01093
G1 X77.095 Y30.932 E.01601
G1 X77.314 Y31.312 E.01667
G1 X78.264 Y30.763 E.0417
G1 X77.928 Y30.436 E.01782
G1 X77.865 Y30.046 E.01501
G1 X77.928 Y29.836 E.00833
G1 X78.202 Y29.543 E.01525
G1 X78.862 Y29.162 E.02896
G1 X79.205 Y29.07 E.0135
G1 X79.507 Y29.14 E.01178
G1 X80.751 Y29.751 E.05267
G1 X81.042 Y30.024 E.01516
G1 X81.484 Y30.789 E.03358
G1 X81.575 Y31.097 E.01221
G1 X81.484 Y31.475 E.01478
G1 X81.233 Y31.726 E.01349
G1 X78.473 Y33.319 E.12112
G1 X78.65 Y33.626 E.01347
G1 X78.742 Y33.947 E.01269
G1 X78.708 Y34.082 E.00529
M204 S1000
G1 X78.269 Y34.021 F12000
M204 S600
;TYPE:External perimeter
G1 F1200
G1 X78.271 Y34.048 E.00103
G1 X78.171 Y34.167 E.00591
G1 X77.55 Y34.525 E.02724
G1 X77.409 Y34.554 E.00547
G1 X77.238 Y34.442 E.00777
G1 X75.683 Y31.747 E.11825
G1 X75.671 Y31.543 E.00777
G1 X75.766 Y31.435 E.00547
G1 X76.387 Y31.077 E.02724
G1 X76.524 Y31.048 E.00532
G1 X76.699 Y31.161 E.00792
G1 X77.147 Y31.936 E.03402
G1 X79.22 Y30.739 E.09098
G1 X78.44 Y30.34 E.0333
G1 X78.339 Y30.237 E.00548
G1 X78.339 Y30.037 E.0076
G1 X78.43 Y29.939 E.00508
G1 X79.09 Y29.558 E.02896
G1 X79.244 Y29.531 E.00594
G1 X79.306 Y29.551 E.00248
G1 X80.549 Y30.162 E.05264
G1 X80.703 Y30.351 E.00927
G1 X81.088 Y31.018 E.02927
G1 X81.105 Y31.211 E.00736
G1 X81.004 Y31.33 E.00593
G1 X77.849 Y33.152 E.13847
G1 X78.254 Y33.855 E.03084
G1 X78.264 Y33.961 E.00405
M204 S1000
G1 E-1.6 F2100
;WIPE_START
G1 F9600
G1 X78.269 Y34.021 E-.01251
G1 X78.271 Y34.048 E-.00563
G1 X78.171 Y34.167 E-.0323
G1 X77.55 Y34.525 E-.14896
G1 X77.409 Y34.554 E-.02991
G1 X77.238 Y34.442 E-.04248
G1 X76.93 Y33.908 E-.12821
;WIPE_END
G1 X78.735 Y38.7 Z.289 F12000
G1 Z.2 F720
G1 E2 F1500
M204 S600
;TYPE:Perimeter
G1 F1200
G1 X76.954 Y35.615 E.13539
G1 X76.499 Y34.868 E.03324
;WIDTH:0.459421
G1 X74.944 Y32.174 E.10773
;WIDTH:0.499999
G1 X74.525 Y31.407 E.03322
G1 X72.489 Y27.881 E.15475
G1 X84.981 Y27.881 E.47477
G1 X78.765 Y38.648 E.47251
M204 S1000
G1 X78.735 Y39.614 F12000
M204 S600
;TYPE:External perimeter
G1 F1200
G1 X71.697 Y27.424 E.53497
G1 X85.773 Y27.424 E.53498
G1 X78.765 Y39.562 E.53269
M204 S1000
G1 E-1.6 F2100
;WIPE_START
G1 F9600
G1 X78.735 Y39.614 E-.01248
G1 X77.803 Y37.999 E-.38752
;WIPE_END
G1 X83.716 Y28.087 Z.401 F12000
G1 Z.2 F720
G1 E2 F1500
M204 S600
;TYPE:Solid infill
;WIDTH:0.50113
G1 F1200
G1 X84.142 Y28.513 E.02295
G1 X83.904 Y28.924 E.0181
G1 X83.273 Y28.292 E.03403
G1 X82.625 Y28.292 E.02469
G1 X83.667 Y29.335 E.05617
G1 X83.43 Y29.745 E.01804
G1 X81.977 Y28.292 E.07829
G1 X81.329 Y28.292 E.02469
G1 X83.193 Y30.156 E.10044
G1 X82.956 Y30.567 E.01808
G1 X80.681 Y28.292 E.12258
G1 X80.033 Y28.292 E.02469
G1 X82.719 Y30.978 E.14473
G1 X82.481 Y31.389 E.0181
G1 X81.916 Y30.824 E.03044
G1 X81.851 Y30.603 E.00878
G1 X81.385 Y29.795 E.03554
G1 X80.956 Y29.394 E.02237
G1 X80.033 Y28.941 E.03917
G1 X79.179 Y28.087 E.04602
M204 S1000
G1 X79.319 Y28.874 F12000
M204 S600
G1 F1200
G1 X78.737 Y28.292 E.03136
G1 X78.089 Y28.292 E.02469
G1 X78.622 Y28.825 E.02872
G1 X78.211 Y29.063 E.0181
G1 X77.441 Y28.292 E.04152
G1 X76.793 Y28.292 E.02469
G1 X77.842 Y29.341 E.05652
G1 X77.56 Y29.642 E.01571
G1 X77.545 Y29.692 E.00199
G1 X76.145 Y28.292 E.07543
G1 X75.497 Y28.292 E.02469
G1 X77.498 Y30.293 E.10782
G1 X77.551 Y30.623 E.01273
G1 X77.6 Y30.672 E.00264
G1 X77.464 Y30.75 E.00597
G1 X77.416 Y30.668 E.00362
G1 X76.964 Y30.275 E.02282
G1 X76.784 Y30.227 E.0071
G1 X74.849 Y28.292 E.10426
G1 X74.201 Y28.292 E.02469
G1 X76.153 Y30.245 E.1052
G1 X75.965 Y30.318 E.00768
G1 X75.72 Y30.459 E.01077
G1 X73.553 Y28.292 E.11676
G1 X73.201 Y28.292 E.01341
G1 X73.606 Y28.993 E.03085
G1 X75.309 Y30.696 E.09176
G1 X75.004 Y31.039 E.01749
G1 X73.929 Y29.964 E.05792
M204 S1000
G1 E-1.6 F2100
;WIPE_START
G1 F9600
G1 X75.004 Y31.039 E-.31593
G1 X75.273 Y30.737 E-.08407
;WIPE_END
G1 X81.747 Y31.303 Z.313 F12000
G1 Z.2 F720
G1 E2 F1500
M204 S600
G1 F1200
G1 X82.244 Y31.799 E.02675
G1 X82.007 Y32.21 E.01808
G1 X81.68 Y31.883 E.01762
G1 X81.453 Y32.074 E.0113
G1 X81.307 Y32.158 E.00642
G1 X81.77 Y32.621 E.02495
G1 X81.533 Y33.032 E.01808
G1 X80.896 Y32.395 E.03432
G1 X80.485 Y32.633 E.0181
G1 X81.295 Y33.443 E.04364
G1 X81.058 Y33.854 E.01808
G1 X80.075 Y32.87 E.05299
G1 X79.664 Y33.107 E.01808
G1 X80.821 Y34.264 E.06234
G1 X80.584 Y34.675 E.01808
G1 X79.253 Y33.344 E.07172
G1 X79.027 Y33.474 E.00993
G1 X79.144 Y33.884 E.01624
G1 X80.347 Y35.086 E.06479
G1 X80.109 Y35.497 E.0181
G1 X79.046 Y34.433 E.0573
G1 X79.008 Y34.517 E.00351
G1 X78.898 Y34.675 E.00734
G1 X78.758 Y34.793 E.00698
G1 X79.872 Y35.908 E.06005
G1 X79.635 Y36.318 E.01804
G1 X78.371 Y35.054 E.06811
G1 X77.96 Y35.291 E.01808
G1 X79.398 Y36.729 E.07748
G1 X79.161 Y37.14 E.01808
G1 X77.423 Y35.402 E.09365
G1 X77.318 Y35.423 E.00408
M73 P1 R30
G1 X78.032 Y36.659 E.05438
G1 X79.074 Y37.701 E.05615
M204 S1000
M106 S127.5
;LAYER_CHANGE
;Z:0.4
;HEIGHT:0.2
;BEFORE_LAYER_CHANGE
G92 E0.0
;0.4


G1 E-1.6 F2100
;WIPE_START
G1 F9600
G1 X78.032 Y36.659 E-.30623
G1 X77.806 Y36.268 E-.09377
;WIPE_END
G1 X77.806 Y36.268 Z.2 F12000
G1 X78.631 Y34.119 Z.4 F8318.023
;AFTER_LAYER_CHANGE
;0.4
;@SNAPSHOT
M104 S195 ; set temperature
G1 X78.631 Y34.119 F12000
G1 Z.4 F720
G1 E2 F1500
M204 S900
;TYPE:Perimeter
;WIDTH:0.449999
G1 X78.59 Y34.272 E.00536
G1 X78.367 Y34.495 E.01067
G1 X77.746 Y34.853 E.02426
G1 X77.368 Y34.931 E.01306
;WIDTH:0.495374
G1 X77.252 Y34.892 E.0046
;WIDTH:0.540748
G1 X77.136 Y34.853 E.00507
;WIDTH:0.586123
G1 X77.02 Y34.814 E.00553
;WIDTH:0.631497
G1 X76.903 Y34.775 E.00604
G1 X76.837 Y34.673 E.00595
;WIDTH:0.624013
G1 X75.281 Y31.979 E.15032
G1 X75.292 Y31.832 E.00712
;WIDTH:0.58051
G1 X75.303 Y31.685 E.00659
;WIDTH:0.537006
G1 X75.313 Y31.538 E.00605
;WIDTH:0.493503
G1 X75.324 Y31.39 E.00556
;WIDTH:0.449999
G1 X75.58 Y31.102 E.01304
G1 X76.201 Y30.743 E.02428
G1 X76.4 Y30.671 E.00716
G1 X76.737 Y30.707 E.01147
G1 X77.035 Y30.967 E.01339
G1 X77.291 Y31.412 E.01738
G1 X78.426 Y30.757 E.04436
G1 X78.271 Y30.677 E.0059
G1 X78 Y30.401 E.01309
G1 X77.947 Y30.033 E.01258
G1 X78.01 Y29.848 E.00662
G1 X78.244 Y29.605 E.01142
G1 X78.904 Y29.224 E.0258
G1 X79.195 Y29.142 E.01023
G1 X79.479 Y29.205 E.00985
G1 X80.722 Y29.816 E.04688
G1 X80.982 Y30.059 E.01205
G1 X81.424 Y30.824 E.02991
G1 X81.505 Y31.098 E.00967
G1 X81.424 Y31.435 E.01173
G1 X81.2 Y31.658 E.0107
G1 X78.375 Y33.289 E.11042
G1 X78.59 Y33.661 E.01454
G1 X78.672 Y33.965 E.01066
G1 X78.646 Y34.061 E.00337
M204 S1000
G1 X78.25 Y34.013 F12000
M204 S700
;TYPE:External perimeter
G1 F1500
G1 X78.252 Y34.036 E.00078
G1 X78.163 Y34.143 E.00471
G1 X77.543 Y34.501 E.02423
G1 X77.417 Y34.527 E.00435
G1 X77.265 Y34.426 E.00618
G1 X75.709 Y31.732 E.10531
G1 X75.698 Y31.55 E.00617
G1 X75.784 Y31.454 E.00436
G1 X76.404 Y31.096 E.02423
G1 X76.471 Y31.072 E.00241
G1 X76.583 Y31.084 E.00381
G1 X76.682 Y31.17 E.00444
G1 X77.142 Y31.968 E.03118
G1 X79.277 Y30.735 E.08345
G1 X78.457 Y30.315 E.03118
G1 X78.366 Y30.223 E.00438
G1 X78.37 Y30.038 E.00626
G1 X78.448 Y29.958 E.00378
G1 X79.108 Y29.577 E.0258
G1 X79.241 Y29.552 E.00458
G1 X79.299 Y29.57 E.00206
G1 X80.543 Y30.181 E.04691
G1 X80.686 Y30.361 E.00778
G1 X81.071 Y31.028 E.02607
G1 X81.086 Y31.199 E.00581
G1 X80.997 Y31.306 E.00471
G1 X77.819 Y33.14 E.1242
G1 X78.238 Y33.865 E.02834
G1 X78.245 Y33.953 E.00299
M204 S1000
G1 E-1.6 F2100
;WIPE_START
G1 F9600
G1 X78.25 Y34.013 E-.01251
G1 X78.252 Y34.036 E-.0048
G1 X78.163 Y34.143 E-.02892
G1 X77.543 Y34.501 E-.14878
G1 X77.417 Y34.527 E-.02674
G1 X77.265 Y34.426 E-.03793
G1 X76.927 Y33.841 E-.14032
;WIPE_END
G1 X78.735 Y39.297 Z.5 F12000
G1 Z.4 F720
G1 E2 F1500
M204 S900
;TYPE:Perimeter
G1 X76.752 Y35.863 E.13422
;WIDTH:0.493502
G1 X76.648 Y35.638 E.00929
;WIDTH:0.537004
G1 X76.543 Y35.413 E.0102
;WIDTH:0.580507
G1 X76.438 Y35.189 E.01106
;WIDTH:0.624009
G1 X76.334 Y34.964 E.01198
G1 X74.778 Y32.27 E.15032
G1 X74.636 Y32.067 E.01197
;WIDTH:0.58051
G1 X74.493 Y31.864 E.0111
;WIDTH:0.537006
G1 X74.351 Y31.66 E.01021
;WIDTH:0.493503
G1 X74.209 Y31.457 E.00928
;WIDTH:0.449999
G1 X71.972 Y27.582 E.15145
G1 X72.463 Y27.582 E.01662
G1 X78.595 Y27.582 E.20756
G1 X78.698 Y27.64 E.004
G1 X79.032 Y27.667 E.01134
G1 X79.19 Y27.582 E.00607
G1 X85.007 Y27.582 E.1969
G1 X85.499 Y27.582 E.01665
G1 X85.253 Y28.008 E.01665
G1 X78.765 Y39.245 E.43921
M204 S1000
G1 X78.735 Y39.762 F12000
M204 S700
;TYPE:External perimeter
G1 F1203.71
G1 X78.471 Y39.654 E.00965
G1 X71.53 Y27.633 E.46985
G1 X71.569 Y27.35 E.00967
G1 X71.794 Y27.175 E.00965
G1 X78.718 Y27.175 E.23437
G1 X78.788 Y27.229 E.00299
G1 F1347.044
G1 X78.952 Y27.268 E.00571
G1 F1203.72
G1 X79.07 Y27.175 E.00509
G1 X84.777 Y27.175 E.19317
G1 X85.676 Y27.175 E.03043
G1 X85.901 Y27.35 E.00965
G1 F1415.784
G1 X85.922 Y27.504 E.00526
G1 F1203.71
G1 X85.94 Y27.633 E.00441
G1 X78.999 Y39.654 E.46985
G1 X78.791 Y39.739 E.00761
M204 S1000
G1 E-1.6 F2100
;WIPE_START
G1 F9600
G1 X78.735 Y39.762 E-.01258
G1 X78.471 Y39.654 E-.05928
G1 X77.681 Y38.287 E-.32814
;WIPE_END
G1 X76.717 Y27.949 Z.581 F12000
G1 Z.4 F720
G1 E2 F1500
M204 S1500
;TYPE:Solid infill
G1 F5400
G1 X74.111 Y30.555 E.12475
G1 X72.606 Y27.949 E.10186
G1 X77.293 Y27.949 E.15865
G1 X74.322 Y30.92 E.14222
G1 X74.536 Y31.282 E.01423
G1 X77.869 Y27.949 E.15955
M204 S1000
G1 X79.113 Y28.001 F12000
M204 S1500
G1 F5400
G1 X78.953 Y28.044 E.00561
G1 X78.32 Y27.949 E.02167
G1 X78.333 Y28.049 E.00341
;WIDTH:0.496972
G1 X78.122 Y28.297 E.01229
;WIDTH:0.543945
G1 X77.911 Y28.545 E.01357
;WIDTH:0.590918
G1 X77.7 Y28.793 E.01484
G1 X77.284 Y29.205 E.02668
;WIDTH:0.585475
G1 X77.114 Y29.343 E.00988
;WIDTH:0.540317
G1 X76.944 Y29.481 E.00906
;WIDTH:0.495158
G1 X76.775 Y29.619 E.0082
;WIDTH:0.449999
G1 X76.156 Y30.237 E.02961
G1 X75.8 Y30.54 E.01582
;WIDTH:0.41646
G1 X75.444 Y30.843 E.01452
G1 X75.838 Y30.592 E.01451
;WIDTH:0.449999
G1 X76.232 Y30.34 E.01583
G1 X76.547 Y30.299 E.01075
G1 X76.926 Y30.4 E.01328
G1 X77.332 Y30.752 E.01819
G1 X77.425 Y30.911 E.00623
G1 X77.794 Y30.698 E.01442
G1 X77.654 Y30.5 E.00821
G1 X77.585 Y29.988 E.01749
;WIDTH:0.495158
G1 X77.614 Y29.854 E.00516
;WIDTH:0.540317
G1 X77.642 Y29.72 E.00566
;WIDTH:0.585475
G1 X77.671 Y29.585 E.00623
;WIDTH:0.590918
G1 X78.031 Y29.224 E.02323
G1 X78.26 Y29.119 E.01148
;WIDTH:0.543945
G1 X78.489 Y29.014 E.0105
;WIDTH:0.496972
G1 X78.718 Y28.908 E.00953
;WIDTH:0.449999
G1 X79.23 Y28.78 E.01786
G1 X79.643 Y28.877 E.01436
G1 X80.878 Y29.484 E.04658
G1 X81.265 Y29.834 E.01766
G1 X81.642 Y30.508 E.02614
G1 X84.201 Y27.949 E.1225
G1 X79.31 Y27.949 E.16555
G1 X79.078 Y28.407 E.01738
;WIDTH:0.43969
G1 X78.959 Y28.418 E.00394
;WIDTH:0.48318
G1 X78.841 Y28.428 E.00434
;WIDTH:0.52667
G1 X78.723 Y28.439 E.00477
;WIDTH:0.57016
G1 X78.604 Y28.45 E.00524
M204 S1000
G1 X79.495 Y28.373 F12000
M204 S1500
;WIDTH:0.432398
G1 F5400
G1 X79.078 Y28.407 E.01355
;WIDTH:0.442715
G1 X79.416 Y28.408 E.01124
;WIDTH:0.449999
G1 X79.823 Y28.512 E.01422
G1 X81.058 Y29.119 E.04658
G1 X81.543 Y29.536 E.02165
G1 X81.74 Y29.834 E.01209
G1 X83.219 Y28.356 E.07077
G1 X79.698 Y28.356 E.11918
M204 S1000
G1 E-1.6 F2100
;WIPE_START
G1 F9600
G1 X81.623 Y28.356 E-.4
;WIPE_END
G1 X81.235 Y28.758 Z.41 F12000
G1 Z.4 F720
G1 E2 F1500
M204 S1500
;WIDTH:0.4332
G1 F5400
G1 X82.256 Y28.755 E.03313
G1 X81.789 Y29.221 E.02141
G1 X81.652 Y29.092 E.00611
G1 X81.394 Y28.886 E.01071
M204 S1000
G1 E-1.6 F2100
;WIPE_START
G1 F9600
G1 X81.652 Y29.092 E-.06861
G1 X81.789 Y29.221 E-.03911
G1 X82.256 Y28.755 E-.1371
G1 X81.51 Y28.757 E-.15518
;WIPE_END
G1 X81.823 Y30.903 Z.438 F12000
G1 Z.4 F720
G1 E2 F1500
M204 S1500
;WIDTH:0.449999
G1 F5400
G1 X84.777 Y27.949 E.14141
G1 X84.938 Y27.905 E.00565
;WIDTH:0.41646
G1 X85.098 Y27.861 E.00515
;WIDTH:0.38292
G1 X85.057 Y27.872 E.0012
G1 X85.038 Y27.801 E.00208
G1 X85.109 Y27.82 E.00208
M204 S1000
G1 X84.458 Y28.806 F12000
M204 S1500
G1 F5400
G1 X84.387 Y28.787 E.00208
G1 X84.406 Y28.858 E.00208
G1 X84.447 Y28.847 E.0012
;WIDTH:0.41646
G1 X84.322 Y28.976 E.00558
;WIDTH:0.449999
G1 X81.793 Y31.509 E.12116
M204 S1000
G1 E-1.6 F2100
;WIPE_START
G1 F9600
G1 X83.153 Y30.147 E-.4
;WIPE_END
G1 X79.885 Y32.84 Z.474 F12000
G1 Z.4 F720
G1 E2 F1500
M204 S1500
G1 F5400
G1 X78.984 Y33.742 E.04315
G1 X78.914 Y33.572 E.00622
;WIDTH:0.41646
G1 X78.844 Y33.401 E.00574
;WIDTH:0.38292
G1 X78.773 Y33.382 E.00208
G1 X78.792 Y33.453 E.00208
G1 X78.833 Y33.442 E.0012
M204 S1000
G1 X78.961 Y34.341 F12000
M204 S1500
;WIDTH:0.449999
G1 F5400
G1 X81.248 Y32.054 E.10948
M204 S1000
G1 E-1.6 F2100
;WIPE_START
G1 F9600
G1 X79.887 Y33.415 E-.4
;WIPE_END
G1 X77.159 Y30.003 Z.476 F12000
G1 Z.4 F720
G1 E2 F1500
M204 S1500
;WIDTH:0.586954
G1 F5400
G1 X77.093 Y30.021 E.00309
G1 X77.045 Y29.972 E.0031
G1 X77.063 Y29.907 E.00305
G1 X77.128 Y29.889 E.00305
G1 X77.177 Y29.937 E.0031
M204 S1000
G1 E-1.6 F2100
;WIPE_START
G1 F9600
G1 X77.128 Y29.889 E-.01425
G1 X77.063 Y29.907 E-.01402
G1 X77.045 Y29.972 E-.01402
G1 X77.093 Y30.021 E-.01425
G1 X77.159 Y30.003 E-.01422
;WIPE_END
G1 E-.32924 F2100
G1 X75.444 Y30.843 Z.433 F12000
G1 Z.4 F720
G1 E2 F1500
M204 S1500
;WIDTH:0.38292
G1 F5400
G1 X75.07 Y31.235 E.01532
;WIDTH:0.428571
G1 X75.022 Y31.326 E.0033
;WIDTH:0.474221
G1 X74.973 Y31.417 E.00371
;WIDTH:0.519872
G1 X74.925 Y31.507 E.00405
;WIDTH:0.565522
G1 X74.877 Y31.598 E.00447
M204 S1000
G1 E-1.6 F2100
;WIPE_START
G1 F9600
G1 X74.925 Y31.507 E-.02138
G1 X74.973 Y31.417 E-.0212
G1 X75.022 Y31.326 E-.02148
G1 X75.07 Y31.235 E-.02138
G1 X75.444 Y30.843 E-.11259
;WIPE_END
G1 E-.20197 F2100
G1 X75.531 Y28.356 Z.443 F12000
G1 Z.4 F720
G1 E2 F1500
M204 S1500
;WIDTH:0.449999
G1 F5400
G1 X73.311 Y28.356 E.07514
G1 X74.198 Y29.892 E.06004
G1 X75.734 Y28.356 E.07353
M204 S1000
G1 X74.783 Y28.75 F12000
M204 S1500
;WIDTH:0.423834
G1 F5400
G1 X74.283 Y29.251 E.02242
G1 X73.994 Y28.75 E.01832
G1 X74.58 Y28.75 E.01856
M204 S1000
G1 E-1.6 F2100
;WIPE_START
G1 F9600
G1 X73.994 Y28.75 E-.12178
G1 X74.283 Y29.251 E-.12019
G1 X74.783 Y28.75 E-.14709
;WIPE_END
G1 E-.01094 F2100
G1 X76.984 Y35.191 Z.519 F12000
G1 Z.4 F720
G1 E2 F1500
M204 S1500
;WIDTH:0.466686
G1 F5400
G1 X76.947 Y35.154 E.00184
G1 X76.896 Y35.168 E.00186
G1 X76.882 Y35.219 E.00186
G1 X76.919 Y35.256 E.00184
G1 X76.971 Y35.243 E.00189
;WIDTH:0.449999
G1 X77.067 Y35.659 E.01445
G1 X77.448 Y35.278 E.01824
G1 X77.606 Y35.215 E.00576
;WIDTH:0.41646
G1 X77.764 Y35.152 E.00528
