; generated by PrusaSlicer 2.9.3 on 2025-10-27 at 19:22:33 UTC


;
;

;
;

;
;

;
;

;
;
; 

; external perimeters extrusion width = 0.45mm
; perimeters extrusion width = 0.45mm
; infill extrusion width = 0.45mm
; solid infill extrusion width = 0.45mm
; top infill extrusion width = 0.42mm
; support material extrusion width = 0.37mm
; first layer extrusion width = 0.50mm

M73 P0 R18

EXCLUDE_OBJECT_DEFINE NAME='First_Layer_Patch_0_3mm_stl_(Instance_1)' CENTER=64.265,84.755 POLYGON=[[76.765,97.255],[51.765,97.255],[51.765,72.255],[76.765,72.255]]
EXCLUDE_OBJECT_DEFINE NAME='First_Layer_Patch_0_3mm_stl_(Instance_6)' CENTER=104.755,165.735 POLYGON=[[117.255,178.235],[92.255,178.235],[92.255,153.235],[117.255,153.235]]
EXCLUDE_OBJECT_DEFINE NAME='First_Layer_Patch_0_3mm_stl_(Instance_7)' CENTER=145.245,165.735 POLYGON=[[157.745,178.235],[132.745,178.235],[132.745,153.235],[157.745,153.235]]
EXCLUDE_OBJECT_DEFINE NAME='First_Layer_Patch_0_3mm_stl_(Instance_10)' CENTER=104.755,125.245 POLYGON=[[117.255,137.745],[92.255,137.745],[92.255,112.745],[117.255,112.745]]
EXCLUDE_OBJECT_DEFINE NAME='First_Layer_Patch_0_3mm_stl_(Instance_12)' CENTER=185.735,44.265 POLYGON=[[198.235,56.765],[173.235,56.765],[173.235,31.765],[198.235,31.765]]
EXCLUDE_OBJECT_DEFINE NAME='First_Layer_Patch_0_3mm_stl_(Instance_13)' CENTER=104.755,44.265 POLYGON=[[117.255,56.765],[92.255,56.765],[92.255,31.765],[117.255,31.765]]
EXCLUDE_OBJECT_DEFINE NAME='First_Layer_Patch_0_3mm_stl_(Instance_14)' CENTER=104.755,84.755 POLYGON=[[117.255,97.255],[92.255,97.255],[92.255,72.255],[117.255,72.255]]
EXCLUDE_OBJECT_DEFINE NAME='First_Layer_Patch_0_3mm_stl_(Instance_4)' CENTER=185.735,125.245 POLYGON=[[198.235,137.745],[173.235,137.745],[173.235,112.745],[198.235,112.745]]
EXCLUDE_OBJECT_DEFINE NAME='First_Layer_Patch_0_3mm_stl_(Instance_5)' CENTER=64.265,125.245 POLYGON=[[76.765,137.745],[51.765,137.745],[51.765,112.745],[76.765,112.745]]
EXCLUDE_OBJECT_DEFINE NAME='First_Layer_Patch_0_3mm_stl_(Instance_8)' CENTER=64.265,44.265 POLYGON=[[76.765,56.765],[51.765,56.765],[51.765,31.765],[76.765,31.765]]
EXCLUDE_OBJECT_DEFINE NAME='First_Layer_Patch_0_3mm_stl_(Instance_2)' CENTER=64.265,165.735 POLYGON=[[76.765,178.235],[51.765,178.235],[51.765,153.235],[76.765,153.235]]
EXCLUDE_OBJECT_DEFINE NAME='First_Layer_Patch_0_3mm_stl_(Instance_3)' CENTER=145.245,125.245 POLYGON=[[157.745,137.745],[132.745,137.745],[132.745,112.745],[157.745,112.745]]
EXCLUDE_OBJECT_DEFINE NAME='First_Layer_Patch_0_3mm_stl_(Instance_9)' CENTER=185.735,165.735 POLYGON=[[198.235,178.235],[173.235,178.235],[173.235,153.235],[198.235,153.235]]
EXCLUDE_OBJECT_DEFINE NAME='First_Layer_Patch_0_3mm_stl_(Instance_11)' CENTER=145.245,84.755 POLYGON=[[157.745,97.255],[132.745,97.255],[132.745,72.255],[157.745,72.255]]
EXCLUDE_OBJECT_DEFINE NAME='First_Layer_Patch_0_3mm_stl_(Instance_15)' CENTER=185.735,84.755 POLYGON=[[198.235,97.255],[173.235,97.255],[173.235,72.255],[198.235,72.255]]
EXCLUDE_OBJECT_DEFINE NAME='First_Layer_Patch_0_3mm_stl_(Instance_16)' CENTER=145.245,44.265 POLYGON=[[157.745,56.765],[132.745,56.765],[132.745,31.765],[157.745,31.765]]

;TYPE:Custom
G90 ; use absolute coordinates
M83 ; extruder relative mode
M104 S170 ; preheat hotend to 170
M140 S85 ; set bed temp
M190 S85 ; wait for bed temp
G28 ; home all
;G29 ; mesh bed leveling
BED_MESH_CALIBRATE
G0 X0 Z0.6 Y-3.0 F1000.0 ; go outside print area for intro line
M104 S225 ; set hotend temp
M109 S225 ; wait for hotend temp
;M104 S0 ; Stops PS/SS from sending temp waits separately
;M140 S0
;PRINT_START BED=85 HOTEND=225
G92 E0.0
G1 X60.0 E9.0 F1000.0 ; intro line
G1 X100.0 E12.5 F1000.0 ; intro line
G92 E0.0
SKEW_PROFILE LOAD=CaliFlower

; KLIPPER_PLR
G31
save_last_file
SAVE_VARIABLE VARIABLE=was_interrupted VALUE=True
G21 ; set units to millimeters
G90 ; use absolute coordinates
M83 ; use relative distances for extrusion
M900 K0.07 ; Filament gcode



M142 S36 ; set heatbreak target temp
M107
;LAYER_CHANGE
;Z:0.25
;HEIGHT:0.25
G1 E-.8 F2100
G1 Z1.75 F720
EXCLUDE_OBJECT_START NAME='First_Layer_Patch_0_3mm_stl_(Instance_2)'
G1 X75.422 Y176.892 F12000
G1 Z.25 F720
G1 E.8 F1500
M204 S600
;TYPE:Perimeter
;WIDTH:0.499999
G1 F1200
G1 X53.108 Y176.892 E1.0352
G1 X53.108 Y154.578 E1.0352
G1 X75.422 Y154.578 E1.0352
G1 X75.422 Y165.735 E.5176
G1 X75.422 Y176.832 E.51482
M73 P1 R18
M204 S1000
G1 X75.869 Y177.339 F12000
M204 S600
G1 F1200
G1 X52.661 Y177.339 E1.07668
G1 X52.661 Y154.131 E1.07668
G1 X75.869 Y154.131 E1.07668
G1 X75.869 Y165.735 E.53834
G1 X75.869 Y177.279 E.53556
M204 S1000
G1 X76.315 Y177.785 F12000
M204 S600
;TYPE:External perimeter
G1 F1200
G1 X52.215 Y177.785 E1.11806
G1 X52.215 Y153.685 E1.11806
G1 X76.315 Y153.685 E1.11806
G1 X76.315 Y165.735 E.55903
G1 X76.315 Y177.725 E.55625
M204 S1000
G1 E-.16 F2100
;WIPE_START
G1 F9600
G1 X76.315 Y177.785 E-.01247
G1 X73.295 Y177.785 E-.62753
;WIPE_END
G1 X75.221 Y155.689 Z.637 F12000
G1 Z.25 F720
G1 E.8 F1500
M204 S600
;TYPE:Solid infill
;WIDTH:0.503688
G1 F1200
G1 X74.512 Y154.979 E.04693
G1 X73.876 Y154.979 E.02975
G1 X75.021 Y156.124 E.07574
G1 X75.021 Y156.761 E.0298
G1 X73.239 Y154.979 E.11788
G1 X72.603 Y154.979 E.02975
G1 X75.021 Y157.397 E.15995
G1 X75.021 Y158.034 E.0298
M73 P2 R18
G1 X71.966 Y154.979 E.20209
G1 X71.33 Y154.979 E.02975
G1 X75.021 Y158.67 E.24416
G1 X75.021 Y159.307 E.0298
G1 X70.693 Y154.979 E.2863
G1 X70.057 Y154.979 E.02975
G1 X75.021 Y159.943 E.32837
G1 X75.021 Y160.579 E.02975
G1 X69.421 Y154.979 E.37045
G1 X68.784 Y154.979 E.0298
G1 X75.021 Y161.216 E.41259
G1 X75.021 Y161.852 E.02975
G1 X68.148 Y154.979 E.45466
G1 X67.511 Y154.979 E.0298
G1 X75.021 Y162.489 E.4968
G1 X75.021 Y163.125 E.02975
G1 X66.875 Y154.979 E.53887
G1 X66.238 Y154.979 E.0298
G1 X75.021 Y163.762 E.58101
G1 X75.021 Y164.398 E.02975
G1 X65.602 Y154.979 E.62308
G1 X64.965 Y154.979 E.0298
G1 X75.021 Y165.035 E.66522
G1 X75.021 Y165.671 E.02975
G1 X64.329 Y154.979 E.70729
G1 X63.693 Y154.979 E.02975
G1 X75.021 Y166.307 E.74936
G1 X75.021 Y166.944 E.0298
G1 X63.056 Y154.979 E.7915
G1 X62.42 Y154.979 E.02975
G1 X75.021 Y167.58 E.83357
G1 X75.021 Y168.217 E.0298
G1 X61.783 Y154.979 E.87571
G1 X61.147 Y154.979 E.02975
G1 X75.021 Y168.853 E.91778
G1 X75.021 Y169.49 E.0298
M73 P3 R18
G1 X60.51 Y154.979 E.95992
G1 X59.874 Y154.979 E.02975
G1 X75.021 Y170.126 E1.00199
G1 X75.021 Y170.763 E.0298
G1 X59.237 Y154.979 E1.04413
G1 X58.601 Y154.979 E.02975
G1 X75.021 Y171.399 E1.0862
G1 X75.021 Y172.036 E.0298
G1 X57.964 Y154.979 E1.12834
G1 X57.328 Y154.979 E.02975
G1 X75.021 Y172.672 E1.17041
G1 X75.021 Y173.308 E.02975
G1 X56.692 Y154.979 E1.21249
G1 X56.055 Y154.979 E.0298
G1 X75.021 Y173.945 E1.25463
G1 X75.021 Y174.581 E.02975
G1 X55.419 Y154.979 E1.2967
G1 X54.782 Y154.979 E.0298
M73 P4 R18
G1 X75.021 Y175.218 E1.33884
G1 X75.021 Y175.854 E.02975
G1 X54.146 Y154.979 E1.38091
G1 X53.509 Y154.979 E.0298
G1 X75.021 Y176.491 E1.42305
G1 X74.384 Y176.491 E.0298
G1 X53.509 Y155.616 E1.38091
G1 X53.509 Y156.252 E.02975
G1 X73.748 Y176.491 E1.33884
G1 X73.111 Y176.491 E.0298
G1 X53.509 Y156.889 E1.2967
G1 X53.509 Y157.525 E.02975
G1 X72.475 Y176.491 E1.25463
G1 X71.838 Y176.491 E.0298
M73 P4 R17
G1 X53.509 Y158.162 E1.21249
G1 X53.509 Y158.798 E.02975
M73 P5 R17
G1 X71.202 Y176.491 E1.17041
G1 X70.565 Y176.491 E.0298
G1 X53.509 Y159.435 E1.12828
G1 X53.509 Y160.071 E.02975
G1 X69.929 Y176.491 E1.0862
G1 X69.292 Y176.491 E.0298
G1 X53.509 Y160.708 E1.04407
G1 X53.509 Y161.344 E.02975
G1 X68.656 Y176.491 E1.00199
G1 X68.02 Y176.491 E.02975
G1 X53.509 Y161.98 E.95992
G1 X53.509 Y162.617 E.0298
G1 X67.383 Y176.491 E.91778
G1 X66.747 Y176.491 E.02975
G1 X53.509 Y163.253 E.87571
G1 X53.509 Y163.89 E.0298
G1 X66.11 Y176.491 E.83357
G1 X65.474 Y176.491 E.02975
G1 X53.509 Y164.526 E.7915
G1 X53.509 Y165.163 E.0298
M73 P6 R17
G1 X64.837 Y176.491 E.74936
G1 X64.201 Y176.491 E.02975
G1 X53.509 Y165.799 E.70729
G1 X53.509 Y166.436 E.0298
G1 X63.564 Y176.491 E.66515
G1 X62.928 Y176.491 E.02975
G1 X53.509 Y167.072 E.62308
G1 X53.509 Y167.708 E.02975
G1 X62.292 Y176.491 E.58101
G1 X61.655 Y176.491 E.0298
G1 X53.509 Y168.345 E.53887
G1 X53.509 Y168.981 E.02975
G1 X61.019 Y176.491 E.4968
G1 X60.382 Y176.491 E.0298
G1 X53.509 Y169.618 E.45466
G1 X53.509 Y170.254 E.02975
G1 X59.746 Y176.491 E.41259
G1 X59.109 Y176.491 E.0298
G1 X53.509 Y170.891 E.37045
G1 X53.509 Y171.527 E.02975
G1 X58.473 Y176.491 E.32837
G1 X57.836 Y176.491 E.0298
G1 X53.509 Y172.164 E.28624
G1 X53.509 Y172.8 E.02975
G1 X57.2 Y176.491 E.24416
G1 X56.563 Y176.491 E.0298
G1 X53.509 Y173.437 E.20203
G1 X53.509 Y174.073 E.02975
G1 X55.927 Y176.491 E.15995
G1 X55.291 Y176.491 E.02975
G1 X53.509 Y174.709 E.11788
G1 X53.509 Y175.346 E.0298
G1 X54.654 Y176.491 E.07574
G1 X54.018 Y176.491 E.02975
G1 X53.309 Y175.781 E.04693
M204 S1000
G1 E-.16 F2100
;WIPE_START
G1 F9600
G1 X54.018 Y176.491 E-.20852
G1 X54.654 Y176.491 E-.13217
G1 X53.636 Y175.472 E-.29931
;WIPE_END
EXCLUDE_OBJECT_END NAME='First_Layer_Patch_0_3mm_stl_(Instance_2)'
EXCLUDE_OBJECT_START NAME='First_Layer_Patch_0_3mm_stl_(Instance_6)'
G1 X115.912 Y176.892 Z1.337 F12000
G1 Z.25 F720
G1 E.8 F1500
M204 S600
;TYPE:Perimeter
;WIDTH:0.499999
G1 F1200
G1 X93.598 Y176.892 E1.0352
G1 X93.598 Y154.578 E1.0352
G1 X115.912 Y154.578 E1.0352
M73 P7 R17
G1 X115.912 Y165.735 E.5176
G1 X115.912 Y176.832 E.51482
M204 S1000
G1 X116.359 Y177.339 F12000
M204 S600
G1 F1200
G1 X93.151 Y177.339 E1.07668
G1 X93.151 Y154.131 E1.07668
G1 X116.359 Y154.131 E1.07668
G1 X116.359 Y165.735 E.53834
G1 X116.359 Y177.279 E.53556
M204 S1000
G1 X116.805 Y177.785 F12000
M204 S600
;TYPE:External perimeter
G1 F1200
G1 X92.705 Y177.785 E1.11806
G1 X92.705 Y153.685 E1.11806
G1 X116.805 Y153.685 E1.11806
G1 X116.805 Y165.735 E.55903
G1 X116.805 Y177.725 E.55625
M73 P8 R17
M204 S1000
G1 E-.16 F2100
;WIPE_START
G1 F9600
G1 X116.805 Y177.785 E-.01247
G1 X113.785 Y177.785 E-.62753
;WIPE_END
G1 X115.711 Y155.689 Z.637 F12000
G1 Z.25 F720
G1 E.8 F1500
M204 S600
;TYPE:Solid infill
;WIDTH:0.503688
G1 F1200
G1 X115.002 Y154.979 E.04693
G1 X114.366 Y154.979 E.02975
G1 X115.511 Y156.124 E.07574
G1 X115.511 Y156.761 E.0298
G1 X113.729 Y154.979 E.11788
G1 X113.093 Y154.979 E.02975
G1 X115.511 Y157.397 E.15995
G1 X115.511 Y158.034 E.0298
G1 X112.456 Y154.979 E.20209
G1 X111.82 Y154.979 E.02975
G1 X115.511 Y158.67 E.24416
G1 X115.511 Y159.307 E.0298
G1 X111.183 Y154.979 E.2863
G1 X110.547 Y154.979 E.02975
G1 X115.511 Y159.943 E.32837
G1 X115.511 Y160.579 E.02975
G1 X109.911 Y154.979 E.37045
G1 X109.274 Y154.979 E.0298
G1 X115.511 Y161.216 E.41259
G1 X115.511 Y161.852 E.02975
G1 X108.638 Y154.979 E.45466
G1 X108.001 Y154.979 E.0298
G1 X115.511 Y162.489 E.4968
G1 X115.511 Y163.125 E.02975
G1 X107.365 Y154.979 E.53887
G1 X106.728 Y154.979 E.0298
G1 X115.511 Y163.762 E.58101
G1 X115.511 Y164.398 E.02975
G1 X106.092 Y154.979 E.62308
G1 X105.455 Y154.979 E.0298
G1 X115.511 Y165.035 E.66522
G1 X115.511 Y165.671 E.02975
G1 X104.819 Y154.979 E.70729
G1 X104.183 Y154.979 E.02975
G1 X115.511 Y166.307 E.74936
G1 X115.511 Y166.944 E.0298
G1 X103.546 Y154.979 E.7915
G1 X102.91 Y154.979 E.02975
G1 X115.511 Y167.58 E.83357
G1 X115.511 Y168.217 E.0298
M73 P9 R17
G1 X102.273 Y154.979 E.87571
G1 X101.637 Y154.979 E.02975
G1 X115.511 Y168.853 E.91778
G1 X115.511 Y169.49 E.0298
G1 X101 Y154.979 E.95992
G1 X100.364 Y154.979 E.02975
G1 X115.511 Y170.126 E1.00199
G1 X115.511 Y170.763 E.0298
G1 X99.727 Y154.979 E1.04413
G1 X99.091 Y154.979 E.02975
G1 X115.511 Y171.399 E1.0862
G1 X115.511 Y172.036 E.0298
G1 X98.455 Y154.979 E1.12831
G1 X97.818 Y154.979 E.0298
G1 X115.511 Y172.672 E1.17041
G1 X115.511 Y173.308 E.02975
G1 X97.182 Y154.979 E1.21249
G1 X96.545 Y154.979 E.0298
G1 X115.511 Y173.945 E1.25463
G1 X115.511 Y174.581 E.02975
M73 P10 R17
G1 X95.909 Y154.979 E1.2967
G1 X95.272 Y154.979 E.0298
M73 P10 R16
G1 X115.511 Y175.218 E1.33884
G1 X115.511 Y175.854 E.02975
G1 X94.636 Y154.979 E1.38091
G1 X93.999 Y154.979 E.0298
G1 X115.511 Y176.491 E1.42305
G1 X114.874 Y176.491 E.0298
G1 X93.999 Y155.616 E1.38091
G1 X93.999 Y156.252 E.02975
G1 X114.238 Y176.491 E1.33884
G1 X113.601 Y176.491 E.0298
G1 X93.999 Y156.889 E1.2967
G1 X93.999 Y157.525 E.02975
M73 P11 R16
G1 X112.965 Y176.491 E1.25463
G1 X112.328 Y176.491 E.0298
G1 X93.999 Y158.162 E1.21249
G1 X93.999 Y158.798 E.02975
G1 X111.692 Y176.491 E1.17041
G1 X111.055 Y176.491 E.0298
G1 X93.999 Y159.435 E1.12828
G1 X93.999 Y160.071 E.02975
G1 X110.419 Y176.491 E1.0862
G1 X109.782 Y176.491 E.0298
G1 X93.999 Y160.708 E1.04407
G1 X93.999 Y161.344 E.02975
G1 X109.146 Y176.491 E1.00199
G1 X108.51 Y176.491 E.02975
G1 X93.999 Y161.98 E.95992
G1 X93.999 Y162.617 E.0298
G1 X107.873 Y176.491 E.91778
G1 X107.237 Y176.491 E.02975
G1 X93.999 Y163.253 E.87571
G1 X93.999 Y163.89 E.0298
M73 P12 R16
G1 X106.6 Y176.491 E.83357
G1 X105.964 Y176.491 E.02975
G1 X93.999 Y164.526 E.7915
G1 X93.999 Y165.163 E.0298
G1 X105.327 Y176.491 E.74936
G1 X104.691 Y176.491 E.02975
G1 X93.999 Y165.799 E.70729
G1 X93.999 Y166.436 E.0298
G1 X104.054 Y176.491 E.66515
G1 X103.418 Y176.491 E.02975
G1 X93.999 Y167.072 E.62308
G1 X93.999 Y167.708 E.02975
G1 X102.782 Y176.491 E.58101
G1 X102.145 Y176.491 E.0298
G1 X93.999 Y168.345 E.53887
G1 X93.999 Y168.981 E.02975
G1 X101.509 Y176.491 E.4968
G1 X100.872 Y176.491 E.0298
G1 X93.999 Y169.618 E.45466
G1 X93.999 Y170.254 E.02975
G1 X100.236 Y176.491 E.41259
G1 X99.599 Y176.491 E.0298
G1 X93.999 Y170.891 E.37045
G1 X93.999 Y171.527 E.02975
G1 X98.963 Y176.491 E.32837
G1 X98.326 Y176.491 E.0298
G1 X93.999 Y172.164 E.28624
G1 X93.999 Y172.8 E.02975
G1 X97.69 Y176.491 E.24416
G1 X97.053 Y176.491 E.0298
G1 X93.999 Y173.437 E.20203
G1 X93.999 Y174.073 E.02975
G1 X96.417 Y176.491 E.15995
G1 X95.781 Y176.491 E.02975
G1 X93.999 Y174.709 E.11788
G1 X93.999 Y175.346 E.0298
G1 X95.144 Y176.491 E.07574
G1 X94.508 Y176.491 E.02975
G1 X93.799 Y175.781 E.04693
M204 S1000
G1 E-.16 F2100
;WIPE_START
G1 F9600
G1 X94.508 Y176.491 E-.20852
G1 X95.144 Y176.491 E-.13217
G1 X94.126 Y175.472 E-.29931
;WIPE_END
EXCLUDE_OBJECT_END NAME='First_Layer_Patch_0_3mm_stl_(Instance_6)'
EXCLUDE_OBJECT_START NAME='First_Layer_Patch_0_3mm_stl_(Instance_7)'
G1 X156.402 Y176.892 Z1.337 F12000
G1 Z.25 F720
M73 P13 R16
G1 E.8 F1500
M204 S600
;TYPE:Perimeter
;WIDTH:0.499999
G1 F1200
G1 X134.088 Y176.892 E1.0352
G1 X134.088 Y154.578 E1.0352
G1 X156.402 Y154.578 E1.0352
G1 X156.402 Y165.735 E.5176
G1 X156.402 Y176.832 E.51482
M204 S1000
G1 X156.849 Y177.339 F12000
M204 S600
G1 F1200
G1 X133.641 Y177.339 E1.07668
G1 X133.641 Y154.131 E1.07668
G1 X156.849 Y154.131 E1.07668
G1 X156.849 Y165.735 E.53834
G1 X156.849 Y177.279 E.53556
M204 S1000
G1 X157.295 Y177.785 F12000
M204 S600
;TYPE:External perimeter
G1 F1200
G1 X133.195 Y177.785 E1.11806
G1 X133.195 Y153.685 E1.11806
G1 X157.295 Y153.685 E1.11806
M73 P14 R16
G1 X157.295 Y165.735 E.55903
G1 X157.295 Y177.725 E.55625
M204 S1000
G1 E-.16 F2100
;WIPE_START
G1 F9600
G1 X157.295 Y177.785 E-.01247
G1 X154.275 Y177.785 E-.62753
;WIPE_END
G1 X156.201 Y155.689 Z.637 F12000
G1 Z.25 F720
G1 E.8 F1500
M204 S600
;TYPE:Solid infill
;WIDTH:0.503688
G1 F1200
G1 X155.492 Y154.979 E.04693
G1 X154.856 Y154.979 E.02975
G1 X156.001 Y156.124 E.07574
G1 X156.001 Y156.761 E.0298
G1 X154.219 Y154.979 E.11788
G1 X153.583 Y154.979 E.02975
G1 X156.001 Y157.397 E.15995
G1 X156.001 Y158.034 E.0298
G1 X152.946 Y154.979 E.20209
G1 X152.31 Y154.979 E.02975
G1 X156.001 Y158.67 E.24416
G1 X156.001 Y159.307 E.0298
G1 X151.673 Y154.979 E.2863
G1 X151.037 Y154.979 E.02975
G1 X156.001 Y159.943 E.32837
G1 X156.001 Y160.579 E.02975
G1 X150.401 Y154.979 E.37045
G1 X149.764 Y154.979 E.0298
G1 X156.001 Y161.216 E.41259
G1 X156.001 Y161.852 E.02975
G1 X149.128 Y154.979 E.45466
G1 X148.491 Y154.979 E.0298
G1 X156.001 Y162.489 E.4968
G1 X156.001 Y163.125 E.02975
G1 X147.855 Y154.979 E.53887
G1 X147.218 Y154.979 E.0298
G1 X156.001 Y163.762 E.58101
G1 X156.001 Y164.398 E.02975
G1 X146.582 Y154.979 E.62308
G1 X145.945 Y154.979 E.0298
G1 X156.001 Y165.035 E.66522
G1 X156.001 Y165.671 E.02975
G1 X145.309 Y154.979 E.70729
G1 X144.673 Y154.979 E.02975
