; generated by PrusaSlicer 2.9.3 on 2025-09-24 at 19:37:55 UTC


;
;

;
;

;
;

;
;

;
;
; 

; external perimeters extrusion width = 0.50mm
; perimeters extrusion width = 0.50mm
; infill extrusion width = 0.50mm
; solid infill extrusion width = 0.50mm
; top infill extrusion width = 0.45mm
; first layer extrusion width = 0.50mm

M73 P0 R13

EXCLUDE_OBJECT_DEFINE NAME='Incredible_Albar(2)_stl_(Instance_1)' CENTER=125.000,201.630 POLYGON=[[215.000,206.630],[35.000,206.630],[35.000,196.630],[215.000,196.630]]
EXCLUDE_OBJECT_DEFINE NAME='Incredible_Albar(2)_stl_(Instance_2)' CENTER=125.000,137.210 POLYGON=[[215.000,142.210],[35.000,142.210],[35.000,132.210],[215.000,132.210]]
EXCLUDE_OBJECT_DEFINE NAME='Incredible_Albar(2)_stl_(Instance_3)' CENTER=125.000,72.790 POLYGON=[[215.000,77.790],[35.000,77.790],[35.000,67.790],[215.000,67.790]]
EXCLUDE_OBJECT_DEFINE NAME='Incredible_Albar(2)_stl_(Instance_4)' CENTER=125.000,8.370 POLYGON=[[215.000,13.370],[35.000,13.370],[35.000,3.370],[215.000,3.370]]

;TYPE:Custom
G90 ; use absolute coordinates
M83 ; extruder relative mode
M104 S170 ; preheat hotend to 170
M140 S85 ; set bed temp
M190 S85 ; wait for bed temp
G28 ; home all
G29 ; mesh bed leveling
G0 X0 Z0.6 Y-3.0 F1000.0 ; go outside print area for intro line
M104 S215 ; set hotend temp
M109 S215 ; wait for hotend temp
G92 E0.0
G1 X60.0 E9.0 F1000.0 ; intro line
G1 X100.0 E12.5 F1000.0 ; intro line
G92 E0.0
G21 ; set units to millimeters
G90 ; use absolute coordinates
M83 ; use relative distances for extrusion
M900 K0.07 ; Filament gcode



M142 S36 ; set heatbreak target temp
M107
;LAYER_CHANGE
;Z:0.3
;HEIGHT:0.3
G1 E-.8 F2100
G1 Z1.8 F720
EXCLUDE_OBJECT_START NAME='Incredible_Albar(2)_stl_(Instance_1)'
G1 X214.114 Y205.744 F12000
G1 Z.3 F720
G1 E.8 F1500
M204 S600
;TYPE:Perimeter
;WIDTH:0.5
G1 F1200
G1 X35.886 Y205.744 E9.68363
G1 X35.886 Y197.516 E.44705
M73 P2 R13
G1 X214.114 Y197.516 E9.68363
G1 X214.114 Y201.63 E.22353
M73 P3 R13
G1 X214.114 Y205.684 E.22027
M204 S1000
G1 X214.55 Y206.18 F12000
M204 S600
;TYPE:External perimeter
G1 F1200
G1 X35.45 Y206.18 E9.731
G1 X35.45 Y197.08 E.49443
M73 P4 R13
G1 X214.55 Y197.08 E9.731
G1 X214.55 Y201.63 E.24721
M73 P5 R13
G1 X214.55 Y206.12 E.24395
M204 S1000
G1 E-.16 F2100
;WIPE_START
G1 F9600
G1 X214.55 Y206.18 E-.01247
G1 X211.53 Y206.18 E-.62753
;WIPE_END
G1 X213.918 Y198.594 Z.439 F12000
G1 Z.3 F720
G1 E.8 F1500
M204 S600
;TYPE:Solid infill
;WIDTH:0.500768
G1 F1200
G1 X213.232 Y197.908 E.0528
G1 X212.615 Y197.908 E.03358
G1 X213.722 Y199.015 E.08521
G1 X213.722 Y199.632 E.03358
G1 X211.998 Y197.908 E.1327
G1 X211.381 Y197.908 E.03358
G1 X213.722 Y200.249 E.1802
G1 X213.722 Y200.866 E.03358
G1 X210.764 Y197.908 E.22769
G1 X210.146 Y197.908 E.03364
G1 X213.722 Y201.484 E.27526
G1 X213.722 Y202.101 E.03358
G1 X209.529 Y197.908 E.32275
G1 X208.912 Y197.908 E.03358
G1 X213.722 Y202.718 E.37024
G1 X213.722 Y203.335 E.03358
G1 X208.295 Y197.908 E.41774
G1 X207.678 Y197.908 E.03358
G1 X213.722 Y203.952 E.46523
G1 X213.722 Y204.569 E.03358
G1 X207.061 Y197.908 E.51272
G1 X206.444 Y197.908 E.03358
G1 X213.722 Y205.186 E.56021
G1 X213.722 Y205.352 E.00904
G1 X213.271 Y205.352 E.02455
G1 X205.826 Y197.908 E.57303
G1 X205.209 Y197.908 E.03358
M73 P6 R13
G1 X212.654 Y205.352 E.57303
G1 X212.037 Y205.352 E.03358
G1 X204.592 Y197.908 E.57303
G1 X203.975 Y197.908 E.03358
G1 X211.42 Y205.352 E.57303
G1 X210.802 Y205.352 E.03364
G1 X203.358 Y197.908 E.57299
G1 X202.741 Y197.908 E.03358
G1 X210.185 Y205.352 E.57299
G1 X209.568 Y205.352 E.03358
G1 X202.124 Y197.908 E.57299
G1 X201.506 Y197.908 E.03364
G1 X208.951 Y205.352 E.57303
G1 X208.334 Y205.352 E.03358
G1 X200.889 Y197.908 E.57303
G1 X200.272 Y197.908 E.03358
G1 X207.717 Y205.352 E.57303
G1 X207.1 Y205.352 E.03358
G1 X199.655 Y197.908 E.57303
G1 X199.038 Y197.908 E.03358
G1 X206.482 Y205.352 E.57299
G1 X205.865 Y205.352 E.03358
G1 X198.421 Y197.908 E.57299
G1 X197.804 Y197.908 E.03358
G1 X205.248 Y205.352 E.57299
G1 X204.631 Y205.352 E.03358
G1 X197.186 Y197.908 E.57303
G1 X196.569 Y197.908 E.03358
M73 P6 R12
G1 X204.014 Y205.352 E.57303
G1 X203.397 Y205.352 E.03358
M73 P7 R12
G1 X195.952 Y197.908 E.57303
G1 X195.335 Y197.908 E.03358
G1 X202.78 Y205.352 E.57303
G1 X202.162 Y205.352 E.03364
G1 X194.718 Y197.908 E.57299
G1 X194.101 Y197.908 E.03358
G1 X201.545 Y205.352 E.57299
G1 X200.928 Y205.352 E.03358
G1 X193.484 Y197.908 E.57299
G1 X192.866 Y197.908 E.03364
G1 X200.311 Y205.352 E.57303
G1 X199.694 Y205.352 E.03358
G1 X192.249 Y197.908 E.57303
G1 X191.632 Y197.908 E.03358
G1 X199.077 Y205.352 E.57303
G1 X198.46 Y205.352 E.03358
G1 X191.015 Y197.908 E.57303
G1 X190.398 Y197.908 E.03358
G1 X197.842 Y205.352 E.57299
G1 X197.225 Y205.352 E.03358
G1 X189.781 Y197.908 E.57299
G1 X189.164 Y197.908 E.03358
G1 X196.608 Y205.352 E.57299
G1 X195.991 Y205.352 E.03358
G1 X188.546 Y197.908 E.57303
G1 X187.929 Y197.908 E.03358
G1 X195.374 Y205.352 E.57303
G1 X194.757 Y205.352 E.03358
G1 X187.312 Y197.908 E.57303
M73 P8 R12
G1 X186.695 Y197.908 E.03358
G1 X194.14 Y205.352 E.57303
G1 X193.522 Y205.352 E.03364
G1 X186.078 Y197.908 E.57299
G1 X185.461 Y197.908 E.03358
G1 X192.905 Y205.352 E.57299
G1 X192.288 Y205.352 E.03358
G1 X184.844 Y197.908 E.57299
G1 X184.226 Y197.908 E.03364
G1 X191.671 Y205.352 E.57303
G1 X191.054 Y205.352 E.03358
G1 X183.609 Y197.908 E.57303
G1 X182.992 Y197.908 E.03358
G1 X190.437 Y205.352 E.57303
G1 X189.82 Y205.352 E.03358
G1 X182.375 Y197.908 E.57303
G1 X181.758 Y197.908 E.03358
G1 X189.202 Y205.352 E.57299
G1 X188.585 Y205.352 E.03358
G1 X181.141 Y197.908 E.57299
G1 X180.524 Y197.908 E.03358
G1 X187.968 Y205.352 E.57299
G1 X187.351 Y205.352 E.03358
G1 X179.906 Y197.908 E.57303
G1 X179.289 Y197.908 E.03358
G1 X186.734 Y205.352 E.57303
G1 X186.117 Y205.352 E.03358
G1 X178.672 Y197.908 E.57303
G1 X178.055 Y197.908 E.03358
M73 P9 R12
G1 X185.5 Y205.352 E.57303
G1 X184.882 Y205.352 E.03364
G1 X177.438 Y197.908 E.57299
G1 X176.821 Y197.908 E.03358
G1 X184.265 Y205.352 E.57299
G1 X183.648 Y205.352 E.03358
G1 X176.203 Y197.908 E.57303
G1 X175.586 Y197.908 E.03358
G1 X183.031 Y205.352 E.57303
G1 X182.414 Y205.352 E.03358
G1 X174.969 Y197.908 E.57303
G1 X174.352 Y197.908 E.03358
G1 X181.797 Y205.352 E.57303
G1 X181.18 Y205.352 E.03358
G1 X173.735 Y197.908 E.57303
G1 X173.118 Y197.908 E.03358
G1 X180.562 Y205.352 E.57299
G1 X179.945 Y205.352 E.03358
G1 X172.501 Y197.908 E.57299
G1 X171.883 Y197.908 E.03364
G1 X179.328 Y205.352 E.57303
G1 X178.711 Y205.352 E.03358
G1 X171.266 Y197.908 E.57303
G1 X170.649 Y197.908 E.03358
G1 X178.094 Y205.352 E.57303
G1 X177.477 Y205.352 E.03358
G1 X170.032 Y197.908 E.57303
G1 X169.415 Y197.908 E.03358
G1 X176.86 Y205.352 E.57303
G1 X176.242 Y205.352 E.03364
M73 P10 R12
G1 X168.798 Y197.908 E.57299
G1 X168.181 Y197.908 E.03358
G1 X175.625 Y205.352 E.57299
G1 X175.008 Y205.352 E.03358
G1 X167.563 Y197.908 E.57303
G1 X166.946 Y197.908 E.03358
G1 X174.391 Y205.352 E.57303
G1 X173.774 Y205.352 E.03358
G1 X166.329 Y197.908 E.57303
G1 X165.712 Y197.908 E.03358
G1 X173.157 Y205.352 E.57303
G1 X172.54 Y205.352 E.03358
G1 X165.095 Y197.908 E.57303
G1 X164.478 Y197.908 E.03358
G1 X171.922 Y205.352 E.57299
G1 X171.305 Y205.352 E.03358
G1 X163.861 Y197.908 E.57299
G1 X163.243 Y197.908 E.03364
G1 X170.688 Y205.352 E.57303
G1 X170.071 Y205.352 E.03358
G1 X162.626 Y197.908 E.57303
G1 X162.009 Y197.908 E.03358
G1 X169.454 Y205.352 E.57303
G1 X168.837 Y205.352 E.03358
G1 X161.392 Y197.908 E.57303
G1 X160.775 Y197.908 E.03358
G1 X168.22 Y205.352 E.57303
G1 X167.602 Y205.352 E.03364
M73 P11 R12
G1 X160.158 Y197.908 E.57299
G1 X159.541 Y197.908 E.03358
G1 X166.985 Y205.352 E.57299
G1 X166.368 Y205.352 E.03358
G1 X158.923 Y197.908 E.57303
G1 X158.306 Y197.908 E.03358
G1 X165.751 Y205.352 E.57303
G1 X165.134 Y205.352 E.03358
G1 X157.689 Y197.908 E.57303
G1 X157.072 Y197.908 E.03358
G1 X164.517 Y205.352 E.57303
G1 X163.9 Y205.352 E.03358
G1 X156.455 Y197.908 E.57303
G1 X155.838 Y197.908 E.03358
G1 X163.282 Y205.352 E.57299
G1 X162.665 Y205.352 E.03358
G1 X155.221 Y197.908 E.57299
G1 X154.603 Y197.908 E.03364
G1 X162.048 Y205.352 E.57303
G1 X161.431 Y205.352 E.03358
G1 X153.986 Y197.908 E.57303
G1 X153.369 Y197.908 E.03358
G1 X160.814 Y205.352 E.57303
G1 X160.197 Y205.352 E.03358
G1 X152.752 Y197.908 E.57303
G1 X152.135 Y197.908 E.03358
G1 X159.58 Y205.352 E.57303
G1 X158.962 Y205.352 E.03364
G1 X151.518 Y197.908 E.57299
G1 X150.901 Y197.908 E.03358
M73 P12 R12
G1 X158.345 Y205.352 E.57299
G1 X157.728 Y205.352 E.03358
G1 X150.283 Y197.908 E.57303
G1 X149.666 Y197.908 E.03358
G1 X157.111 Y205.352 E.57303
G1 X156.494 Y205.352 E.03358
G1 X149.049 Y197.908 E.57303
G1 X148.432 Y197.908 E.03358
G1 X155.877 Y205.352 E.57303
G1 X155.26 Y205.352 E.03358
G1 X147.815 Y197.908 E.57303
G1 X147.198 Y197.908 E.03358
G1 X154.642 Y205.352 E.57299
G1 X154.025 Y205.352 E.03358
G1 X146.581 Y197.908 E.57299
G1 X145.963 Y197.908 E.03364
G1 X153.408 Y205.352 E.57303
G1 X152.791 Y205.352 E.03358
G1 X145.346 Y197.908 E.57303
G1 X144.729 Y197.908 E.03358
G1 X152.174 Y205.352 E.57303
G1 X151.557 Y205.352 E.03358
G1 X144.112 Y197.908 E.57303
G1 X143.495 Y197.908 E.03358
G1 X150.939 Y205.352 E.57299
G1 X150.322 Y205.352 E.03358
G1 X142.878 Y197.908 E.57299
G1 X142.261 Y197.908 E.03358
M73 P13 R12
G1 X149.705 Y205.352 E.57299
G1 X149.088 Y205.352 E.03358
G1 X141.643 Y197.908 E.57303
G1 X141.026 Y197.908 E.03358
G1 X148.471 Y205.352 E.57303
G1 X147.854 Y205.352 E.03358
G1 X140.409 Y197.908 E.57303
G1 X139.792 Y197.908 E.03358
G1 X147.237 Y205.352 E.57303
G1 X146.619 Y205.352 E.03364
G1 X139.175 Y197.908 E.57299
G1 X138.558 Y197.908 E.03358
G1 X146.002 Y205.352 E.57299
G1 X145.385 Y205.352 E.03358
G1 X137.941 Y197.908 E.57299
G1 X137.323 Y197.908 E.03364
G1 X144.768 Y205.352 E.57303
G1 X144.151 Y205.352 E.03358
G1 X136.706 Y197.908 E.57303
G1 X136.089 Y197.908 E.03358
G1 X143.534 Y205.352 E.57303
G1 X142.917 Y205.352 E.03358
G1 X135.472 Y197.908 E.57303
G1 X134.855 Y197.908 E.03358
G1 X142.299 Y205.352 E.57299
G1 X141.682 Y205.352 E.03358
G1 X134.238 Y197.908 E.57299
G1 X133.621 Y197.908 E.03358
G1 X141.065 Y205.352 E.57299
G1 X140.448 Y205.352 E.03358
M73 P14 R12
G1 X133.003 Y197.908 E.57303
G1 X132.386 Y197.908 E.03358
M73 P14 R11
G1 X139.831 Y205.352 E.57303
G1 X139.214 Y205.352 E.03358
G1 X131.769 Y197.908 E.57303
G1 X131.152 Y197.908 E.03358
G1 X138.597 Y205.352 E.57303
G1 X137.979 Y205.352 E.03364
G1 X130.535 Y197.908 E.57299
G1 X129.918 Y197.908 E.03358
G1 X137.362 Y205.352 E.57299
G1 X136.745 Y205.352 E.03358
G1 X129.301 Y197.908 E.57299
G1 X128.683 Y197.908 E.03364
G1 X136.128 Y205.352 E.57303
G1 X135.511 Y205.352 E.03358
G1 X128.066 Y197.908 E.57303
G1 X127.449 Y197.908 E.03358
G1 X134.894 Y205.352 E.57303
G1 X134.277 Y205.352 E.03358
G1 X126.832 Y197.908 E.57303
G1 X126.215 Y197.908 E.03358
G1 X133.659 Y205.352 E.57299
G1 X133.042 Y205.352 E.03358
G1 X125.598 Y197.908 E.57299
G1 X124.981 Y197.908 E.03358
G1 X132.425 Y205.352 E.57299
G1 X131.808 Y205.352 E.03358
M73 P15 R11
G1 X124.363 Y197.908 E.57303
G1 X123.746 Y197.908 E.03358
G1 X131.191 Y205.352 E.57303
G1 X130.574 Y205.352 E.03358
G1 X123.129 Y197.908 E.57303
G1 X122.512 Y197.908 E.03358
G1 X129.957 Y205.352 E.57303
G1 X129.339 Y205.352 E.03364
G1 X121.895 Y197.908 E.57299
G1 X121.278 Y197.908 E.03358
G1 X128.722 Y205.352 E.57299
G1 X128.105 Y205.352 E.03358
G1 X120.66 Y197.908 E.57303
G1 X120.043 Y197.908 E.03358
G1 X127.488 Y205.352 E.57303
G1 X126.871 Y205.352 E.03358
G1 X119.426 Y197.908 E.57303
G1 X118.809 Y197.908 E.03358
G1 X126.254 Y205.352 E.57303
G1 X125.637 Y205.352 E.03358
G1 X118.192 Y197.908 E.57303
G1 X117.575 Y197.908 E.03358
G1 X125.019 Y205.352 E.57299
G1 X124.402 Y205.352 E.03358
G1 X116.958 Y197.908 E.57299
G1 X116.34 Y197.908 E.03364
G1 X123.785 Y205.352 E.57303
G1 X123.168 Y205.352 E.03358
G1 X115.723 Y197.908 E.57303
G1 X115.106 Y197.908 E.03358
M73 P16 R11
G1 X122.551 Y205.352 E.57303
G1 X121.934 Y205.352 E.03358
G1 X114.489 Y197.908 E.57303
G1 X113.872 Y197.908 E.03358
G1 X121.317 Y205.352 E.57303
G1 X120.699 Y205.352 E.03364
G1 X113.255 Y197.908 E.57299
G1 X112.638 Y197.908 E.03358
G1 X120.082 Y205.352 E.57299
G1 X119.465 Y205.352 E.03358
G1 X112.02 Y197.908 E.57303
G1 X111.403 Y197.908 E.03358
G1 X118.848 Y205.352 E.57303
G1 X118.231 Y205.352 E.03358
G1 X110.786 Y197.908 E.57303
G1 X110.169 Y197.908 E.03358
G1 X117.614 Y205.352 E.57303
G1 X116.997 Y205.352 E.03358
G1 X109.552 Y197.908 E.57303
G1 X108.935 Y197.908 E.03358
G1 X116.379 Y205.352 E.57299
G1 X115.762 Y205.352 E.03358
G1 X108.318 Y197.908 E.57299
G1 X107.7 Y197.908 E.03364
G1 X115.145 Y205.352 E.57303
G1 X114.528 Y205.352 E.03358
G1 X107.083 Y197.908 E.57303
G1 X106.466 Y197.908 E.03358
G1 X113.911 Y205.352 E.57303
M73 P17 R11
G1 X113.294 Y205.352 E.03358
G1 X105.849 Y197.908 E.57303
G1 X105.232 Y197.908 E.03358
G1 X112.677 Y205.352 E.57303
G1 X112.059 Y205.352 E.03364
G1 X104.615 Y197.908 E.57299
G1 X103.998 Y197.908 E.03358
G1 X111.442 Y205.352 E.57299
G1 X110.825 Y205.352 E.03358
G1 X103.38 Y197.908 E.57303
G1 X102.763 Y197.908 E.03358
G1 X110.208 Y205.352 E.57303
G1 X109.591 Y205.352 E.03358
G1 X102.146 Y197.908 E.57303
G1 X101.529 Y197.908 E.03358
G1 X108.974 Y205.352 E.57303
G1 X108.357 Y205.352 E.03358
G1 X100.912 Y197.908 E.57303
G1 X100.295 Y197.908 E.03358
G1 X107.739 Y205.352 E.57299
G1 X107.122 Y205.352 E.03358
G1 X99.678 Y197.908 E.57299
G1 X99.06 Y197.908 E.03364
G1 X106.505 Y205.352 E.57303
G1 X105.888 Y205.352 E.03358
G1 X98.443 Y197.908 E.57303
G1 X97.826 Y197.908 E.03358
G1 X105.271 Y205.352 E.57303
G1 X104.654 Y205.352 E.03358
M73 P18 R11
G1 X97.209 Y197.908 E.57303
G1 X96.592 Y197.908 E.03358
G1 X104.037 Y205.352 E.57303
G1 X103.419 Y205.352 E.03364
G1 X95.975 Y197.908 E.57299
G1 X95.358 Y197.908 E.03358
G1 X102.802 Y205.352 E.57299
G1 X102.185 Y205.352 E.03358
G1 X94.74 Y197.908 E.57303
G1 X94.123 Y197.908 E.03358
G1 X101.568 Y205.352 E.57303
G1 X100.951 Y205.352 E.03358
G1 X93.506 Y197.908 E.57303
G1 X92.889 Y197.908 E.03358
G1 X100.334 Y205.352 E.57303
G1 X99.717 Y205.352 E.03358
G1 X92.272 Y197.908 E.57303
G1 X91.655 Y197.908 E.03358
G1 X99.099 Y205.352 E.57299
G1 X98.482 Y205.352 E.03358
G1 X91.038 Y197.908 E.57299
G1 X90.42 Y197.908 E.03364
G1 X97.865 Y205.352 E.57303
G1 X97.248 Y205.352 E.03358
G1 X89.803 Y197.908 E.57303
G1 X89.186 Y197.908 E.03358
G1 X96.631 Y205.352 E.57303
G1 X96.014 Y205.352 E.03358
G1 X88.569 Y197.908 E.57303
G1 X87.952 Y197.908 E.03358
M73 P19 R11
G1 X95.396 Y205.352 E.57299
G1 X94.779 Y205.352 E.03358
G1 X87.335 Y197.908 E.57299
G1 X86.718 Y197.908 E.03358
G1 X94.162 Y205.352 E.57299
G1 X93.545 Y205.352 E.03358
G1 X86.1 Y197.908 E.57303
G1 X85.483 Y197.908 E.03358
G1 X92.928 Y205.352 E.57303
G1 X92.311 Y205.352 E.03358
G1 X84.866 Y197.908 E.57303
G1 X84.249 Y197.908 E.03358
G1 X91.694 Y205.352 E.57303
G1 X91.076 Y205.352 E.03364
G1 X83.632 Y197.908 E.57299
G1 X83.015 Y197.908 E.03358
G1 X90.459 Y205.352 E.57299
G1 X89.842 Y205.352 E.03358
G1 X82.398 Y197.908 E.57299
G1 X81.78 Y197.908 E.03364
G1 X89.225 Y205.352 E.57303
G1 X88.608 Y205.352 E.03358
G1 X81.163 Y197.908 E.57303
G1 X80.546 Y197.908 E.03358
G1 X87.991 Y205.352 E.57303
G1 X87.374 Y205.352 E.03358
G1 X79.929 Y197.908 E.57303
G1 X79.312 Y197.908 E.03358
M73 P20 R11
G1 X86.756 Y205.352 E.57299
G1 X86.139 Y205.352 E.03358
G1 X78.695 Y197.908 E.57299
G1 X78.078 Y197.908 E.03358
G1 X85.522 Y205.352 E.57299
G1 X84.905 Y205.352 E.03358
G1 X77.46 Y197.908 E.57303
G1 X76.843 Y197.908 E.03358
G1 X84.288 Y205.352 E.57303
G1 X83.671 Y205.352 E.03358
G1 X76.226 Y197.908 E.57303
G1 X75.609 Y197.908 E.03358
G1 X83.054 Y205.352 E.57303
G1 X82.436 Y205.352 E.03364
G1 X74.992 Y197.908 E.57299
G1 X74.375 Y197.908 E.03358
G1 X81.819 Y205.352 E.57299
G1 X81.202 Y205.352 E.03358
G1 X73.758 Y197.908 E.57299
G1 X73.14 Y197.908 E.03364
G1 X80.585 Y205.352 E.57303
G1 X79.968 Y205.352 E.03358
G1 X72.523 Y197.908 E.57303
G1 X71.906 Y197.908 E.03358
G1 X79.351 Y205.352 E.57303
G1 X78.734 Y205.352 E.03358
G1 X71.289 Y197.908 E.57303
G1 X70.672 Y197.908 E.03358
G1 X78.116 Y205.352 E.57299
