; generated by PrusaSlicer 2.9.3 on 2025-10-27 at 19:40:25 UTC


;
;

;
;

;
;

;
;

;
;
; 

; external perimeters extrusion width = 0.45mm
; perimeters extrusion width = 0.45mm
; infill extrusion width = 0.45mm
; solid infill extrusion width = 0.45mm
; top infill extrusion width = 0.42mm
; support material extrusion width = 0.37mm
; first layer extrusion width = 0.50mm

M73 P0 R16

EXCLUDE_OBJECT_DEFINE NAME='Incredible_Albar(3)_stl' CENTER=125.000,105.000 POLYGON=[[35.000,20.000],[215.000,20.000],[215.000,190.000],[35.000,190.000]]

;TYPE:Custom
G90 ; use absolute coordinates
M83 ; extruder relative mode
M104 S170 ; preheat hotend to 170
M140 S85 ; set bed temp
M190 S85 ; wait for bed temp
G28 ; home all
;G29 ; mesh bed leveling
BED_MESH_CALIBRATE
G0 X0 Z0.6 Y-3.0 F1000.0 ; go outside print area for intro line
M104 S225 ; set hotend temp
M109 S225 ; wait for hotend temp
;M104 S0 ; Stops PS/SS from sending temp waits separately
;M140 S0
;PRINT_START BED=85 HOTEND=225
G92 E0.0
G1 X60.0 E9.0 F1000.0 ; intro line
G1 X100.0 E12.5 F1000.0 ; intro line
G92 E0.0
SKEW_PROFILE LOAD=CaliFlower

; KLIPPER_PLR
G31
save_last_file
SAVE_VARIABLE VARIABLE=was_interrupted VALUE=True
G21 ; set units to millimeters
G90 ; use absolute coordinates
M83 ; use relative distances for extrusion
M900 K0.07 ; Filament gcode



M142 S36 ; set heatbreak target temp
M107
;LAYER_CHANGE
;Z:0.25
;HEIGHT:0.25
G1 E-.8 F2100
G1 Z1.75 F720
EXCLUDE_OBJECT_START NAME='Incredible_Albar(3)_stl'
G1 X213.657 Y28.657 F12000
G1 Z.25 F720
G1 E.8 F1500
M204 S600
;TYPE:Perimeter
;WIDTH:0.499999
G1 F1200
G1 X36.343 Y28.657 E8.22606
G1 X36.343 Y21.343 E.33932
M73 P1 R16
G1 X213.657 Y21.343 E8.22606
G1 X213.657 Y25 E.16966
M73 P2 R16
G1 X213.657 Y28.597 E.16687
M204 S1000
G1 X214.104 Y29.104 F12000
M204 S600
G1 F1200
G1 X35.896 Y29.104 E8.26753
G1 X35.896 Y20.896 E.38079
M73 P3 R16
G1 X214.104 Y20.896 E8.26753
G1 X214.104 Y25 E.1904
M73 P4 R16
G1 X214.104 Y29.044 E.18761
M204 S1000
G1 X214.55 Y29.55 F12000
M204 S600
;TYPE:External perimeter
G1 F1200
G1 X35.45 Y29.55 E8.30891
G1 X35.45 Y20.45 E.42217
M73 P5 R16
G1 X214.55 Y20.45 E8.30891
G1 X214.55 Y25 E.21109
M73 P6 R15
G1 X214.55 Y29.49 E.2083
M204 S1000
G1 E-.16 F2100
;WIPE_START
G1 F9600
G1 X214.55 Y29.55 E-.01247
G1 X211.53 Y29.55 E-.62753
;WIPE_END
G1 X213.456 Y22.447 Z.378 F12000
G1 Z.25 F720
G1 E.8 F1500
M204 S600
;TYPE:Solid infill
;WIDTH:0.500548
G1 F1200
G1 X212.754 Y21.744 E.04615
G1 X212.122 Y21.744 E.02936
G1 X213.256 Y22.878 E.07449
G1 X213.256 Y23.51 E.02936
G1 X211.49 Y21.744 E.11601
G1 X210.858 Y21.744 E.02936
G1 X213.256 Y24.142 E.15752
G1 X213.256 Y24.774 E.02936
G1 X210.226 Y21.744 E.19904
G1 X209.594 Y21.744 E.02936
G1 X213.256 Y25.406 E.24056
G1 X213.256 Y26.038 E.02936
G1 X208.962 Y21.744 E.28207
G1 X208.33 Y21.744 E.02936
G1 X213.256 Y26.67 E.32359
G1 X213.256 Y27.302 E.02936
G1 X207.698 Y21.744 E.3651
G1 X207.066 Y21.744 E.02936
G1 X213.256 Y27.934 E.40662
G1 X213.256 Y28.256 E.01496
G1 X212.945 Y28.256 E.01445
G1 X206.434 Y21.744 E.42774
G1 X205.802 Y21.744 E.02936
G1 X212.313 Y28.256 E.42774
G1 X211.681 Y28.256 E.02936
G1 X205.17 Y21.744 E.42774
G1 X204.538 Y21.744 E.02936
G1 X211.049 Y28.256 E.42774
G1 X210.417 Y28.256 E.02936
G1 X203.906 Y21.744 E.42774
G1 X203.274 Y21.744 E.02936
G1 X209.785 Y28.256 E.42774
G1 X209.153 Y28.256 E.02936
G1 X202.642 Y21.744 E.42774
G1 X202.01 Y21.744 E.02936
G1 X208.521 Y28.256 E.42774
G1 X207.889 Y28.256 E.02936
G1 X201.378 Y21.744 E.42774
G1 X200.746 Y21.744 E.02936
G1 X207.257 Y28.256 E.42774
G1 X206.625 Y28.256 E.02936
M73 P7 R15
G1 X200.114 Y21.744 E.42774
G1 X199.482 Y21.744 E.02936
G1 X205.993 Y28.256 E.42774
G1 X205.361 Y28.256 E.02936
G1 X198.85 Y21.744 E.42774
G1 X198.218 Y21.744 E.02936
G1 X204.729 Y28.256 E.42774
G1 X204.097 Y28.256 E.02936
G1 X197.586 Y21.744 E.42774
G1 X196.954 Y21.744 E.02936
G1 X203.465 Y28.256 E.42774
G1 X202.833 Y28.256 E.02936
G1 X196.322 Y21.744 E.42774
G1 X195.69 Y21.744 E.02936
G1 X202.201 Y28.256 E.42774
G1 X201.569 Y28.256 E.02936
G1 X195.058 Y21.744 E.42774
G1 X194.426 Y21.744 E.02936
G1 X200.937 Y28.256 E.42774
G1 X200.305 Y28.256 E.02936
G1 X193.794 Y21.744 E.42774
G1 X193.162 Y21.744 E.02936
G1 X199.673 Y28.256 E.42774
G1 X199.041 Y28.256 E.02936
G1 X192.53 Y21.744 E.42774
G1 X191.898 Y21.744 E.02936
G1 X198.409 Y28.256 E.42774
G1 X197.777 Y28.256 E.02936
G1 X191.266 Y21.744 E.42774
G1 X190.634 Y21.744 E.02936
G1 X197.145 Y28.256 E.42774
G1 X196.513 Y28.256 E.02936
G1 X190.002 Y21.744 E.42774
G1 X189.37 Y21.744 E.02936
G1 X195.881 Y28.256 E.42774
G1 X195.249 Y28.256 E.02936
G1 X188.738 Y21.744 E.42774
G1 X188.106 Y21.744 E.02936
G1 X194.617 Y28.256 E.42774
G1 X193.985 Y28.256 E.02936
M73 P8 R15
G1 X187.473 Y21.744 E.42777
G1 X186.841 Y21.744 E.02936
G1 X193.353 Y28.256 E.42777
G1 X192.721 Y28.256 E.02936
G1 X186.209 Y21.744 E.42777
G1 X185.577 Y21.744 E.02936
G1 X192.089 Y28.256 E.42777
G1 X191.457 Y28.256 E.02936
G1 X184.945 Y21.744 E.42777
G1 X184.313 Y21.744 E.02936
G1 X190.825 Y28.256 E.42777
G1 X190.193 Y28.256 E.02936
G1 X183.681 Y21.744 E.42777
G1 X183.049 Y21.744 E.02936
G1 X189.561 Y28.256 E.42777
G1 X188.929 Y28.256 E.02936
G1 X182.417 Y21.744 E.42777
G1 X181.785 Y21.744 E.02936
G1 X188.297 Y28.256 E.42777
G1 X187.665 Y28.256 E.02936
G1 X181.153 Y21.744 E.42777
G1 X180.521 Y21.744 E.02936
G1 X187.033 Y28.256 E.42777
G1 X186.401 Y28.256 E.02936
G1 X179.889 Y21.744 E.42777
G1 X179.257 Y21.744 E.02936
G1 X185.769 Y28.256 E.42777
G1 X185.137 Y28.256 E.02936
G1 X178.625 Y21.744 E.42777
G1 X177.993 Y21.744 E.02936
G1 X184.505 Y28.256 E.42777
G1 X183.873 Y28.256 E.02936
G1 X177.361 Y21.744 E.42777
G1 X176.729 Y21.744 E.02936
G1 X183.241 Y28.256 E.42777
G1 X182.609 Y28.256 E.02936
G1 X176.097 Y21.744 E.42777
G1 X175.465 Y21.744 E.02936
G1 X181.977 Y28.256 E.42777
G1 X181.345 Y28.256 E.02936
M73 P9 R15
G1 X174.833 Y21.744 E.42777
G1 X174.201 Y21.744 E.02936
G1 X180.712 Y28.256 E.42774
G1 X180.08 Y28.256 E.02936
G1 X173.569 Y21.744 E.42774
G1 X172.937 Y21.744 E.02936
G1 X179.448 Y28.256 E.42774
G1 X178.816 Y28.256 E.02936
G1 X172.305 Y21.744 E.42774
G1 X171.673 Y21.744 E.02936
G1 X178.184 Y28.256 E.42774
G1 X177.552 Y28.256 E.02936
G1 X171.041 Y21.744 E.42774
G1 X170.409 Y21.744 E.02936
G1 X176.92 Y28.256 E.42774
G1 X176.288 Y28.256 E.02936
G1 X169.777 Y21.744 E.42774
G1 X169.145 Y21.744 E.02936
G1 X175.656 Y28.256 E.42774
G1 X175.024 Y28.256 E.02936
G1 X168.513 Y21.744 E.42774
G1 X167.881 Y21.744 E.02936
G1 X174.392 Y28.256 E.42774
G1 X173.76 Y28.256 E.02936
G1 X167.249 Y21.744 E.42774
G1 X166.617 Y21.744 E.02936
G1 X173.128 Y28.256 E.42774
G1 X172.496 Y28.256 E.02936
G1 X165.985 Y21.744 E.42774
G1 X165.353 Y21.744 E.02936
G1 X171.864 Y28.256 E.42774
G1 X171.232 Y28.256 E.02936
G1 X164.721 Y21.744 E.42774
G1 X164.089 Y21.744 E.02936
G1 X170.6 Y28.256 E.42774
G1 X169.968 Y28.256 E.02936
G1 X163.457 Y21.744 E.42774
G1 X162.825 Y21.744 E.02936
G1 X169.336 Y28.256 E.42774
M73 P10 R15
G1 X168.704 Y28.256 E.02936
G1 X162.193 Y21.744 E.42774
G1 X161.561 Y21.744 E.02936
G1 X168.072 Y28.256 E.42774
G1 X167.44 Y28.256 E.02936
G1 X160.929 Y21.744 E.42774
G1 X160.297 Y21.744 E.02936
G1 X166.808 Y28.256 E.42774
G1 X166.176 Y28.256 E.02936
G1 X159.665 Y21.744 E.42774
G1 X159.033 Y21.744 E.02936
G1 X165.544 Y28.256 E.42774
G1 X164.912 Y28.256 E.02936
G1 X158.401 Y21.744 E.42774
G1 X157.769 Y21.744 E.02936
G1 X164.28 Y28.256 E.42774
G1 X163.648 Y28.256 E.02936
G1 X157.137 Y21.744 E.42774
G1 X156.505 Y21.744 E.02936
G1 X163.016 Y28.256 E.42774
G1 X162.384 Y28.256 E.02936
G1 X155.873 Y21.744 E.42774
G1 X155.241 Y21.744 E.02936
G1 X161.752 Y28.256 E.42774
G1 X161.12 Y28.256 E.02936
G1 X154.609 Y21.744 E.42774
G1 X153.977 Y21.744 E.02936
G1 X160.488 Y28.256 E.42774
G1 X159.856 Y28.256 E.02936
G1 X153.345 Y21.744 E.42774
G1 X152.713 Y21.744 E.02936
G1 X159.224 Y28.256 E.42774
G1 X158.592 Y28.256 E.02936
G1 X152.081 Y21.744 E.42774
G1 X151.449 Y21.744 E.02936
G1 X157.96 Y28.256 E.42774
G1 X157.328 Y28.256 E.02936
G1 X150.817 Y21.744 E.42774
G1 X150.185 Y21.744 E.02936
M73 P11 R15
G1 X156.696 Y28.256 E.42774
G1 X156.064 Y28.256 E.02936
G1 X149.553 Y21.744 E.42774
G1 X148.921 Y21.744 E.02936
G1 X155.432 Y28.256 E.42774
G1 X154.8 Y28.256 E.02936
G1 X148.289 Y21.744 E.42774
G1 X147.657 Y21.744 E.02936
G1 X154.168 Y28.256 E.42774
G1 X153.536 Y28.256 E.02936
G1 X147.025 Y21.744 E.42774
G1 X146.393 Y21.744 E.02936
G1 X152.904 Y28.256 E.42774
G1 X152.272 Y28.256 E.02936
G1 X145.761 Y21.744 E.42774
G1 X145.129 Y21.744 E.02936
G1 X151.64 Y28.256 E.42774
G1 X151.008 Y28.256 E.02936
G1 X144.497 Y21.744 E.42774
G1 X143.865 Y21.744 E.02936
G1 X150.376 Y28.256 E.42774
G1 X149.744 Y28.256 E.02936
G1 X143.233 Y21.744 E.42774
G1 X142.601 Y21.744 E.02936
G1 X149.112 Y28.256 E.42774
G1 X148.48 Y28.256 E.02936
G1 X141.969 Y21.744 E.42774
G1 X141.337 Y21.744 E.02936
M73 P11 R14
G1 X147.848 Y28.256 E.42774
G1 X147.216 Y28.256 E.02936
G1 X140.705 Y21.744 E.42774
G1 X140.073 Y21.744 E.02936
G1 X146.584 Y28.256 E.42774
G1 X145.952 Y28.256 E.02936
G1 X139.441 Y21.744 E.42774
G1 X138.809 Y21.744 E.02936
G1 X145.32 Y28.256 E.42774
G1 X144.688 Y28.256 E.02936
G1 X138.177 Y21.744 E.42774
G1 X137.545 Y21.744 E.02936
M73 P12 R14
G1 X144.056 Y28.256 E.42774
G1 X143.424 Y28.256 E.02936
G1 X136.913 Y21.744 E.42774
G1 X136.281 Y21.744 E.02936
G1 X142.792 Y28.256 E.42774
G1 X142.16 Y28.256 E.02936
G1 X135.649 Y21.744 E.42774
G1 X135.017 Y21.744 E.02936
G1 X141.528 Y28.256 E.42774
G1 X140.896 Y28.256 E.02936
G1 X134.385 Y21.744 E.42774
G1 X133.753 Y21.744 E.02936
G1 X140.264 Y28.256 E.42774
G1 X139.632 Y28.256 E.02936
G1 X133.121 Y21.744 E.42774
G1 X132.489 Y21.744 E.02936
G1 X139 Y28.256 E.42774
G1 X138.368 Y28.256 E.02936
G1 X131.857 Y21.744 E.42774
G1 X131.225 Y21.744 E.02936
G1 X137.736 Y28.256 E.42774
G1 X137.104 Y28.256 E.02936
G1 X130.593 Y21.744 E.42774
G1 X129.961 Y21.744 E.02936
G1 X136.472 Y28.256 E.42774
G1 X135.84 Y28.256 E.02936
G1 X129.329 Y21.744 E.42774
G1 X128.697 Y21.744 E.02936
G1 X135.208 Y28.256 E.42774
G1 X134.576 Y28.256 E.02936
G1 X128.065 Y21.744 E.42774
G1 X127.433 Y21.744 E.02936
G1 X133.944 Y28.256 E.42774
G1 X133.312 Y28.256 E.02936
G1 X126.801 Y21.744 E.42774
G1 X126.169 Y21.744 E.02936
G1 X132.68 Y28.256 E.42774
G1 X132.048 Y28.256 E.02936
G1 X125.537 Y21.744 E.42774
G1 X124.905 Y21.744 E.02936
M73 P13 R14
G1 X131.416 Y28.256 E.42774
G1 X130.784 Y28.256 E.02936
G1 X124.273 Y21.744 E.42774
G1 X123.641 Y21.744 E.02936
G1 X130.152 Y28.256 E.42774
G1 X129.52 Y28.256 E.02936
G1 X123.009 Y21.744 E.42774
G1 X122.377 Y21.744 E.02936
G1 X128.888 Y28.256 E.42774
G1 X128.256 Y28.256 E.02936
G1 X121.745 Y21.744 E.42774
G1 X121.113 Y21.744 E.02936
G1 X127.624 Y28.256 E.42774
G1 X126.992 Y28.256 E.02936
G1 X120.481 Y21.744 E.42774
G1 X119.849 Y21.744 E.02936
G1 X126.36 Y28.256 E.42774
G1 X125.728 Y28.256 E.02936
G1 X119.217 Y21.744 E.42774
G1 X118.584 Y21.744 E.0294
G1 X125.096 Y28.256 E.42777
G1 X124.464 Y28.256 E.02936
G1 X117.952 Y21.744 E.42777
G1 X117.32 Y21.744 E.02936
G1 X123.832 Y28.256 E.42777
G1 X123.2 Y28.256 E.02936
G1 X116.688 Y21.744 E.42777
G1 X116.056 Y21.744 E.02936
G1 X122.568 Y28.256 E.42777
G1 X121.936 Y28.256 E.02936
G1 X115.424 Y21.744 E.42777
G1 X114.792 Y21.744 E.02936
G1 X121.304 Y28.256 E.42777
G1 X120.672 Y28.256 E.02936
G1 X114.16 Y21.744 E.42777
G1 X113.528 Y21.744 E.02936
G1 X120.04 Y28.256 E.42777
G1 X119.408 Y28.256 E.02936
G1 X112.896 Y21.744 E.42777
G1 X112.264 Y21.744 E.02936
M73 P14 R14
G1 X118.776 Y28.256 E.42777
G1 X118.144 Y28.256 E.02936
G1 X111.632 Y21.744 E.42777
G1 X111 Y21.744 E.02936
G1 X117.512 Y28.256 E.42777
G1 X116.88 Y28.256 E.02936
G1 X110.368 Y21.744 E.42777
G1 X109.736 Y21.744 E.02936
G1 X116.248 Y28.256 E.42777
G1 X115.616 Y28.256 E.02936
G1 X109.104 Y21.744 E.42777
G1 X108.472 Y21.744 E.02936
G1 X114.984 Y28.256 E.42777
G1 X114.352 Y28.256 E.02936
G1 X107.84 Y21.744 E.42777
G1 X107.208 Y21.744 E.02936
G1 X113.72 Y28.256 E.42777
G1 X113.088 Y28.256 E.02936
G1 X106.576 Y21.744 E.42777
G1 X105.944 Y21.744 E.02936
G1 X112.456 Y28.256 E.42777
G1 X111.823 Y28.256 E.0294
G1 X105.312 Y21.744 E.42774
G1 X104.68 Y21.744 E.02936
G1 X111.191 Y28.256 E.42774
G1 X110.559 Y28.256 E.02936
G1 X104.048 Y21.744 E.42774
G1 X103.416 Y21.744 E.02936
G1 X109.927 Y28.256 E.42774
G1 X109.295 Y28.256 E.02936
G1 X102.784 Y21.744 E.42774
G1 X102.152 Y21.744 E.02936
G1 X108.663 Y28.256 E.42774
G1 X108.031 Y28.256 E.02936
G1 X101.52 Y21.744 E.42774
G1 X100.888 Y21.744 E.02936
G1 X107.399 Y28.256 E.42774
G1 X106.767 Y28.256 E.02936
G1 X100.256 Y21.744 E.42774
G1 X99.624 Y21.744 E.02936
M73 P15 R14
G1 X106.135 Y28.256 E.42774
G1 X105.503 Y28.256 E.02936
G1 X98.992 Y21.744 E.42774
G1 X98.36 Y21.744 E.02936
G1 X104.871 Y28.256 E.42774
G1 X104.239 Y28.256 E.02936
G1 X97.728 Y21.744 E.42774
G1 X97.096 Y21.744 E.02936
G1 X103.607 Y28.256 E.42774
G1 X102.975 Y28.256 E.02936
G1 X96.464 Y21.744 E.42774
G1 X95.832 Y21.744 E.02936
G1 X102.343 Y28.256 E.42774
G1 X101.711 Y28.256 E.02936
G1 X95.2 Y21.744 E.42774
G1 X94.568 Y21.744 E.02936
G1 X101.079 Y28.256 E.42774
G1 X100.447 Y28.256 E.02936
G1 X93.936 Y21.744 E.42774
G1 X93.304 Y21.744 E.02936
G1 X99.815 Y28.256 E.42774
G1 X99.183 Y28.256 E.02936
G1 X92.672 Y21.744 E.42774
G1 X92.04 Y21.744 E.02936
G1 X98.551 Y28.256 E.42774
G1 X97.919 Y28.256 E.02936
G1 X91.408 Y21.744 E.42774
G1 X90.776 Y21.744 E.02936
G1 X97.287 Y28.256 E.42774
G1 X96.655 Y28.256 E.02936
G1 X90.144 Y21.744 E.42774
G1 X89.512 Y21.744 E.02936
G1 X96.023 Y28.256 E.42774
G1 X95.391 Y28.256 E.02936
G1 X88.88 Y21.744 E.42774
G1 X88.248 Y21.744 E.02936
G1 X94.759 Y28.256 E.42774
G1 X94.127 Y28.256 E.02936
G1 X87.616 Y21.744 E.42774
G1 X86.984 Y21.744 E.02936
M73 P16 R14
G1 X93.495 Y28.256 E.42774
G1 X92.863 Y28.256 E.02936
G1 X86.352 Y21.744 E.42774
G1 X85.72 Y21.744 E.02936
G1 X92.231 Y28.256 E.42774
G1 X91.599 Y28.256 E.02936
G1 X85.088 Y21.744 E.42774
G1 X84.456 Y21.744 E.02936
G1 X90.967 Y28.256 E.42774
G1 X90.335 Y28.256 E.02936
G1 X83.824 Y21.744 E.42774
G1 X83.192 Y21.744 E.02936
G1 X89.703 Y28.256 E.42774
G1 X89.071 Y28.256 E.02936
G1 X82.56 Y21.744 E.42774
G1 X81.928 Y21.744 E.02936
G1 X88.439 Y28.256 E.42774
G1 X87.807 Y28.256 E.02936
G1 X81.296 Y21.744 E.42774
G1 X80.664 Y21.744 E.02936
G1 X87.175 Y28.256 E.42774
G1 X86.543 Y28.256 E.02936
G1 X80.032 Y21.744 E.42774
G1 X79.4 Y21.744 E.02936
G1 X85.911 Y28.256 E.42774
G1 X85.279 Y28.256 E.02936
G1 X78.768 Y21.744 E.42774
G1 X78.136 Y21.744 E.02936
G1 X84.647 Y28.256 E.42774
G1 X84.015 Y28.256 E.02936
G1 X77.504 Y21.744 E.42774
G1 X76.872 Y21.744 E.02936
G1 X83.383 Y28.256 E.42774
G1 X82.751 Y28.256 E.02936
G1 X76.24 Y21.744 E.42774
G1 X75.608 Y21.744 E.02936
G1 X82.119 Y28.256 E.42774
G1 X81.487 Y28.256 E.02936
G1 X74.976 Y21.744 E.42774
G1 X74.344 Y21.744 E.02936
M73 P17 R14
G1 X80.855 Y28.256 E.42774
G1 X80.223 Y28.256 E.02936
G1 X73.712 Y21.744 E.42774
G1 X73.08 Y21.744 E.02936
G1 X79.591 Y28.256 E.42774
G1 X78.959 Y28.256 E.02936
G1 X72.448 Y21.744 E.42774
G1 X71.816 Y21.744 E.02936
G1 X78.327 Y28.256 E.42774
G1 X77.695 Y28.256 E.02936
G1 X71.184 Y21.744 E.42774
G1 X70.552 Y21.744 E.02936
G1 X77.063 Y28.256 E.42774
G1 X76.431 Y28.256 E.02936
G1 X69.92 Y21.744 E.42774
G1 X69.288 Y21.744 E.02936
G1 X75.799 Y28.256 E.42774
G1 X75.167 Y28.256 E.02936
G1 X68.656 Y21.744 E.42774
G1 X68.024 Y21.744 E.02936
G1 X74.535 Y28.256 E.42774
G1 X73.903 Y28.256 E.02936
G1 X67.392 Y21.744 E.42774
M73 P17 R13
G1 X66.76 Y21.744 E.02936
G1 X73.271 Y28.256 E.42774
G1 X72.639 Y28.256 E.02936
G1 X66.128 Y21.744 E.42774
G1 X65.496 Y21.744 E.02936
G1 X72.007 Y28.256 E.42774
G1 X71.375 Y28.256 E.02936
G1 X64.864 Y21.744 E.42774
G1 X64.232 Y21.744 E.02936
G1 X70.743 Y28.256 E.42774
G1 X70.111 Y28.256 E.02936
G1 X63.6 Y21.744 E.42774
G1 X62.968 Y21.744 E.02936
G1 X69.479 Y28.256 E.42774
G1 X68.847 Y28.256 E.02936
G1 X62.336 Y21.744 E.42774
G1 X61.704 Y21.744 E.02936
M73 P18 R13
G1 X68.215 Y28.256 E.42774
G1 X67.583 Y28.256 E.02936
G1 X61.072 Y21.744 E.42774
G1 X60.44 Y21.744 E.02936
G1 X66.951 Y28.256 E.42774
G1 X66.319 Y28.256 E.02936
G1 X59.808 Y21.744 E.42774
