; generated by PrusaSlicer 2.9.3 on 2025-09-26 at 14:38:00 UTC


;
;

;
;

;
;

;
;

;
;
; 

; external perimeters extrusion width = 0.45mm
; perimeters extrusion width = 0.45mm
; infill extrusion width = 0.45mm
; solid infill extrusion width = 0.45mm
; top infill extrusion width = 0.42mm
; first layer extrusion width = 0.50mm

; external perimeters extrusion width = 0.45mm
; perimeters extrusion width = 0.45mm
; infill extrusion width = 0.45mm
; solid infill extrusion width = 0.45mm
; top infill extrusion width = 0.42mm
; first layer extrusion width = 0.50mm

M73 P0 R56

EXCLUDE_OBJECT_DEFINE NAME='2020_filament_guide_stl' CENTER=200.127,55.200 POLYGON=[[202.627,37.879],[204.339,38.214],[206.010,38.718],[207.758,39.451],[209.159,40.210],[210.606,41.184],[213.233,38.557],[216.769,42.093],[214.142,44.720],[215.116,46.167],[215.941,47.705],[216.658,49.459],[217.112,50.987],[217.447,52.699],[221.162,52.699],[221.162,57.699],[217.447,57.699],[217.112,59.412],[216.658,60.940],[215.941,62.694],[215.116,64.231],[214.142,65.679],[216.769,68.306],[213.233,71.842],[210.606,69.215],[209.159,70.189],[207.758,70.948],[206.010,71.681],[204.339,72.185],[202.627,72.520],[202.627,76.235],[197.627,76.235],[197.627,72.520],[195.915,72.185],[194.244,71.681],[192.496,70.948],[191.095,70.189],[189.648,69.215],[187.021,71.842],[183.485,68.306],[186.112,65.679],[185.138,64.231],[184.313,62.694],[183.596,60.940],[183.142,59.412],[182.807,57.699],[179.092,57.699],[179.092,52.699],[182.807,52.699],[183.142,50.987],[183.596,49.459],[184.313,47.705],[185.138,46.167],[186.112,44.720],[183.485,42.093],[187.021,38.557],[189.648,41.184],[191.095,40.210],[192.496,39.451],[194.244,38.718],[195.915,38.214],[197.627,37.879],[197.627,34.164],[202.627,34.164]]
EXCLUDE_OBJECT_DEFINE NAME='M10x1_Threaded_Nut_STL' CENTER=100.039,55.094 POLYGON=[[102.539,37.773],[104.251,38.108],[106.736,38.926],[109.071,40.105],[110.519,41.079],[113.146,38.452],[116.681,41.987],[114.054,44.614],[115.028,46.062],[116.207,48.397],[117.024,50.881],[117.359,52.594],[121.074,52.594],[121.074,57.594],[117.359,57.594],[117.024,59.306],[116.207,61.791],[115.028,64.126],[114.054,65.573],[116.681,68.200],[113.146,71.736],[110.519,69.109],[109.071,70.083],[106.736,71.262],[104.251,72.079],[102.539,72.414],[102.539,76.129],[97.539,76.129],[97.539,72.414],[95.827,72.079],[93.342,71.262],[91.007,70.083],[89.559,69.109],[86.932,71.736],[83.397,68.200],[86.024,65.573],[85.050,64.126],[83.871,61.791],[83.053,59.306],[82.718,57.594],[79.003,57.594],[79.003,52.594],[82.718,52.594],[83.053,50.881],[83.871,48.397],[85.050,46.062],[86.024,44.614],[83.397,41.987],[86.932,38.452],[89.559,41.079],[91.007,40.105],[93.342,38.926],[95.827,38.108],[97.539,37.773],[97.539,34.058],[102.539,34.058]]

;TYPE:Custom
G90 ; use absolute coordinates
M83 ; extruder relative mode
M104 S170 ; preheat hotend to 170
M140 S60 ; set bed temp
M190 S60 ; wait for bed temp
G28 ; home all
G29 ; mesh bed leveling
G0 X0 Z0.6 Y-3.0 F1000.0 ; go outside print area for intro line
M104 S215 ; set hotend temp
M109 S215 ; wait for hotend temp
G92 E0.0
G1 X60.0 E9.0 F1000.0 ; intro line
G1 X100.0 E12.5 F1000.0 ; intro line
G92 E0.0
G21 ; set units to millimeters
G90 ; use absolute coordinates
M83 ; use relative distances for extrusion
M900 K0.05 ; Filament gcode



M142 S36 ; set heatbreak target temp
M107
;LAYER_CHANGE
;Z:0.2
;HEIGHT:0.2
G1 E-.8 F2100
G1 Z.8 F720
EXCLUDE_OBJECT_START NAME='2020_filament_guide_stl'
G1 X201.921 Y58.406 F12000
G1 Z.2 F720
G1 E.8 F1500
M204 S600
;TYPE:Perimeter
;WIDTH:0.499999
G1 F1200
G1 X201.297 Y58.709 E.02636
G1 X200.473 Y58.906 E.0322
G3 X199.173 Y58.846 I-.39 J-5.639 E.04957
G3 X197.873 Y58.294 I1.111 J-4.423 E.05389
G3 X196.599 Y56.69 I2.536 J-3.323 E.07865
G1 X196.33 Y55.829 E.03428
G1 X196.282 Y55.304 E.02004
G3 X196.55 Y53.905 I4.754 J.186 E.05434
G1 X196.999 Y53.068 E.0361
G1 X197.383 Y52.624 E.02231
G3 X198.613 Y51.772 I2.635 J2.494 E.05728
G3 X199.572 Y51.513 I1.659 J4.241 E.03783
G1 X200.554 Y51.532 E.03733
G1 X201.216 Y51.702 E.02598
G3 X202.655 Y52.619 I-1.719 J4.284 E.06523
M73 P0 R55
G3 X203.172 Y53.248 I-2.545 J2.622 E.03101
G1 X203.533 Y54.039 E.03305
G3 X203.647 Y55.921 I-4.547 J1.22 E.07215
G3 X203.329 Y56.905 I-8.972 J-2.364 E.03932
G3 X202.602 Y57.895 I-3.917 J-2.111 E.04683
G1 X201.993 Y58.371 E.02938
G1 X201.975 Y58.38 E.00076
M204 S1000
G1 X201.694 Y58.017 F12000
M204 S600
;TYPE:External perimeter
G1 F1200
G1 X201.105 Y58.294 E.02474
G1 X200.375 Y58.46 E.02845
G3 X198.1 Y57.897 I-.335 J-3.527 E.09078
G3 X197.004 Y56.478 I2.324 J-2.929 E.06881
G1 X196.769 Y55.699 E.03092
G3 X196.986 Y54.041 I3.497 J-.385 E.06417
G1 X197.37 Y53.335 E.03054
G1 X197.727 Y52.924 E.02069
G3 X198.813 Y52.183 I2.268 J2.158 E.05034
G3 X199.733 Y51.954 I2.622 J8.557 E.03605
G1 X200.535 Y51.988 E.03051
G1 X201.09 Y52.141 E.02188
G3 X202.806 Y53.522 I-1.424 J3.528 E.08493
G1 X203.113 Y54.22 E.02898
G3 X203.239 Y55.376 I-4.236 J1.045 E.04433
G3 X203.01 Y56.461 I-3.227 J-.116 E.04236
G3 X202.662 Y57.131 I-2.507 J-.874 E.02879
G3 X201.746 Y57.987 I-3.084 J-2.381 E.04786
M204 S1000
G1 E-.64 F2100
;WIPE_START
G1 F9600
G1 X201.694 Y58.017 E-.01248
G1 X201.105 Y58.294 E-.13526
G1 X201.048 Y58.307 E-.01226
;WIPE_END
G1 X214.018 Y54.325 Z.437 F12000
G1 Z.2 F720
G1 E.8 F1500
M204 S600
;TYPE:Perimeter
G1 F1200
G1 X214.137 Y54.432 E.00608
G1 X214.449 Y54.506 E.01219
G1 X219.355 Y54.506 E.18646
G1 X219.355 Y55.199 E.02634
G1 X219.355 Y55.892 E.02634
G1 X214.459 Y55.892 E.18608
G1 X214.143 Y55.97 E.01237
G1 X213.883 Y56.206 E.01335
G1 X213.79 Y56.428 E.00915
G1 X213.066 Y59.666 E.1261
G1 X212.448 Y61.172 E.06187
G1 X211.672 Y62.559 E.0604
G1 X210.671 Y63.952 E.06519
G1 X210.556 Y64.215 E.01091
G1 X210.577 Y64.566 E.01336
G1 X210.743 Y64.837 E.01208
G1 X214.214 Y68.306 E.18651
G1 X213.234 Y69.286 E.05267
G1 X209.771 Y65.824 E.18611
G1 X209.495 Y65.656 E.01228
G1 X209.145 Y65.638 E.01332
G1 X208.919 Y65.73 E.00927
G1 X206.119 Y67.507 E.12604
G1 X204.616 Y68.134 E.06189
G1 X203.087 Y68.568 E.06041
G1 X201.395 Y68.845 E.06516
G1 X201.126 Y68.951 E.01099
G1 X200.893 Y69.214 E.01335
G1 X200.82 Y69.521 E.01199
G1 X200.82 Y74.428 E.1865
G1 X199.435 Y74.428 E.05264
G1 X199.435 Y69.532 E.18608
G1 X199.359 Y69.22 E.0122
G1 X199.124 Y68.959 E.01335
G1 X198.899 Y68.863 E.0093
G1 X195.661 Y68.139 E.1261
G1 X194.155 Y67.52 E.06188
G1 X192.768 Y66.745 E.06039
G1 X191.376 Y65.744 E.06516
G1 X191.108 Y65.628 E.0111
G1 X190.758 Y65.651 E.01333
G1 X190.491 Y65.816 E.01193
G1 X187.021 Y69.286 E.18651
G1 X186.041 Y68.306 E.05267
G1 X189.504 Y64.844 E.18611
G1 X189.671 Y64.572 E.01213
G1 X189.691 Y64.222 E.01332
G1 X189.598 Y63.992 E.00943
G1 X187.82 Y61.191 E.12609
G1 X187.194 Y59.689 E.06184
G1 X186.76 Y58.16 E.06041
G1 X186.483 Y56.467 E.0652
G1 X186.375 Y56.195 E.01112
G1 X186.112 Y55.964 E.0133
G1 X185.806 Y55.892 E.01195
G1 X180.9 Y55.892 E.18646
G1 X180.9 Y54.506 E.05268
G1 X185.796 Y54.506 E.18608
G1 X186.106 Y54.432 E.01211
G1 X186.367 Y54.199 E.0133
G1 X186.465 Y53.971 E.00943
G1 X187.189 Y50.733 E.1261
G1 X187.807 Y49.228 E.06183
G1 X188.582 Y47.841 E.06039
G1 X189.583 Y46.448 E.06519
G1 X189.699 Y46.181 E.01106
G1 X189.677 Y45.831 E.01333
G1 X189.511 Y45.563 E.01198
G1 X186.041 Y42.093 E.18651
G1 X187.021 Y41.114 E.05265
G1 X190.483 Y44.576 E.18608
G1 X190.757 Y44.743 E.0122
G1 X191.107 Y44.762 E.01332
G1 X191.336 Y44.67 E.00938
G1 X194.136 Y42.893 E.12604
G1 X195.639 Y42.265 E.06191
G1 X197.168 Y41.832 E.0604
G1 X198.86 Y41.555 E.06516
G1 X199.128 Y41.45 E.01094
G1 X199.361 Y41.187 E.01335
G1 X199.435 Y40.878 E.01208
G1 X199.435 Y35.971 E.1865
G1 X200.82 Y35.971 E.05264
G1 X200.82 Y40.867 E.18608
G1 X200.896 Y41.181 E.01228
G1 X201.131 Y41.442 E.01335
G1 X201.356 Y41.536 E.00927
G1 X204.593 Y42.261 E.12607
G1 X206.1 Y42.88 E.06192
G1 X207.487 Y43.654 E.06037
G1 X208.879 Y44.655 E.06516
G1 X209.141 Y44.77 E.01087
G1 X209.492 Y44.75 E.01336
G1 X209.764 Y44.584 E.01211
G1 X213.234 Y41.114 E.18651
G1 X214.214 Y42.093 E.05265
G1 X210.751 Y45.555 E.18611
G1 X210.582 Y45.832 E.01233
G1 X210.565 Y46.183 E.01336
G1 X210.657 Y46.408 E.00924
G1 X212.435 Y49.209 E.12609
G1 X213.061 Y50.711 E.06184
G1 X213.495 Y52.24 E.06041
G1 X213.772 Y53.932 E.06516
G1 X213.875 Y54.197 E.01081
G1 X213.973 Y54.285 E.00501
M204 S1000
G1 X214.321 Y53.998 F12000
M204 S600
;TYPE:External perimeter
G1 F1200
G2 X214.449 Y54.049 I.162 J-.218 E.00529
G1 X219.812 Y54.049 E.20383
G1 X219.812 Y55.199 E.04371
G1 X219.812 Y56.349 E.04371
G1 X214.459 Y56.349 E.20345
G2 X214.237 Y56.525 I.036 J.274 E.01131
G1 X213.503 Y59.804 E.12771
G1 X212.86 Y61.371 E.06437
G1 X212.059 Y62.804 E.06239
G1 X211.043 Y64.218 E.06618
G2 X211.067 Y64.513 I.238 J.13 E.0119
G1 X214.86 Y68.306 E.20387
G1 X213.233 Y69.933 E.08745
G1 X209.448 Y66.147 E.20347
G2 X209.164 Y66.116 I-.167 J.218 E.01142
G1 X206.331 Y67.914 E.12753
G1 X204.767 Y68.567 E.06441
G1 X203.186 Y69.015 E.06245
G1 X201.469 Y69.296 E.06612
G2 X201.277 Y69.521 I.077 J.259 E.01189
G1 X201.277 Y74.885 E.20387
G1 X198.977 Y74.885 E.08741
G1 X198.977 Y69.532 E.20345
G2 X198.799 Y69.309 I-.272 J.035 E.0114
G1 X195.524 Y68.576 E.12755
G1 X193.956 Y67.932 E.06442
G1 X192.522 Y67.132 E.06241
G1 X191.109 Y66.116 E.06614
G2 X190.814 Y66.139 I-.129 J.237 E.0119
G1 X187.021 Y69.933 E.2039
G1 X185.395 Y68.306 E.08742
G1 X189.181 Y64.521 E.20347
G2 X189.212 Y64.237 I-.217 J-.168 E.01142
G1 X187.413 Y61.403 E.12758
G1 X186.761 Y59.84 E.06437
G1 X186.313 Y58.259 E.06245
G1 X186.032 Y56.541 E.06616
G2 X185.806 Y56.349 I-.259 J.077 E.01193
G1 X180.442 Y56.349 E.20387
G1 X180.442 Y54.049 E.08741
G1 X185.796 Y54.049 E.20349
G2 X186.019 Y53.871 I-.035 J-.271 E.01141
G1 X186.752 Y50.596 E.12755
G1 X187.395 Y49.029 E.06437
G1 X188.196 Y47.595 E.06243
G1 X189.212 Y46.181 E.06618
G2 X189.188 Y45.886 I-.237 J-.129 E.0119
G1 X185.395 Y42.093 E.20387
G1 X187.021 Y40.467 E.0874
G1 X190.807 Y44.253 E.20349
G2 X191.091 Y44.284 I.167 J-.217 E.01142
G1 X193.924 Y42.486 E.12753
G1 X195.488 Y41.833 E.06441
G1 X197.068 Y41.385 E.06242
G1 X198.786 Y41.104 E.06616
G2 X198.977 Y40.878 I-.077 J-.26 E.0119
G1 X198.977 Y35.514 E.20387
G1 X201.277 Y35.514 E.08741
G1 X201.277 Y40.867 E.20345
G2 X201.456 Y41.09 I.273 J-.035 E.01143
G1 X204.731 Y41.824 E.12756
G1 X206.299 Y42.468 E.06442
G1 X207.733 Y43.268 E.06241
G1 X209.146 Y44.284 E.06614
G2 X209.441 Y44.26 I.129 J-.238 E.0119
G1 X213.233 Y40.467 E.20384
G1 X214.86 Y42.093 E.08742
G1 X211.074 Y45.879 E.20349
G2 X211.043 Y46.163 I.218 J.167 E.01142
G1 X212.842 Y48.997 E.12758
G1 X213.494 Y50.56 E.06437
G1 X213.942 Y52.14 E.06242
G1 X214.223 Y53.858 E.06616
G2 X214.277 Y53.957 I.26 J-.078 E.00432
M204 S1000
G1 E-.64 F2100
;WIPE_START
G1 F9600
G1 X214.321 Y53.998 E-.0125
G2 X214.449 Y54.049 I.161 J-.218 E-.02895
G1 X215.02 Y54.049 E-.11855
;WIPE_END
G1 X219.15 Y55.401 Z.276 F12000
G1 Z.2 F720
G1 E.8 F1500
M204 S600
;TYPE:Solid infill
;WIDTH:0.501844
G1 F1200
G1 X218.667 Y54.918 E.02607
G1 X218.017 Y54.917 E.0248
G1 X218.581 Y55.481 E.03044
G1 X217.933 Y55.482 E.02473
G1 X217.368 Y54.917 E.03049
G1 X216.718 Y54.916 E.0248
G1 X217.284 Y55.482 E.03054
G1 X216.636 Y55.483 E.02473
G1 X216.069 Y54.916 E.0306
G1 X215.419 Y54.915 E.0248
G1 X215.987 Y55.483 E.03065
G1 X215.339 Y55.484 E.02473
G1 X214.564 Y54.709 E.04182
M204 S1000
G1 E-.64 F2100
;WIPE_START
G1 F9600
G1 X215.108 Y55.253 E-.16
;WIPE_END
G1 X213.777 Y42.24 Z.428 F12000
G1 Z.2 F720
G1 E.8 F1500
M204 S600
G1 F1200
G1 X213.233 Y41.696 E.02936
G1 X212.908 Y42.02 E.01751
G1 X213.307 Y42.419 E.02153
G1 X212.983 Y42.744 E.01751
G1 X212.584 Y42.344 E.02156
G1 X212.259 Y42.669 E.01754
G1 X212.659 Y43.068 E.02156
G1 X212.334 Y43.393 E.01754
G1 X211.934 Y42.993 E.02159
G1 X211.609 Y43.317 E.01751
G1 X212.01 Y43.718 E.02164
G1 X211.686 Y44.043 E.01751
G1 X211.285 Y43.642 E.02164
G1 X210.96 Y43.966 E.01751
G1 X211.361 Y44.367 E.02164
G1 X211.037 Y44.692 E.01751
G1 X210.635 Y44.29 E.02169
G1 X210.31 Y44.614 E.01751
G1 X210.713 Y45.017 E.02175
G1 X210.389 Y45.342 E.01751
G1 X209.986 Y44.939 E.02175
G1 X209.623 Y45.143 E.01589
G1 X209.552 Y45.154 E.00274
G1 X210.177 Y45.779 E.03373
G2 X210.248 Y46.499 I.983 J.267 E.02823
G1 X208.854 Y45.105 E.07523
G1 X208.716 Y45.041 E.0058
G1 X207.266 Y44.002 E.06807
G1 X206.895 Y43.795 E.01621
G1 X211.321 Y48.221 E.23885
G1 X212.069 Y49.4 E.05328
G1 X212.225 Y49.774 E.01546
G1 X205.55 Y43.099 E.36022
G1 X204.453 Y42.651 E.04522
G1 X212.682 Y50.88 E.44409
G1 X212.938 Y51.785 E.03589
G1 X203.617 Y42.464 E.50302
G1 X202.781 Y42.277 E.03269
G1 X213.143 Y52.639 E.5592
G1 X213.271 Y53.416 E.03005
G1 X201.673 Y41.818 E.6259
M204 S1000
G1 E-.64 F2100
;WIPE_START
G1 F9600
G1 X202.217 Y42.362 E-.16
;WIPE_END
G1 X200.615 Y36.866 Z.3 F12000
M73 P1 R55
G1 Z.2 F720
G1 E.8 F1500
M204 S600
G1 F1200
G1 X200.132 Y36.383 E.02607
G1 X199.846 Y36.383 E.01091
G1 X199.846 Y36.746 E.01385
G1 X200.409 Y37.309 E.03038
G1 X200.409 Y37.958 E.02477
G1 X199.845 Y37.394 E.03044
G1 X199.845 Y38.043 E.02477
G1 X200.409 Y38.607 E.03044
G1 X200.409 Y39.256 E.02477
G1 X199.844 Y38.691 E.03049
G1 X199.844 Y39.34 E.02477
G1 X200.409 Y39.905 E.03049
G1 X200.409 Y40.554 E.02477
G1 X199.843 Y39.988 E.03054
G1 X199.843 Y40.637 E.02477
G1 X214.69 Y55.484 E.80123
G2 X214.112 Y55.555 I-.14 J1.268 E.02242
G1 X199.775 Y41.218 E.77371
G3 X199.542 Y41.634 I-.879 J-.221 E.01841
G1 X213.699 Y55.791 E.764
G1 X213.669 Y55.813 E.00142
G2 X213.442 Y56.183 I1.016 J.881 E.01664
G1 X199.157 Y41.898 E.7709
G3 X198.621 Y42.011 I-.905 J-2.959 E.02093
G1 X213.308 Y56.698 E.7926
G1 X213.19 Y57.229 E.02076
G1 X198.063 Y42.102 E.81634
G1 X197.505 Y42.194 E.02158
G1 X213.071 Y57.759 E.84001
G1 X212.952 Y58.289 E.02073
G1 X196.977 Y42.314 E.86211
G1 X196.471 Y42.457 E.02007
G1 X212.834 Y58.82 E.88304
G1 X212.715 Y59.35 E.02073
G1 X195.965 Y42.601 E.9039
G2 X195.489 Y42.774 I.67 J2.581 E.01936
G1 X212.551 Y59.836 E.92077
G1 X212.363 Y60.296 E.01896
G1 X195.032 Y42.965 E.93528
G1 X194.574 Y43.156 E.01894
G1 X212.174 Y60.756 E.9498
G3 X211.964 Y61.195 I-2.317 J-.84 E.0186
G1 X194.144 Y43.375 E.96167
G1 X193.747 Y43.627 E.01794
G1 X201.498 Y51.379 E.41832
G3 X203.062 Y52.429 I-2.084 J4.792 E.07228
G1 X203.574 Y53.109 E.03248
G1 X203.833 Y53.714 E.02511
G1 X211.731 Y61.611 E.4262
G1 X211.498 Y62.028 E.01823
G1 X204.063 Y54.592 E.40126
G3 X204.105 Y55.284 I-3.757 J.578 E.02649
G1 X211.256 Y62.434 E.38588
G1 X210.985 Y62.812 E.01775
G1 X204.058 Y55.885 E.37382
G3 X203.933 Y56.41 I-1.57 J-.095 E.0207
G1 X210.714 Y63.191 E.36594
G1 X210.443 Y63.569 E.01775
G1 X203.773 Y56.899 E.35995
G3 X203.553 Y57.328 I-1.589 J-.545 E.01846
G1 X210.2 Y63.975 E.35871
G2 X210.167 Y64.591 I1.014 J.362 E.02387
G1 X203.301 Y57.724 E.37056
G1 X202.997 Y58.069 E.01755
G1 X213.433 Y68.505 E.56319
G1 X213.234 Y68.704 E.01074
G1 X210.042 Y65.512 E.17226
G1 X209.628 Y65.263 E.01844
G1 X209.526 Y65.247 E.00394
G1 X202.655 Y58.376 E.3708
G1 X202.287 Y58.657 E.01767
G1 X208.909 Y65.28 E.35739
G2 X208.493 Y65.513 I1.004 J2.279 E.01822
G1 X201.87 Y58.89 E.35742
G1 X201.424 Y59.092 E.01868
G1 X208.096 Y65.765 E.36009
G1 X207.699 Y66.017 E.01794
G1 X200.908 Y59.225 E.36651
G1 X200.366 Y59.332 E.02108
G1 X207.302 Y66.269 E.37433
G1 X206.905 Y66.521 E.01794
G1 X199.717 Y59.333 E.38791
G1 X199.025 Y59.238 E.02665
G1 X198.946 Y59.211 E.00319
G1 X206.657 Y66.922 E.41613
M204 S1000
G1 E-.64 F2100
;WIPE_START
G1 F9600
G1 X206.113 Y66.378 E-.16
;WIPE_END
G1 X200.861 Y51.391 Z.477 F12000
G1 Z.2 F720
G1 E.8 F1500
M204 S600
G1 F1200
G1 X193.35 Y43.879 E.40537
G1 X192.953 Y44.131 E.01794
G1 X199.925 Y51.103 E.37625
G2 X199.325 Y51.152 I-.186 J1.419 E.02314
G1 X192.556 Y44.383 E.3653
G1 X192.158 Y44.635 E.01798
G1 X198.794 Y51.271 E.35812
G2 X198.334 Y51.459 I.369 J1.556 E.01904
G1 X191.761 Y44.887 E.35469
G3 X191.345 Y45.12 I-1.316 J-1.864 E.01823
G1 X197.896 Y51.67 E.3535
G1 X197.525 Y51.949 E.01771
G1 X190.729 Y45.152 E.36678
G1 X190.626 Y45.136 E.00398
G1 X190.273 Y44.941 E.01539
G1 X187.021 Y41.695 E.17534
G1 X186.822 Y41.894 E.01074
G1 X197.173 Y52.246 E.55863
G1 X196.869 Y52.59 E.01752
G1 X190.087 Y45.809 E.36597
