; generated by PrusaSlicer 2.9.3 on 2025-09-26 at 20:47:51 UTC


;
;

;
;

;
;

;
;

;
;
; 

; external perimeters extrusion width = 0.45mm
; perimeters extrusion width = 0.45mm
; infill extrusion width = 0.45mm
; solid infill extrusion width = 0.45mm
; top infill extrusion width = 0.42mm
; first layer extrusion width = 0.50mm

M73 P0 R18

EXCLUDE_OBJECT_DEFINE NAME='M10x1_Threaded_Nut_STL' CENTER=50.838,53.937 POLYGON=[[53.338,36.616],[55.050,36.951],[57.534,37.769],[59.870,38.948],[61.317,39.922],[63.944,37.295],[67.480,40.830],[64.853,43.457],[65.827,44.905],[67.005,47.240],[67.823,49.725],[68.158,51.437],[71.873,51.437],[71.873,56.437],[68.158,56.437],[67.823,58.149],[67.005,60.634],[65.827,62.969],[64.853,64.417],[67.480,67.044],[63.944,70.579],[61.317,67.952],[59.870,68.926],[57.534,70.105],[55.050,70.922],[53.338,71.257],[53.338,74.972],[48.338,74.972],[48.338,71.257],[46.625,70.922],[44.141,70.105],[41.806,68.926],[40.358,67.952],[37.731,70.579],[34.195,67.044],[36.822,64.417],[35.848,62.969],[34.670,60.634],[33.852,58.149],[33.517,56.437],[29.802,56.437],[29.802,51.437],[33.517,51.437],[33.852,49.725],[34.670,47.240],[35.848,44.905],[36.822,43.457],[34.195,40.830],[37.731,37.295],[40.358,39.922],[41.806,38.948],[44.141,37.769],[46.625,36.951],[48.338,36.616],[48.338,32.901],[53.338,32.901]]

;TYPE:Custom
G90 ; use absolute coordinates
M83 ; extruder relative mode
M104 S170 ; preheat hotend to 170
M140 S60 ; set bed temp
M190 S60 ; wait for bed temp
G28 ; home all
G29 ; mesh bed leveling
G0 X0 Z0.6 Y-3.0 F1000.0 ; go outside print area for intro line
M104 S200 ; set hotend temp
M109 S200 ; wait for hotend temp
;M104 S0 ; Stops PS/SS from sending temp waits separately
;M140 S0
;PRINT_START BED=60 HOTEND=200
G92 E0.0
G1 X60.0 E9.0 F1000.0 ; intro line
G1 X100.0 E12.5 F1000.0 ; intro line
G92 E0.0
G21 ; set units to millimeters
G90 ; use absolute coordinates
M83 ; use relative distances for extrusion
M900 K0.05 ; Filament gcode



M142 S36 ; set heatbreak target temp
M107
;LAYER_CHANGE
;Z:0.2
;HEIGHT:0.2
G1 E-.8 F2100
M73 P0 R17
G1 Z.8 F720
EXCLUDE_OBJECT_START NAME='M10x1_Threaded_Nut_STL'
G1 X44.062 Y64.325 F12000
G1 Z.2 F720
G1 E.8 F1500
M204 S600
;TYPE:Perimeter
;WIDTH:0.499999
G1 F1200
G3 X43.916 Y64.214 I7.569 J-10.131 E.00697
G3 X41.769 Y62.076 I7.9 J-10.079 E.11543
G3 X39.297 Y53.478 I9.363 J-7.347 E.34858
G3 X39.886 Y50.747 I19.065 J2.683 E.10628
G3 X40.445 Y49.236 I20.482 J6.722 E.06125
G3 X42.2 Y46.489 I11.554 J5.447 E.12423
G3 X44.631 Y44.368 I10.246 J9.288 E.1229
G1 X46.058 Y43.581 E.06194
G1 X47.046 Y43.205 E.04018
G3 X48.018 Y42.903 I1.968 J4.603 E.03875
G1 X49.025 Y42.68 E.0392
G3 X50.83 Y42.531 I3.56 J32.02 E.06884
G1 X51.859 Y42.576 E.03915
G3 X53.814 Y42.883 I-3.534 J28.947 E.07523
G3 X56.848 Y43.921 I-2.267 J11.581 E.12225
G3 X62.388 Y49.853 I-5.479 J10.67 E.31469
G3 X63.231 Y52.841 I-10.723 J4.636 E.11835
G3 X63.365 Y55.66 I-11.642 J1.967 E.10752
G3 X62.98 Y57.987 I-15.218 J-1.32 E.08973
G3 X61.566 Y61.327 I-12.94 J-3.512 E.13827
G3 X57.61 Y65.059 I-10.649 J-7.324 E.20826
G3 X52.991 Y66.776 I-6.694 J-10.939 E.18846
G1 X51.562 Y66.844 E.05437
G3 X48.55 Y66.459 I.314 J-14.429 E.11562
G3 X44.11 Y64.361 I3.081 J-12.265 E.18783
M204 S1000
G1 X44.342 Y63.959 F12000
M204 S600
;TYPE:External perimeter
G1 F1200
G3 X42.12 Y61.783 I7.201 J-9.577 E.11853
M73 P1 R17
G3 X40.842 Y59.747 I10.41 J-7.952 E.09149
G3 X39.753 Y53.506 I10.351 J-5.022 E.24393
G3 X40.329 Y50.861 I18.909 J2.729 E.10297
G3 X40.871 Y49.403 I20.707 J6.87 E.05913
G3 X42.527 Y46.809 I11.235 J5.347 E.11727
G3 X44.904 Y44.734 I9.895 J8.941 E.1202
G1 X46.275 Y43.983 E.05941
G1 X47.206 Y43.634 E.03779
G3 X48.116 Y43.349 I1.775 J4.076 E.03631
G3 X50.096 Y43.036 I2.513 J9.48 E.07632
G1 X50.81 Y42.987 E.0272
G1 X51.839 Y43.033 E.03915
G3 X53.741 Y43.334 I-3.652 J29.249 E.0732
G3 X57.598 Y44.873 I-2.183 J11.075 E.15873
G3 X62.375 Y51.124 I-6.287 J9.755 E.30505
G3 X62.779 Y52.907 I-10.136 J3.229 E.06957
G1 X62.887 Y53.646 E.02838
G3 X61.165 Y61.106 I-12.253 J1.102 E.2959
G1 X60.721 Y61.691 E.02791
G3 X57.387 Y64.66 I-9.551 J-7.368 E.17066
G3 X52.908 Y66.326 I-6.445 J-10.472 E.18279
G1 X51.542 Y66.387 E.05197
G3 X49.711 Y66.223 I.348 J-14.193 E.06992
G3 X44.39 Y63.995 I1.832 J-11.841 E.22142
M204 S1000
G1 E-.64 F2100
;WIPE_START
G1 F9600
G1 X44.342 Y63.959 E-.01247
G3 X43.788 Y63.516 I7.201 J-9.577 E-.14753
;WIPE_END
G1 X37.782 Y64.5 Z.306 F12000
G1 Z.2 F720
G1 E.8 F1500
M204 S600
;TYPE:Perimeter
G1 F1200
G2 X37.676 Y64.062 I-.714 J-.059 E.01742
G1 X36.627 Y62.501 E.07148
G1 X35.838 Y61.03 E.06344
G1 X35.211 Y59.514 E.06235
G1 X34.737 Y57.945 E.06229
G2 X34.31 Y55.905 I-43.83 J8.116 E.07922
G2 X33.699 Y55.53 I-.646 J.367 E.02843
G1 X30.709 Y55.53 E.11364
G1 X30.709 Y52.344 E.12109
G1 X33.699 Y52.344 E.11364
G2 X34.372 Y51.79 I-.022 J-.713 E.03564
G1 X34.733 Y49.944 E.07149
G1 X35.216 Y48.346 E.06345
G1 X35.844 Y46.831 E.06233
G1 X36.619 Y45.386 E.06232
G1 X37.734 Y43.708 E.07657
G2 X37.592 Y42.944 I-.69 J-.267 E.03109
G1 X35.478 Y40.83 E.11363
G1 X37.731 Y38.578 E.12107
G1 X39.845 Y40.692 E.11363
G2 X40.712 Y40.776 I.49 J-.537 E.0355
G1 X42.274 Y39.726 E.07153
G1 X43.745 Y38.938 E.06342
G1 X45.26 Y38.31 E.06233
G1 X46.829 Y37.837 E.06228
G1 X48.827 Y37.429 E.0775
G2 X49.245 Y36.798 I-.322 J-.667 E.03019
G1 X49.245 Y33.808 E.11364
G1 X52.43 Y33.808 E.12105
G1 X52.43 Y36.798 E.11364
G2 X52.684 Y37.33 I.797 J-.052 E.02295
G1 X52.984 Y37.471 E.0126
G1 X54.846 Y37.837 E.07212
G1 X56.415 Y38.31 E.06228
G1 X57.943 Y38.944 E.06287
G1 X59.388 Y39.718 E.0623
G1 X60.963 Y40.776 E.07211
G2 X61.534 Y40.866 I.406 J-.721 E.02244
G1 X61.83 Y40.692 E.01305
G1 X63.944 Y38.578 E.11363
G1 X66.197 Y40.83 E.12107
G1 X64.083 Y42.944 E.11363
G2 X63.886 Y43.499 I.635 J.539 E.02288
G1 X63.998 Y43.811 E.0126
G1 X65.056 Y45.386 E.07211
G1 X65.831 Y46.831 E.06232
G1 X66.459 Y48.346 E.06233
G1 X66.942 Y49.944 E.06345
G1 X67.303 Y51.79 E.07149
G1 X67.439 Y52.084 E.01231
G2 X67.976 Y52.344 I.602 J-.559 E.02321
G1 X70.966 Y52.344 E.11364
G1 X70.966 Y53.937 E.06054
G1 X70.966 Y55.53 E.06054
G1 X67.976 Y55.53 E.11364
G2 X67.304 Y56.083 I.036 J.729 E.03543
G1 X66.938 Y57.945 E.07212
G1 X66.464 Y59.514 E.06229
G1 X65.837 Y61.03 E.06235
G1 X65.049 Y62.501 E.06342
G1 X63.999 Y64.062 E.0715
G1 X63.887 Y64.365 E.01228
G1 X63.936 Y64.711 E.01328
G1 X64.083 Y64.929 E.00999
G1 X66.197 Y67.044 E.11365
G1 X63.944 Y69.296 E.12107
G1 X61.83 Y67.182 E.11363
G2 X60.964 Y67.097 I-.487 J.513 E.03562
G1 X59.401 Y68.148 E.07158
G1 X57.93 Y68.936 E.06342
G1 X56.415 Y69.563 E.06232
G1 X54.846 Y70.037 E.06229
G1 X52.984 Y70.403 E.07212
G1 X52.685 Y70.542 E.01253
G2 X52.43 Y71.076 I.569 J.599 E.023
G1 X52.43 Y74.065 E.1136
G1 X49.245 Y74.065 E.12105
G1 X49.245 Y71.076 E.1136
G1 X49.189 Y70.806 E.01048
M73 P2 R17
G1 X48.983 Y70.537 E.01288
G1 X48.691 Y70.403 E.01221
G1 X46.844 Y70.041 E.07153
G1 X45.247 Y69.558 E.06341
G1 X43.732 Y68.93 E.06233
G1 X42.287 Y68.156 E.0623
G1 X40.679 Y67.077 E.0736
G2 X40.119 Y67.015 I-.368 J.756 E.02184
G1 X39.845 Y67.182 E.0122
G1 X37.731 Y69.296 E.11363
G1 X35.478 Y67.044 E.12107
G1 X37.592 Y64.929 E.11365
G2 X37.775 Y64.559 I-.524 J-.488 E.01591
M204 S1000
G1 X37.327 Y64.447 F12000
M204 S600
;TYPE:External perimeter
G1 F1200
G2 X37.297 Y64.317 I-.27 J-.007 E.00512
G1 X36.234 Y62.737 E.07238
G1 X35.425 Y61.226 E.06514
G1 X34.78 Y59.668 E.06409
G1 X34.293 Y58.055 E.06404
G1 X33.923 Y56.171 E.07297
G2 X33.699 Y55.987 I-.256 J.083 E.01163
G1 X30.252 Y55.987 E.13101
G1 X30.252 Y51.887 E.15583
G1 X33.699 Y51.887 E.13101
G2 X33.923 Y51.702 I-.032 J-.268 E.01166
G1 X34.289 Y49.833 E.07238
G1 X34.785 Y48.192 E.06515
G1 X35.431 Y46.635 E.06407
G1 X36.227 Y45.15 E.06404
G1 X37.297 Y43.557 E.07293
G2 X37.269 Y43.268 I-.241 J-.123 E.01165
G1 X34.832 Y40.83 E.13101
G1 X37.731 Y37.931 E.15582
G1 X40.168 Y40.368 E.13099
G2 X40.457 Y40.396 I.167 J-.218 E.01162
G1 X42.038 Y39.334 E.07239
G1 X43.549 Y38.524 E.06516
G1 X45.106 Y37.879 E.06405
G1 X46.719 Y37.393 E.06403
G1 X48.582 Y37.026 E.07217
G2 X48.788 Y36.798 I-.063 J-.262 E.01242
G1 X48.788 Y33.351 E.13101
G1 X52.888 Y33.351 E.15583
G1 X52.888 Y36.798 E.13101
G2 X53.072 Y37.022 I.272 J-.036 E.0116
G1 X54.956 Y37.393 E.07298
G1 X56.569 Y37.879 E.06403
G1 X58.139 Y38.53 E.0646
G1 X59.624 Y39.326 E.06404
G1 X61.218 Y40.397 E.07299
G2 X61.507 Y40.368 I.122 J-.24 E.01166
G1 X63.944 Y37.931 E.13099
G1 X66.843 Y40.83 E.15582
G1 X64.406 Y43.268 E.13101
G2 X64.378 Y43.557 I.211 J.166 E.01166
G1 X65.448 Y45.15 E.07293
G1 X66.244 Y46.635 E.06404
G1 X66.89 Y48.192 E.06407
G1 X67.386 Y49.833 E.06515
G1 X67.752 Y51.702 E.07238
G2 X67.976 Y51.887 I.257 J-.084 E.01166
G1 X71.423 Y51.887 E.13101
G1 X71.423 Y53.937 E.07791
G1 X71.423 Y55.987 E.07791
G1 X67.976 Y55.987 E.13101
G2 X67.752 Y56.171 I.033 J.269 E.01163
G1 X67.382 Y58.055 E.07297
G1 X66.895 Y59.668 E.06404
G1 X66.25 Y61.226 E.06409
G1 X65.441 Y62.737 E.06514
G1 X64.378 Y64.317 E.07238
G2 X64.406 Y64.606 I.239 J.123 E.01166
G1 X66.843 Y67.044 E.13101
G1 X63.944 Y69.943 E.15582
G1 X61.507 Y67.505 E.13101
G2 X61.218 Y67.477 I-.167 J.212 E.01166
G1 X59.637 Y68.54 E.07241
G1 X58.126 Y69.35 E.06516
G1 X56.569 Y69.994 E.06404
G1 X54.956 Y70.481 E.06404
G1 X53.072 Y70.851 E.07297
G2 X52.888 Y71.076 I.083 J.256 E.01167
G1 X52.888 Y74.522 E.13097
G1 X48.788 Y74.522 E.15583
G1 X48.788 Y71.076 E.13097
G2 X48.603 Y70.851 I-.268 J.031 E.0117
G1 X46.734 Y70.485 E.07238
G1 X45.093 Y69.989 E.06515
G1 X43.536 Y69.344 E.06405
G1 X42.051 Y68.548 E.06404
G1 X40.461 Y67.48 E.0728
G2 X40.168 Y67.505 I-.126 J.243 E.0118
G1 X37.731 Y69.943 E.13101
G1 X34.832 Y67.044 E.15582
G1 X37.269 Y64.606 E.13101
G2 X37.318 Y64.506 I-.212 J-.166 E.00426
M204 S1000
G1 E-.64 F2100
;WIPE_START
G1 F9600
G1 X37.327 Y64.447 E-.0124
G2 X37.297 Y64.317 I-.269 J-.006 E-.02802
G1 X36.976 Y63.84 E-.11958
;WIPE_END
G1 X52.225 Y34.574 Z.776 F12000
G1 Z.2 F720
G1 E.8 F1500
M204 S600
;TYPE:Solid infill
;WIDTH:0.50144
G1 F1200
G1 X51.871 Y34.22 E.01909
G1 X51.222 Y34.22 E.02474
G1 X52.019 Y35.017 E.04297
G1 X52.019 Y35.665 E.02471
G1 X50.574 Y34.22 E.07791
G1 X49.925 Y34.22 E.02474
G1 X52.225 Y36.519 E.12399
M204 S1000
G1 E-.64 F2100
;WIPE_START
G1 F9600
G1 X51.681 Y35.975 E-.16
;WIPE_END
G1 X63.798 Y39.014 Z.418 F12000
G1 Z.2 F720
G1 E.8 F1500
M73 P3 R17
M204 S600
G1 F1200
G1 X65.615 Y40.831 E.09797
G1 X65.291 Y41.156 E.0175
G1 X63.619 Y39.484 E.09015
G1 X63.294 Y39.807 E.01747
G1 X64.967 Y41.48 E.09021
G1 X64.643 Y41.805 E.0175
G1 X62.97 Y40.131 E.09023
G1 X62.645 Y40.455 E.0175
G1 X64.319 Y42.129 E.09026
G1 X63.996 Y42.454 E.01747
G1 X62.32 Y40.779 E.09034
G1 X61.986 Y41.093 E.01748
G1 X63.682 Y42.789 E.09145
G2 X63.49 Y43.245 I.818 J.611 E.01905
G1 X61.529 Y41.284 E.10573
G3 X60.673 Y41.077 I-.182 J-1.118 E.03449
G1 X63.698 Y44.102 E.1631
G1 X64.703 Y45.599 E.06874
G1 X64.885 Y45.937 E.01464
G1 X58.838 Y39.89 E.32604
G2 X57.508 Y39.208 I-6.953 J11.93 E.05701
G1 X65.566 Y47.267 E.4345
G1 X66.025 Y48.374 E.04569
G1 X56.401 Y38.75 E.51891
G1 X55.452 Y38.449 E.03796
G1 X66.324 Y49.322 E.58623
G3 X66.578 Y50.224 I-8.168 J2.788 E.03574
G1 X54.551 Y38.197 E.64848
G1 X53.738 Y38.033 E.03162
G1 X67.002 Y51.297 E.71517
M204 S1000
G1 E-.64 F2100
;WIPE_START
G1 F9600
G1 X66.458 Y50.753 E-.16
;WIPE_END
G1 X70.2 Y52.549 Z.272 F12000
G1 Z.2 F720
G1 E.8 F1500
M204 S600
G1 F1200
G1 X70.555 Y52.904 E.01914
G1 X70.555 Y53.552 E.02471
G1 X69.757 Y52.754 E.04303
G1 X69.107 Y52.753 E.02478
G1 X70.555 Y54.201 E.07807
G1 X70.555 Y54.849 E.02471
G1 X68.252 Y52.547 E.12415
M204 S1000
G1 E-.64 F2100
;WIPE_START
G1 F9600
G1 X68.796 Y53.091 E-.16
;WIPE_END
G1 X70.382 Y55.325 Z.248 F12000
G1 Z.2 F720
G1 E.8 F1500
M204 S600
G1 F1200
G1 X49.655 Y34.598 E1.11757
G1 X49.654 Y35.246 E.02471
G1 X69.529 Y55.12 E1.0716
G1 X68.881 Y55.121 E.02471
G1 X62.031 Y48.271 E.36934
G2 X57.682 Y43.922 I-10.353 J6.004 E.23715
M73 P4 R17
G1 X49.654 Y35.894 E.43286
G1 X49.653 Y36.541 E.02467
G1 X56.346 Y43.234 E.36088
G2 X55.309 Y42.846 I-4.083 J9.32 E.04223
G1 X49.601 Y37.138 E.30777
G3 X49.361 Y37.546 I-1.178 J-.417 E.01816
G1 X54.407 Y42.592 E.27207
G2 X53.591 Y42.424 I-1.913 J7.236 E.03178
G1 X48.978 Y37.812 E.2487
G3 X48.455 Y37.937 I-1.018 J-3.111 E.02052
G1 X52.811 Y42.293 E.23487
G1 X52.059 Y42.19 E.02894
G1 X47.913 Y38.043 E.22357
G1 X47.371 Y38.15 E.02106
G1 X51.367 Y42.146 E.21546
G1 X50.696 Y42.123 E.0256
G1 X46.837 Y38.264 E.20807
G1 X46.339 Y38.415 E.01984
G1 X50.09 Y42.166 E.20225
G1 X49.484 Y42.209 E.02316
G1 X45.841 Y38.565 E.19645
G1 X45.347 Y38.72 E.01974
G1 X48.911 Y42.284 E.19217
G1 X48.381 Y42.402 E.0207
G1 X44.888 Y38.91 E.18831
G1 X44.43 Y39.099 E.01889
G1 X47.851 Y42.52 E.18445
G2 X47.34 Y42.659 I.407 J2.514 E.02023
G1 X43.971 Y39.289 E.18168
G1 X43.545 Y39.511 E.01831
G1 X46.868 Y42.834 E.17917
G1 X46.395 Y43.01 E.01924
G1 X43.123 Y39.738 E.17642
G1 X42.7 Y39.964 E.01828
G1 X45.926 Y43.19 E.17394
G1 X45.507 Y43.419 E.01821
G1 X42.295 Y40.207 E.17319
G1 X41.907 Y40.468 E.01783
G1 X45.087 Y43.647 E.17143
G1 X44.667 Y43.876 E.01824
G1 X41.52 Y40.729 E.16968
G1 X41.132 Y40.989 E.01781
G1 X44.269 Y44.126 E.16914
G1 X43.896 Y44.402 E.01769
G1 X40.723 Y41.229 E.17108
G3 X40.128 Y41.282 I-.391 J-1.024 E.02307
G1 X43.524 Y44.678 E.18311
G1 X43.159 Y44.961 E.01761
G1 X37.544 Y39.346 E.30275
G1 X37.22 Y39.671 E.0175
G1 X42.819 Y45.27 E.30189
G1 X42.499 Y45.598 E.01747
G1 X36.895 Y39.995 E.30213
G1 X36.571 Y40.319 E.01747
G1 X42.178 Y45.926 E.30232
G1 X41.857 Y46.254 E.0175
G1 X36.247 Y40.643 E.30251
G1 X36.06 Y40.83 E.01008
G1 X37.95 Y42.725 E.10204
G3 X38.183 Y43.228 I-.911 J.728 E.02134
G1 X41.578 Y46.623 E.18305
G1 X41.299 Y46.993 E.01767
G1 X38.13 Y43.824 E.17087
G3 X37.887 Y44.228 I-1.827 J-.825 E.01802
M73 P5 R17
G1 X41.021 Y47.363 E.16901
G1 X40.772 Y47.762 E.01793
G1 X37.627 Y44.617 E.16957
G1 X37.368 Y45.006 E.01782
G1 X40.539 Y48.178 E.171
G1 X40.315 Y48.602 E.01828
G1 X37.108 Y45.395 E.17292
G1 X36.864 Y45.8 E.01803
G1 X40.09 Y49.026 E.17394
G1 X39.905 Y49.489 E.01901
G1 X36.638 Y46.222 E.17615
G1 X36.411 Y46.644 E.01827
G1 X39.723 Y49.955 E.17855
G1 X39.555 Y50.436 E.01943
G1 X36.19 Y47.071 E.18144
G1 X36 Y47.529 E.0189
G1 X39.412 Y50.941 E.18397
G1 X39.28 Y51.457 E.02031
G1 X35.81 Y47.988 E.18707
G1 X35.62 Y48.446 E.0189
G1 X39.147 Y51.973 E.19017
G1 X39.04 Y52.514 E.02103
G1 X35.466 Y48.941 E.19268
G1 X35.316 Y49.439 E.01983
G1 X38.948 Y53.071 E.19583
G2 X38.875 Y53.646 I3.494 J.736 E.02212
G1 X35.165 Y49.937 E.20001
G1 X35.049 Y50.469 E.02076
G1 X38.84 Y54.26 E.2044
G1 X38.821 Y54.889 E.02399
G1 X34.943 Y51.012 E.20907
G1 X34.837 Y51.554 E.02106
G1 X38.847 Y55.564 E.21621
G1 X38.918 Y56.283 E.02755
G1 X34.712 Y52.077 E.22678
G3 X34.446 Y52.46 I-1.163 J-.523 E.01788
G1 X39.048 Y57.061 E.24811
G2 X39.228 Y57.89 I6.957 J-1.08 E.03236
G1 X34.038 Y52.7 E.27984
G3 X33.442 Y52.752 I-.443 J-1.625 E.02293
G1 X39.524 Y58.834 E.32793
G2 X39.974 Y59.933 I10.78 J-3.776 E.0453
G1 X32.589 Y52.548 E.39819
M204 S1000
G1 E-.64 F2100
;WIPE_START
G1 F9600
G1 X33.133 Y53.092 E-.16
;WIPE_END
G1 X67.438 Y55.264 Z.8 F12000
G1 X68.439 Y55.327
G1 Z.2 F720
G1 E.8 F1500
M204 S600
G1 F1200
G1 X62.737 Y49.626 E.30742
G1 X63.143 Y50.679 E.04303
G1 X67.64 Y55.176 E.24247
G2 X67.228 Y55.413 I.304 J1.004 E.01828
G1 X63.396 Y51.581 E.20662
G3 X63.578 Y52.412 I-4.46 J1.415 E.03248
G1 X66.975 Y55.809 E.18316
G2 X66.838 Y56.32 I1.629 J.713 E.02025
G1 X63.691 Y53.173 E.16968
G3 X63.771 Y53.901 I-4.794 J.895 E.02795
G1 X66.731 Y56.862 E.15963
G1 X66.625 Y57.404 E.02106
G1 X63.807 Y54.586 E.15194
G1 X63.788 Y55.215 E.02399
G1 X66.51 Y57.938 E.14679
G1 X66.36 Y58.436 E.01983
G1 X63.761 Y55.837 E.14013
G1 X63.692 Y56.416 E.02223
G1 X66.21 Y58.934 E.13577
G1 X66.055 Y59.427 E.0197
G1 X63.613 Y56.986 E.13164
G1 X63.498 Y57.52 E.02083
G1 X65.865 Y59.886 E.1276
G1 X65.675 Y60.345 E.01894
M73 P6 R17
G1 X63.384 Y58.053 E.12355
G1 X63.235 Y58.553 E.01989
G1 X65.485 Y60.803 E.12132
G1 X65.263 Y61.23 E.01835
M73 P6 R16
G1 X63.079 Y59.045 E.11778
G1 X62.906 Y59.521 E.01931
G1 X65.037 Y61.652 E.1149
G1 X64.811 Y62.074 E.01825
G1 X62.712 Y59.975 E.11317
G1 X62.517 Y60.429 E.01884
