; generated by PrusaSlicer 2.9.3 on 2025-09-28 at 20:03:39 UTC


;
;

;
;

;
;

;
;

;
;
; 

; external perimeters extrusion width = 0.45mm
; perimeters extrusion width = 0.45mm
; infill extrusion width = 0.45mm
; solid infill extrusion width = 0.45mm
; top infill extrusion width = 0.40mm
; first layer extrusion width = 0.50mm

M73 P0 R21

EXCLUDE_OBJECT_DEFINE NAME='M10x1_Threaded_Nut_STL' CENTER=200.193,154.243 POLYGON=[[202.693,136.922],[204.405,137.257],[206.890,138.075],[209.225,139.253],[210.673,140.227],[213.300,137.600],[216.835,141.136],[214.208,143.763],[215.182,145.211],[216.361,147.546],[217.179,150.030],[217.514,151.743],[221.229,151.743],[221.229,156.743],[217.514,156.743],[217.179,158.455],[216.361,160.939],[215.182,163.275],[214.208,164.722],[216.835,167.349],[213.300,170.885],[210.673,168.258],[209.225,169.232],[206.890,170.410],[204.405,171.228],[202.693,171.563],[202.693,175.278],[197.693,175.278],[197.693,171.563],[195.981,171.228],[193.496,170.410],[191.161,169.232],[189.713,168.258],[187.087,170.885],[183.551,167.349],[186.178,164.722],[185.204,163.275],[184.025,160.939],[183.208,158.455],[182.873,156.743],[179.158,156.743],[179.158,151.743],[182.873,151.743],[183.208,150.030],[184.025,147.546],[185.204,145.211],[186.178,143.763],[183.551,141.136],[187.087,137.600],[189.713,140.227],[191.161,139.253],[193.496,138.075],[195.981,137.257],[197.693,136.922],[197.693,133.207],[202.693,133.207]]

;TYPE:Custom
G90 ; use absolute coordinates
M83 ; extruder relative mode
M104 S170 ; preheat hotend to 170
M140 S60 ; set bed temp
M190 S60 ; wait for bed temp
G28 ; home all
;G29 ; mesh bed leveling
BED_MESH_CALIBRATE
G0 X0 Z0.6 Y-3.0 F1000.0 ; go outside print area for intro line
M104 S200 ; set hotend temp
M109 S200 ; wait for hotend temp
;M104 S0 ; Stops PS/SS from sending temp waits separately
;M140 S0
;PRINT_START BED=60 HOTEND=200
G92 E0.0
G1 X60.0 E9.0 F1000.0 ; intro line
G1 X100.0 E12.5 F1000.0 ; intro line
G92 E0.0
G21 ; set units to millimeters
G90 ; use absolute coordinates
M83 ; use relative distances for extrusion
M900 K0.05 ; Filament gcode



M142 S36 ; set heatbreak target temp
M107
;LAYER_CHANGE
;Z:0.2
;HEIGHT:0.2
G1 E-2 F2100
G1 Z.8 F720
EXCLUDE_OBJECT_START NAME='M10x1_Threaded_Nut_STL'
G1 X193.542 Y164.468 F12000
G1 Z.2 F720
G1 E2 F1500
M204 S600
;TYPE:Perimeter
;WIDTH:0.499999
G1 F1200
G1 X193.391 Y164.36 E.00706
G1 X192.886 Y163.94 E.02496
G1 X192.271 Y163.374 E.03177
G1 X191.793 Y162.868 E.02646
G1 X191.284 Y162.261 E.03011
G1 X190.838 Y161.653 E.02866
G1 X190.304 Y160.801 E.03822
G1 X189.974 Y160.18 E.02673
G1 X189.689 Y159.553 E.02618
G1 X189.411 Y158.823 E.02969
G1 X189.243 Y158.278 E.02168
G1 X188.974 Y157.153 E.04396
G1 X188.866 Y156.446 E.02718
G1 X188.815 Y155.854 E.02258
G1 X188.783 Y154.979 E.03328
G1 X188.851 Y153.808 E.04458
G1 X189.059 Y152.566 E.04786
G1 X189.309 Y151.577 E.03877
G1 X189.597 Y150.62 E.03798
G1 X190.018 Y149.549 E.04374
G1 X190.575 Y148.505 E.04497
G1 X190.876 Y148.022 E.02163
G1 X191.653 Y146.988 E.04916
G1 X192.283 Y146.332 E.03457
G1 X192.903 Y145.732 E.03279
G1 X194.096 Y144.841 E.05659
G1 X195.498 Y144.068 E.06085
G1 X196.991 Y143.504 E.06066
G1 X198.424 Y143.181 E.05583
G1 X199.422 Y143.086 E.0381
G1 X200.114 Y143.037 E.02637
G1 X201.195 Y143.081 E.04112
G1 X201.771 Y143.147 E.02203
G1 X202.44 Y143.272 E.02587
G1 X203.145 Y143.387 E.02715
G1 X204.144 Y143.626 E.03904
G1 X204.766 Y143.826 E.02483
G1 X205.388 Y144.069 E.02538
G1 X206.542 Y144.635 E.04885
G1 X207.087 Y144.958 E.02408
G1 X207.661 Y145.348 E.02637
G1 X208.191 Y145.755 E.0254
G1 X208.592 Y146.107 E.02028
G1 X209.225 Y146.712 E.03328
G1 X210.008 Y147.617 E.04548
G1 X210.438 Y148.204 E.02766
G1 X211.039 Y149.175 E.0434
G1 X211.521 Y150.145 E.04117
G1 X211.939 Y151.227 E.04408
G1 X211.974 Y151.343 E.00461
G1 X212.288 Y152.519 E.04626
G1 X212.495 Y153.903 E.05319
G1 X212.551 Y154.837 E.03556
G1 X212.546 Y155.415 E.02197
G1 X212.517 Y156.007 E.02253
G1 X212.4 Y157.015 E.03857
G1 X212.142 Y158.247 E.04784
G1 X211.796 Y159.352 E.04401
G1 X211.311 Y160.503 E.04747
G1 X210.754 Y161.522 E.04414
G1 X210.397 Y162.011 E.02301
G1 X210.037 Y162.471 E.0222
G1 X209.68 Y162.881 E.02066
G1 X209.235 Y163.343 E.02438
G1 X208.667 Y163.876 E.0296
G1 X208.164 Y164.297 E.02493
G1 X207.546 Y164.757 E.02928
G1 X207.047 Y165.088 E.02276
G1 X205.891 Y165.736 E.05037
G1 X205.129 Y166.086 E.03187
G1 X203.988 Y166.499 E.04612
G1 X203.261 Y166.698 E.02865
G1 X202.327 Y166.882 E.03618
G1 X200.919 Y166.95 E.05358
G1 X199.782 Y166.889 E.04328
G1 X198.959 Y166.776 E.03157
G1 X197.958 Y166.572 E.03883
G1 X197.265 Y166.375 E.02738
G1 X196.625 Y166.159 E.02567
G1 X196.086 Y165.943 E.02207
G1 X195.48 Y165.667 E.02531
G1 X195.011 Y165.419 E.02016
G1 X194.184 Y164.926 E.03659
G1 X193.591 Y164.503 E.02768
M204 S1000
G1 X193.82 Y164.105 F12000
M204 S600
;TYPE:External perimeter
G1 F1200
G1 X193.657 Y163.988 E.00763
G1 X193.18 Y163.589 E.02364
G1 X192.585 Y163.041 E.03074
G1 X192.126 Y162.555 E.02541
G1 X191.635 Y161.968 E.02909
G1 X191.207 Y161.383 E.02755
G1 X190.692 Y160.559 E.03693
G1 X190.378 Y159.966 E.0255
G1 X190.106 Y159.364 E.02511
G1 X189.838 Y158.661 E.02859
G1 X189.68 Y158.144 E.02055
G1 X189.42 Y157.053 E.04263
G1 X189.318 Y156.378 E.02595
G1 X189.27 Y155.815 E.02148
G1 X189.24 Y154.969 E.03217
G1 X189.307 Y153.835 E.04317
G1 X189.502 Y152.678 E.04459
G1 X189.751 Y151.692 E.03865
G1 X190.035 Y150.752 E.03732
G1 X190.421 Y149.764 E.04031
G1 X190.977 Y148.721 E.04492
G1 X191.263 Y148.265 E.02046
G1 X192.018 Y147.263 E.04768
G1 X192.606 Y146.656 E.03212
G1 X193.214 Y146.068 E.03215
G1 X194.368 Y145.208 E.0547
G1 X195.716 Y144.47 E.05841
G1 X197.15 Y143.933 E.0582
G1 X198.523 Y143.628 E.05345
G1 X199.454 Y143.542 E.03553
G1 X200.146 Y143.493 E.02637
G1 X201.175 Y143.538 E.03915
G1 X201.717 Y143.601 E.02074
G1 X202.355 Y143.722 E.02468
G1 X203.073 Y143.838 E.02764
G1 X204.031 Y144.068 E.03744
M73 P1 R21
G1 X204.625 Y144.261 E.02374
G1 X205.168 Y144.471 E.02213
G1 X206.34 Y145.045 E.0496
G1 X206.852 Y145.351 E.02267
G1 X207.404 Y145.726 E.02536
G1 X207.912 Y146.117 E.02436
G1 X208.29 Y146.45 E.01915
G1 X208.902 Y147.035 E.03218
G1 X209.662 Y147.916 E.04422
G1 X210.05 Y148.446 E.02496
G1 X210.63 Y149.379 E.04175
G1 X211.112 Y150.348 E.04113
G1 X211.512 Y151.39 E.04242
G1 X211.846 Y152.637 E.04906
G1 X212.043 Y153.969 E.05118
G1 X212.094 Y154.863 E.03403
G1 X212.089 Y155.41 E.02079
G1 X212.063 Y155.955 E.02074
G1 X211.946 Y156.962 E.03853
G1 X211.696 Y158.147 E.04603
G1 X211.36 Y159.215 E.04255
G1 X210.89 Y160.324 E.04578
G1 X210.354 Y161.302 E.04239
G1 X209.677 Y162.19 E.04244
G1 X209.336 Y162.581 E.01972
G1 X208.906 Y163.025 E.02349
G1 X208.357 Y163.541 E.02864
G1 X207.872 Y163.945 E.02399
G1 X207.273 Y164.391 E.02838
G1 X206.795 Y164.707 E.02178
G1 X205.669 Y165.337 E.04904
G1 X204.939 Y165.67 E.03049
G1 X203.833 Y166.069 E.04469
G1 X203.141 Y166.256 E.02724
G1 X202.243 Y166.433 E.03479
G1 X200.899 Y166.493 E.05113
G1 X199.808 Y166.432 E.04153
G1 X199.03 Y166.325 E.02985
G1 X198.055 Y166.125 E.03783
G1 X197.39 Y165.935 E.02629
G1 X196.774 Y165.727 E.02471
G1 X196.257 Y165.519 E.02118
G1 X195.671 Y165.252 E.02447
G1 X195.225 Y165.015 E.0192
G1 X194.422 Y164.536 E.03554
G1 X193.869 Y164.14 E.02585
M204 S1000
G1 E-1.6 F2100
;WIPE_START
G1 F9600
G1 X193.82 Y164.105 E-.01251
G1 X193.657 Y163.988 E-.0417
G1 X193.18 Y163.589 E-.12923
G1 X192.585 Y163.041 E-.1681
G1 X192.425 Y162.871 E-.04846
;WIPE_END
G1 X186.882 Y164.79 Z.302 F12000
G1 Z.2 F720
G1 E2 F1500
M204 S600
;TYPE:Perimeter
G1 F1200
G1 X186.868 Y164.549 E.00917
G1 X186.774 Y164.343 E.00861
G1 X185.811 Y162.91 E.06562
G1 X185.01 Y161.414 E.06449
G1 X184.378 Y159.887 E.06281
G1 X183.901 Y158.306 E.06276
G1 X183.562 Y156.589 E.06652
G1 X183.491 Y156.392 E.00796
G1 X183.337 Y156.201 E.00932
G1 X183.079 Y156.062 E.01114
G1 X182.89 Y156.035 E.00726
G1 X179.865 Y156.035 E.11497
G1 X179.865 Y152.45 E.13625
G1 X182.89 Y152.45 E.11497
G1 X183.079 Y152.423 E.00726
G1 X183.337 Y152.284 E.01114
G1 X183.475 Y152.121 E.00812
G1 X183.563 Y151.896 E.00918
G1 X183.895 Y150.201 E.06564
G1 X184.386 Y148.578 E.06445
G1 X185.019 Y147.051 E.06282
G1 X185.799 Y145.595 E.06278
G1 X186.371 Y144.743 E.039
G1 X186.845 Y144.005 E.03334
G1 X186.89 Y143.721 E.01093
G1 X186.808 Y143.433 E.01138
G1 X186.69 Y143.275 E.00749
G1 X184.551 Y141.136 E.11497
G1 X187.086 Y138.6 E.13628
G1 X189.27 Y140.78 E.11728
G1 X189.542 Y140.919 E.01161
G1 X189.854 Y140.925 E.01186
G1 X190.092 Y140.824 E.00983
G1 X191.546 Y139.849 E.06654
G1 X193.002 Y139.068 E.0628
G1 X194.528 Y138.435 E.06279
G1 X196.152 Y137.944 E.06448
G1 X197.498 Y137.68 E.05213
G1 X198.002 Y137.562 E.01967
G1 X198.227 Y137.395 E.01065
G1 X198.372 Y137.134 E.01135
G1 X198.4 Y136.939 E.00749
G1 X198.4 Y133.914 E.11497
G1 X201.986 Y133.914 E.13629
G1 X201.989 Y136.999 E.11725
G1 X202.082 Y137.289 E.01157
G1 X202.23 Y137.463 E.00868
G1 X202.539 Y137.612 E.01304
G1 X204.256 Y137.95 E.06651
G1 X205.838 Y138.428 E.06281
G1 X207.365 Y139.06 E.06281
G1 X208.86 Y139.86 E.06444
G1 X210.293 Y140.824 E.06564
G1 X210.558 Y140.93 E.01085
G1 X210.873 Y140.911 E.01199
G1 X211.161 Y140.739 E.01275
G1 X213.3 Y138.6 E.11497
G1 X215.835 Y141.136 E.13628
G1 X213.696 Y143.275 E.11497
G1 X213.524 Y143.562 E.01272
G1 X213.5 Y143.84 E.01061
G1 X213.612 Y144.142 E.01224
G1 X214.576 Y145.576 E.06567
G1 X215.376 Y147.071 E.06444
G1 X216.008 Y148.598 E.06281
G1 X216.486 Y150.179 E.06277
G1 X216.846 Y151.979 E.06977
G1 X216.97 Y152.203 E.00973
G1 X217.209 Y152.387 E.01146
G1 X217.497 Y152.45 E.0112
G1 X220.522 Y152.45 E.11497
G1 X220.522 Y154.243 E.06815
G1 X220.522 Y156.035 E.06811
G1 X217.497 Y156.035 E.11497
G1 X217.342 Y156.053 E.00593
G1 X217.106 Y156.157 E.0098
G1 X216.94 Y156.321 E.00887
G1 X216.824 Y156.589 E.0111
G1 X216.492 Y158.284 E.06564
G1 X216 Y159.907 E.06446
G1 X215.367 Y161.434 E.06282
G1 X214.587 Y162.89 E.06278
G1 X213.576 Y164.402 E.06913
G1 X213.498 Y164.664 E.01039
G1 X213.551 Y164.995 E.01274
G1 X213.696 Y165.21 E.00986
G1 X215.835 Y167.349 E.11497
G1 X213.3 Y169.885 E.13628
G1 X211.161 Y167.746 E.11497
G1 X210.946 Y167.6 E.00988
G1 X210.751 Y167.549 E.00766
G1 X210.543 Y167.558 E.00791
G1 X210.293 Y167.661 E.01028
G1 X208.86 Y168.625 E.06564
G1 X207.365 Y169.425 E.06444
G1 X205.838 Y170.057 E.06281
G1 X204.256 Y170.535 E.06281
G1 X202.539 Y170.873 E.06651
G1 X202.226 Y171.025 E.01322
G1 X202.039 Y171.281 E.01205
G1 X201.986 Y171.546 E.01027
G1 X201.986 Y174.571 E.11497
G1 X198.4 Y174.571 E.13629
G1 X198.4 Y171.546 E.11497
G1 X198.386 Y171.405 E.00539
G1 X198.295 Y171.181 E.00919
G1 X198.122 Y170.994 E.00968
G1 X197.846 Y170.873 E.01145
G1 X196.152 Y170.541 E.06561
G1 X194.528 Y170.05 E.06448
G1 X193.002 Y169.417 E.06279
G1 X191.546 Y168.636 E.0628
G1 X190.029 Y167.623 E.06933
G1 X189.723 Y167.545 E.012
G1 X189.492 Y167.581 E.00889
G1 X189.226 Y167.746 E.0119
G1 X187.086 Y169.885 E.115
G1 X184.551 Y167.349 E.13628
G1 X186.69 Y165.21 E.11497
G1 X186.792 Y165.079 E.00631
G1 X186.875 Y164.848 E.00933
M204 S1000
G1 X186.428 Y164.743 F12000
M204 S600
;TYPE:External perimeter
G1 F1200
G1 X186.395 Y164.598 E.00565
G1 X185.418 Y163.146 E.06651
G1 X184.597 Y161.61 E.06619
G1 X183.947 Y160.041 E.06455
G1 X183.457 Y158.416 E.06451
G1 X183.114 Y156.677 E.06737
G1 X183.039 Y156.548 E.00567
G1 X182.89 Y156.493 E.00604
G1 X179.408 Y156.493 E.13234
G1 X179.408 Y151.993 E.17103
G1 X182.89 Y151.993 E.13234
G1 X183.039 Y151.937 E.00605
G1 X183.114 Y151.808 E.00567
G1 X183.451 Y150.091 E.0665
G1 X183.955 Y148.424 E.06619
G1 X184.605 Y146.855 E.06455
G1 X185.407 Y145.359 E.06451
G1 X186.395 Y143.887 E.06738
G1 X186.433 Y143.747 E.00551
G1 X186.367 Y143.598 E.00619
G1 X183.905 Y141.136 E.13233
G1 X187.086 Y137.954 E.171
G1 X189.549 Y140.416 E.13236
G1 X189.697 Y140.483 E.00617
G1 X189.838 Y140.444 E.00556
G1 X191.31 Y139.457 E.06736
G1 X192.806 Y138.655 E.06451
G1 X194.374 Y138.004 E.06453
M73 P2 R21
G1 X196.041 Y137.5 E.06619
G1 X197.759 Y137.163 E.06654
G1 X197.885 Y137.091 E.00552
G1 X197.943 Y136.939 E.00618
G1 X197.943 Y133.457 E.13234
G1 X202.443 Y133.457 E.17103
G1 X202.443 Y136.939 E.13234
G1 X202.501 Y137.091 E.00618
G1 X202.627 Y137.163 E.00552
G1 X204.367 Y137.506 E.0674
G1 X205.992 Y137.997 E.06452
G1 X207.561 Y138.646 E.06453
G1 X209.096 Y139.468 E.06618
G1 X210.548 Y140.444 E.06649
G1 X210.668 Y140.483 E.0048
G1 X210.837 Y140.416 E.00691
G1 X213.3 Y137.954 E.13236
G1 X216.482 Y141.136 E.17103
G1 X214.019 Y143.598 E.13236
G1 X213.954 Y143.735 E.00576
G1 X213.991 Y143.887 E.00595
G1 X214.968 Y145.34 E.06655
G1 X215.79 Y146.875 E.06618
G1 X216.439 Y148.444 E.06453
G1 X216.93 Y150.069 E.06452
G1 X217.258 Y151.735 E.06453
G1 X217.342 Y151.932 E.00814
G1 X217.497 Y151.993 E.00633
G1 X220.979 Y151.993 E.13234
G1 X220.979 Y154.243 E.08551
G1 X220.979 Y156.493 E.08551
G1 X217.497 Y156.493 E.13234
G1 X217.366 Y156.533 E.00521
G1 X217.272 Y156.677 E.00654
G1 X216.936 Y158.394 E.06649
G1 X216.431 Y160.061 E.0662
G1 X215.781 Y161.63 E.06455
G1 X214.979 Y163.126 E.06451
G1 X214.201 Y164.285 E.05305
G1 X213.953 Y164.705 E.01854
G1 X214.019 Y164.887 E.00736
G1 X216.482 Y167.349 E.13236
G1 X213.3 Y170.531 E.17103
G1 X210.837 Y168.069 E.13236
G1 X210.701 Y168.003 E.00575
G1 X210.548 Y168.041 E.00599
G1 X209.096 Y169.017 E.06649
G1 X207.561 Y169.839 E.06618
G1 X205.992 Y170.488 E.06453
G1 X204.367 Y170.979 E.06452
G1 X202.627 Y171.322 E.0674
G1 X202.497 Y171.399 E.00574
G1 X202.443 Y171.546 E.00595
G1 X202.443 Y175.028 E.13234
G1 X197.943 Y175.028 E.17103
G1 X197.943 Y171.546 E.13234
G1 X197.908 Y171.424 E.00482
G1 X197.761 Y171.322 E.0068
G1 X196.041 Y170.985 E.06661
G1 X194.374 Y170.481 E.06619
G1 X192.806 Y169.83 E.06453
G1 X191.31 Y169.028 E.06451
G1 X189.838 Y168.041 E.06736
G1 X189.715 Y168.002 E.0049
G1 X189.549 Y168.069 E.0068
G1 X187.086 Y170.531 E.13236
G1 X183.905 Y167.349 E.171
G1 X186.367 Y164.887 E.13233
G1 X186.411 Y164.798 E.00377
M204 S1000
G1 E-1.6 F2100
;WIPE_START
G1 F9600
G1 X186.428 Y164.743 E-.01196
G1 X186.395 Y164.598 E-.0309
G1 X185.436 Y163.172 E-.35714
;WIPE_END
G1 X201.78 Y134.786 Z.772 F12000
G1 Z.2 F720
M73 P2 R20
G1 E2 F1500
M204 S600
;TYPE:Solid infill
;WIDTH:0.500775
G1 F1200
G1 X201.32 Y134.325 E.02479
G1 X200.672 Y134.325 E.02467
G1 X201.575 Y135.228 E.04862
G1 X201.575 Y135.875 E.02463
G1 X200.025 Y134.325 E.08345
G1 X199.377 Y134.325 E.02467
G1 X201.78 Y136.728 E.12938
M204 S1000
G1 E-1.6 F2100
;WIPE_START
G1 F9600
G1 X200.419 Y135.367 E-.4
;WIPE_END
G1 X213.154 Y139.037 Z.431 F12000
G1 Z.2 F720
G1 E2 F1500
M204 S600
G1 F1200
G1 X215.253 Y141.136 E.11301
G1 X214.93 Y141.461 E.01744
G1 X212.975 Y139.506 E.10526
G1 X212.651 Y139.829 E.01742
G1 X214.607 Y141.785 E.10531
G1 X214.283 Y142.109 E.01744
G1 X212.327 Y140.152 E.10534
G1 X212.003 Y140.476 E.01744
G1 X213.96 Y142.433 E.10537
G1 X213.637 Y142.757 E.01742
G1 X211.679 Y140.799 E.10542
G1 X211.35 Y141.118 E.01745
G1 X213.318 Y143.086 E.10596
G1 X213.229 Y143.214 E.00594
G1 X213.13 Y143.441 E.00943
G1 X213.113 Y143.528 E.00337
G1 X210.907 Y141.323 E.11874
G1 X210.795 Y141.346 E.00435
G1 X210.634 Y141.351 E.00613
G1 X210.417 Y141.322 E.00833
G1 X210.224 Y141.255 E.00778
G1 X210.151 Y141.215 E.00317
G1 X213.229 Y144.292 E.16569
G1 X213.264 Y144.362 E.00298
G1 X214.223 Y145.788 E.06542
G1 X214.39 Y146.101 E.01351
G1 X208.335 Y140.046 E.326
G1 X207.189 Y139.432 E.0495
G1 X206.993 Y139.351 E.00807
G1 X215.085 Y147.443 E.43568
G1 X215.542 Y148.548 E.04552
G1 X205.888 Y138.894 E.51977
G1 X205.699 Y138.816 E.00778
G1 X204.93 Y138.583 E.03059
G1 X215.852 Y149.505 E.58804
G1 X216.086 Y150.279 E.03078
G1 X216.113 Y150.414 E.00524
G1 X204.023 Y138.323 E.65096
G1 X203.216 Y138.165 E.03131
M73 P3 R20
G1 X216.538 Y151.487 E.71726
M204 S1000
G1 E-1.6 F2100
;WIPE_START
G1 F9600
G1 X215.177 Y150.126 E-.4
;WIPE_END
G1 X220.316 Y153.321 Z.306 F12000
G1 Z.2 F720
G1 E2 F1500
M204 S600
G1 F1200
G1 X219.855 Y152.861 E.02479
G1 X219.208 Y152.861 E.02463
G1 X220.11 Y153.763 E.04856
G1 X220.11 Y154.411 E.02467
G1 X218.56 Y152.861 E.08345
G1 X217.913 Y152.861 E.02463
G1 X220.11 Y155.058 E.11829
