; generated by PrusaSlicer 2.9.3 on 2025-10-29 at 19:49:16 UTC


;
;

;
;

;
;

;
;

;
;
; 

; external perimeters extrusion width = 0.45mm
; perimeters extrusion width = 0.45mm
; infill extrusion width = 0.45mm
; solid infill extrusion width = 0.45mm
; top infill extrusion width = 0.42mm
; support material extrusion width = 0.37mm
; first layer extrusion width = 0.50mm

M73 P0 R22

EXCLUDE_OBJECT_DEFINE NAME='adxl345_mount_for_nema17_(1)_stl' CENTER=125.000,98.066 POLYGON=[[147.998,89.586],[147.998,120.413],[139.912,128.499],[138.003,128.499],[138.003,126.503],[139.848,126.503],[146.003,120.348],[146.003,90.652],[139.848,84.498],[110.152,84.498],[103.997,90.652],[103.997,120.348],[110.152,126.503],[111.997,126.503],[111.997,128.499],[110.088,128.499],[102.002,120.413],[102.002,89.586],[110.088,81.500],[139.912,81.500]]

;TYPE:Custom
G90 ; use absolute coordinates
M83 ; extruder relative mode
M104 S170 ; preheat hotend to 170
M140 S85 ; set bed temp
M190 S85 ; wait for bed temp
G28 ; home all
;G29 ; mesh bed leveling
BED_MESH_CALIBRATE
G0 X0 Z0.6 Y-3.0 F1000.0 ; go outside print area for intro line
M104 S225 ; set hotend temp
M109 S225 ; wait for hotend temp
;M104 S0 ; Stops PS/SS from sending temp waits separately
;M140 S0
;PRINT_START BED=85 HOTEND=225
G92 E0.0
G1 X60.0 E9.0 F1000.0 ; intro line
G1 X100.0 E12.5 F1000.0 ; intro line
G92 E0.0
SKEW_PROFILE LOAD=CaliFlower

; KLIPPER_PLR
G31
save_last_file
SAVE_VARIABLE VARIABLE=was_interrupted VALUE=True
G21 ; set units to millimeters
G90 ; use absolute coordinates
M83 ; use relative distances for extrusion
M900 K0.07 ; Filament gcode



M142 S36 ; set heatbreak target temp
M107
;LAYER_CHANGE
;Z:0.25
;HEIGHT:0.25
G1 E-.8 F2100
G1 Z1.75 F720
EXCLUDE_OBJECT_START NAME='adxl345_mount_for_nema17_(1)_stl'
G1 X111.161 Y127.664 F12000
G1 Z.25 F720
G1 E.8 F1500
M204 S600
;TYPE:Perimeter
;WIDTH:0.378476
G1 F1200
G1 X110.434 Y127.664 E.02454
G1 X110.109 Y127.339 E.01552
G1 X111.161 Y127.339 E.03552
G1 X111.161 Y127.604 E.00895
M204 S1000
G1 E-.16 F2100
;WIPE_START
G1 F9600
G1 X111.161 Y127.664 E-.01247
G1 X110.434 Y127.664 E-.15108
G1 X110.109 Y127.339 E-.09551
G1 X111.161 Y127.339 E-.21862
G1 X111.161 Y127.604 E-.05507
;WIPE_END
G1 E-.10725 F2100
G1 X138.839 Y127.339 Z.733 F12000
G1 Z.25 F720
G1 E.8 F1500
M204 S600
G1 F1200
G1 X139.891 Y127.339 E.03552
G1 X139.566 Y127.664 E.01552
G1 X138.839 Y127.664 E.02454
G1 X138.839 Y127.399 E.00895
M204 S1000
G1 E-.16 F2100
;WIPE_START
G1 F9600
G1 X138.839 Y127.339 E-.01247
G1 X139.891 Y127.339 E-.21862
G1 X139.566 Y127.664 E-.09551
G1 X138.839 Y127.664 E-.15108
G1 X138.839 Y127.399 E-.05507
;WIPE_END
G1 E-.10725 F2100
G1 X139.749 Y83.188 Z1.022 F12000
G1 Z.25 F720
G1 E.8 F1500
M204 S600
;WIDTH:0.432625
G1 F1200
G1 X110.251 Y83.188 E1.16192
G1 X110.63 Y82.81 E.02108
G1 X139.37 Y82.81 E1.13206
G1 X139.706 Y83.146 E.01872
M204 S1000
G1 E-.16 F2100
;WIPE_START
G1 F9600
G1 X139.749 Y83.188 E-.01249
G1 X136.729 Y83.188 E-.62751
;WIPE_END
G1 X146.838 Y120.392 Z.923 F12000
G1 Z.25 F720
G1 E.8 F1500
M204 S600
;WIDTH:0.377975
G1 F1200
G1 X146.838 Y90.559 E1.00566
;WIDTH:0.422209
G1 X146.793 Y90.36 E.00782
M73 P1 R22
;WIDTH:0.466442
G1 X146.748 Y90.162 E.00871
G1 X146.69 Y90.098 E.00371
;WIDTH:0.462703
G1 X140.402 Y83.81 E.37808
;WIDTH:0.469183
G1 X140.318 Y83.735 E.00486
;WIDTH:0.499999
G1 X139.942 Y83.601 E.01852
G1 X110.058 Y83.601 E1.3864
G1 X109.598 Y83.81 E.02344
;WIDTH:0.462704
G1 X103.31 Y90.098 E.37808
;WIDTH:0.466443
G1 X103.252 Y90.162 E.00371
G1 X103.207 Y90.36 E.00871
;WIDTH:0.42221
G1 X103.162 Y90.559 E.00782
;WIDTH:0.377976
G1 X103.162 Y120.392 E1.00566
G1 X102.837 Y120.067 E.01549
G1 X102.837 Y90.559 E.99471
;WIDTH:0.42221
G1 X102.859 Y90.255 E.01168
;WIDTH:0.466443
G1 X102.882 Y89.951 E.01308
G1 X103.021 Y89.809 E.00853
;WIDTH:0.462704
G1 X109.309 Y83.521 E.37808
;WIDTH:0.499999
G1 X110.459 Y82.397 E.0746
G1 X139.541 Y82.397 E1.34919
G1 X140.691 Y83.521 E.0746
;WIDTH:0.462703
G1 X146.979 Y89.809 E.37808
;WIDTH:0.466442
G1 X147.118 Y89.951 E.00853
G1 X147.118 Y90.036 E.00365
G1 X147.141 Y90.297 E.01124
;WIDTH:0.422209
G1 X147.163 Y90.559 E.01007
;WIDTH:0.377975
G1 X147.163 Y120.067 E.9947
G1 X146.881 Y120.349 E.01344
M204 S1000
G1 E-.16 F2100
;WIPE_START
G1 F9600
G1 X146.838 Y120.392 E-.01264
G1 X146.838 Y117.373 E-.62736
;WIPE_END
G1 X138.453 Y126.953 Z.472 F12000
G1 Z.25 F720
G1 E.8 F1500
M204 S600
;TYPE:External perimeter
;WIDTH:0.499999
G1 F1200
G1 X139.942 Y126.953 E.06908
;WIDTH:0.527573
G1 X140.031 Y126.931 E.00452
;WIDTH:0.555146
G1 X140.119 Y126.908 E.00474
G1 X146.407 Y120.62 E.46352
;WIDTH:0.558945
G1 X146.437 Y120.588 E.0023
G1 X146.445 Y120.294 E.01545
;WIDTH:0.529472
G1 X146.453 Y120 E.01455
;WIDTH:0.499999
G1 X146.453 Y90.559 E1.36584
G1 X146.388 Y90.401 E.00793
G1 X140.1 Y84.113 E.41255
G1 X139.942 Y84.048 E.00793
G1 X110.058 Y84.048 E1.3864
G1 X109.9 Y84.113 E.00793
M73 P2 R22
G1 X103.612 Y90.401 E.41255
G1 X103.547 Y90.559 E.00793
G1 X103.547 Y120.442 E1.38635
;WIDTH:0.527572
G1 X103.57 Y120.531 E.00453
;WIDTH:0.555145
G1 X103.593 Y120.62 E.00479
G1 X109.881 Y126.908 E.46352
;WIDTH:0.558946
G1 X109.913 Y126.937 E.00227
G1 X110.207 Y126.945 E.01545
;WIDTH:0.529473
G1 X110.501 Y126.953 E.01455
;WIDTH:0.499999
G1 X111.547 Y126.953 E.04853
G1 X111.547 Y128.05 E.05089
G1 X110.274 Y128.05 E.05906
G1 X110.114 Y127.889 E.01053
;WIDTH:0.527572
G1 X109.82 Y127.576 E.02115
;WIDTH:0.555145
G1 X109.526 Y127.262 E.02242
G1 X103.238 Y120.974 E.46352
G1 X103.082 Y120.837 E.01082
;WIDTH:0.527572
G1 X102.925 Y120.7 E.01026
;WIDTH:0.499999
G1 X102.452 Y120.227 E.03103
G1 X102.452 Y89.773 E1.41284
G1 X110.274 Y81.951 E.51319
G1 X139.726 Y81.951 E1.36635
G1 X147.548 Y89.773 E.51319
G1 X147.548 Y90.036 E.0122
G1 X147.548 Y120.227 E1.40064
G1 X147.388 Y120.387 E.0105
;WIDTH:0.527572
G1 X147.075 Y120.681 E.02115
;WIDTH:0.555146
G1 X146.762 Y120.974 E.02235
G1 X140.474 Y127.262 E.46352
G1 X140.337 Y127.419 E.01086
;WIDTH:0.527573
G1 X140.2 Y127.576 E.01026
;WIDTH:0.499999
G1 X139.726 Y128.05 E.0311
G1 X138.453 Y128.05 E.05906
G1 X138.453 Y127.014 E.04806
M204 S1000
;LAYER_CHANGE
;Z:0.45
;HEIGHT:0.2
;BEFORE_LAYER_CHANGE
G92 E0.0
;0.45

; KLIPPER_PLR
LOG_Z
G1 E-.16 F2100
;WIPE_START
G1 F9600
G1 X138.453 Y126.953 E-.01268
G1 X139.942 Y126.953 E-.30943
G1 X140.031 Y126.931 E-.01905
G1 X140.119 Y126.908 E-.0189
G1 X141.072 Y125.955 E-.27994
;WIPE_END
G1 X141.072 Y125.955 Z.25 F12000
G1 X103 Y120 Z.923
;AFTER_LAYER_CHANGE
;0.45
;@SNAPSHOT
G1 Z.45 F720
G1 E.8 F1500
;TYPE:Perimeter
;WIDTH:0.366684
G1 F2100
G1 X103 Y90.644 E.7903
;WIDTH:0.413574
G1 F2065.969
G1 X103.023 Y90.492 E.00474
;WIDTH:0.460463
G1 F2060.428
G1 X103.046 Y90.341 E.0053
;WIDTH:0.507353
G1 F2055.823
G1 X103.07 Y90.19 E.0059
;WIDTH:0.554242
G1 F2052.056
G1 X103.093 Y90.039 E.00649
G1 F2051.02
G1 X103.225 Y89.894 E.00834
;WIDTH:0.536138
G1 X109.393 Y83.726 E.35774
G1 E-.16 F2100
;WIPE_START
G1 F9600
G1 X107.215 Y85.904 E-.64
;WIPE_END
G1 X140.607 Y83.726 Z1.034 F12000
G1 Z.45 F720
G1 E.8 F1500
;WIDTH:0.536136
G1 F3776.873
G1 X140.232 Y83.592 E.01633
;WIDTH:0.493068
G1 F3766.785
G1 X139.857 Y83.458 E.01491
;WIDTH:0.449999
G1 F3873.043
G1 X110.143 Y83.458 E1.00578
;WIDTH:0.493068
G1 F3678.534
G1 X109.768 Y83.592 E.01491
;WIDTH:0.536136
G1 F3609.081
G1 X109.393 Y83.726 E.01633
G1 F3583.112
G1 X109.689 Y83.4 E.01806
;WIDTH:0.493068
G1 F3596.84
G1 X109.984 Y83.074 E.01646
;WIDTH:0.449999
G1 F3616.409
G1 X110.518 Y82.54 E.02556
G1 X139.482 Y82.54 E.9804
G1 F3595.843
G1 X140.016 Y83.074 E.02556
;WIDTH:0.493068
G1 F3690.791
G1 X140.312 Y83.4 E.01648
;WIDTH:0.536136
G1 F3756.888
G1 X140.567 Y83.682 E.01559
G1 X140.607 Y83.726 F12000
G1 F2100
G1 X146.775 Y89.894 E.35773
;WIDTH:0.554244
G1 F2047.416
M73 P3 R22
G1 X146.907 Y90.039 E.00834
G1 F2045.703
G1 X146.93 Y90.19 E.00649
;WIDTH:0.507354
G1 F2047.616
G1 X146.954 Y90.341 E.0059
;WIDTH:0.460464
G1 F2050.482
G1 X146.977 Y90.492 E.0053
;WIDTH:0.413574
G1 F2053.436
G1 X147.001 Y90.644 E.00474
;WIDTH:0.366684
G1 F2061.413
G1 X147.001 Y120 E.7903
G1 X146.608 Y120.766 F12000
;WIDTH:0.653194
G1 F3314.506
G1 X146.613 Y120.685 E.00412
;WIDTH:0.612555
G1 F3341.779
G1 X146.619 Y120.603 E.00389
;WIDTH:0.571916
G1 F3372.405
G1 X146.624 Y120.521 E.00361
;WIDTH:0.531277
G1 F3407.026
G1 X146.63 Y120.439 E.00334
;WIDTH:0.490638
G1 F3446.449
G1 X146.635 Y120.357 E.00306
;WIDTH:0.449999
G1 F3762.096
G1 X146.635 Y90.644 E1.00575
G1 F3702.978
G1 X146.528 Y90.298 E.01226
G1 F3712.879
G1 X146.456 Y90.212 E.0038
G1 F4200
G1 X140.289 Y84.044 E.29523
G1 F3915.758
G1 X139.857 Y83.865 E.01583
G1 F3962.165
G1 X110.143 Y83.865 E1.00578
G1 F3786.329
G1 X109.711 Y84.044 E.01583
G1 F3762.145
G1 X103.476 Y90.293 E.2988
G1 F3787.552
G1 X103.365 Y90.644 E.01246
G1 F4200
G1 X103.365 Y120.357 E1.00575
;WIDTH:0.49812
G1 F3468.966
G1 X103.393 Y120.482 E.00485
;WIDTH:0.546241
G1 F3424.04
G1 X103.42 Y120.607 E.00535
;WIDTH:0.594362
G1 F3385.357
G1 X103.448 Y120.732 E.00587
;WIDTH:0.642482
G1 F3351.728
G1 X103.476 Y120.857 E.00639
G1 F3338.299
G1 X103.355 Y120.771 E.0074
;WIDTH:0.594362
G1 F3342.293
G1 X103.235 Y120.684 E.0068
;WIDTH:0.546241
G1 F3346.979
G1 X103.114 Y120.598 E.00621
;WIDTH:0.49812
G1 F3352.554
G1 X102.994 Y120.511 E.00561
;WIDTH:0.449999
G1 F3364.216
G1 X102.634 Y120.152 E.01721
G1 F4200
G1 X102.634 Y89.848 E1.02575
G1 F3480.382
G1 X110.35 Y82.133 E.36934
G1 X139.65 Y82.133 E.99177
G1 F4200
G1 X147.366 Y89.848 E.36934
G1 F3551.021
G1 X147.366 Y120.152 E1.02575
G1 F3330.748
G1 X147.006 Y120.511 E.01721
;WIDTH:0.490638
G1 F3320.353
G1 X146.927 Y120.562 E.0035
;WIDTH:0.531277
G1 F3315.191
G1 X146.847 Y120.613 E.00385
;WIDTH:0.571916
G1 F3310.751
G1 X146.767 Y120.664 E.00417
;WIDTH:0.612555
G1 F3306.892
G1 X146.687 Y120.715 E.00449
;WIDTH:0.653194
G1 F3303.505
G1 X146.658 Y120.734 E.00176
G1 E-.16 F2100
;WIPE_START
G1 F9600
G1 X146.608 Y120.766 E-.01234
G1 X146.613 Y120.685 E-.01686
G1 X146.619 Y120.603 E-.01709
G1 X146.624 Y120.521 E-.01707
G1 X146.63 Y120.439 E-.01709
G1 X146.635 Y120.357 E-.01707
G1 X146.635 Y117.747 E-.54248
;WIPE_END
G1 X139.499 Y127.502 Z.661 F12000
G1 Z.45 F720
G1 E.8 F1500
;WIDTH:0.367686
G1 F2049.907
G1 X139.001 Y127.502 E.01345
G1 X138.635 Y127.136 F12000
;WIDTH:0.449999
G1 F2035.065
G1 X139.499 Y127.136 E.02925
;WIDTH:0.490638
G1 F2030.813
G1 X139.652 Y127.13 E.0057
;WIDTH:0.531276
G1 F2027.454
G1 X139.806 Y127.125 E.00626
;WIDTH:0.571914
G1 F2025.881
G1 X139.959 Y127.119 E.00674
;WIDTH:0.612552
G1 F2026
G1 X140.112 Y127.114 E.00725
;WIDTH:0.65319
G1 X140.266 Y127.108 E.00782
G1 F2027.95
G1 X140.215 Y127.188 E.00481
;WIDTH:0.612552
G1 F2029.492
G1 X140.164 Y127.268 E.00449
;WIDTH:0.571914
G1 X140.113 Y127.347 E.00414
;WIDTH:0.531276
G1 F2030.147
G1 X140.062 Y127.427 E.00385
;WIDTH:0.490638
G1 X140.011 Y127.507 E.00353
;WIDTH:0.449999
G1 F2031.375
G1 X139.65 Y127.867 E.01726
G1 F2033.562
G1 X138.635 Y127.867 E.03436
G1 X138.635 Y127.196 E.02271
G1 E-.16 F2100
;WIPE_START
G1 F9600
G1 X138.635 Y127.136 E-.01247
G1 X139.499 Y127.136 E-.17955
G1 X139.652 Y127.13 E-.03182
G1 X139.806 Y127.125 E-.03202
G1 X139.959 Y127.119 E-.03182
G1 X140.112 Y127.114 E-.03181
G1 X140.266 Y127.108 E-.03203
G1 X140.215 Y127.188 E-.01972
G1 X140.164 Y127.268 E-.01972
G1 X140.113 Y127.347 E-.01954
G1 X140.062 Y127.427 E-.01972
G1 X140.011 Y127.507 E-.01972
G1 X139.65 Y127.867 E-.10595
G1 X139.245 Y127.867 E-.08411
;WIPE_END
G1 X146.608 Y120.766 Z.629 F12000
G1 Z.45 F720
G1 E.8 F1500
;WIDTH:0.653194
G1 F2029.4
G1 X146.524 Y120.857 E.00628
;WIDTH:0.64248
G1 X140.357 Y127.025 E.43483
;WIDTH:0.65319
G1 F2027.198
G1 X140.266 Y127.108 E.00625
G1 E-.16 F2100
;WIPE_START
G1 F9600
G1 X140.357 Y127.025 E-.0256
G1 X142.448 Y124.934 E-.6144
;WIPE_END
G1 X110.501 Y127.502 Z1.009 F12000
G1 Z.45 F720
G1 E.8 F1500
;WIDTH:0.367686
G1 F2050.588
G1 X110.999 Y127.502 E.01345
G1 X111.365 Y127.867 F12000
;WIDTH:0.449999
G1 F2034.039
G1 X110.35 Y127.867 E.03436
G1 X109.989 Y127.507 E.01726
;WIDTH:0.490639
G1 F2033.228
G1 X109.938 Y127.427 E.00353
;WIDTH:0.531278
G1 F2032.836
G1 X109.887 Y127.347 E.00385
;WIDTH:0.571918
G1 X109.836 Y127.268 E.00414
;WIDTH:0.612557
G1 X109.785 Y127.188 E.00449
;WIDTH:0.653196
G1 F2030.042
G1 X109.734 Y127.108 E.00481
G1 F2029.104
G1 X109.816 Y127.114 E.00417
;WIDTH:0.612557
G1 X109.898 Y127.119 E.00389
;WIDTH:0.571918
G1 X109.98 Y127.125 E.00362
;WIDTH:0.531278
G1 X110.061 Y127.13 E.0033
;WIDTH:0.490639
G1 F2030.169
G1 X110.143 Y127.136 E.00306
;WIDTH:0.449999
G1 F2035.679
G1 X111.365 Y127.136 E.04136
G1 F2034.039
G1 X111.365 Y127.807 E.02271
G1 E-.16 F2100
;WIPE_START
G1 F9600
G1 X111.365 Y127.867 E-.01247
G1 X110.35 Y127.867 E-.21093
G1 X109.989 Y127.507 E-.10595
G1 X109.938 Y127.427 E-.01972
G1 X109.887 Y127.347 E-.01972
G1 X109.836 Y127.268 E-.01954
G1 X109.785 Y127.188 E-.01972
G1 X109.734 Y127.108 E-.01972
G1 X109.816 Y127.114 E-.01709
G1 X109.898 Y127.119 E-.01707
G1 X109.98 Y127.125 E-.01709
G1 X110.061 Y127.13 E-.01686
G1 X110.143 Y127.136 E-.01709
G1 X110.754 Y127.136 E-.12703
;WIPE_END
G1 X109.734 Y127.108 Z.468 F12000
G1 Z.45 F720
G1 E.8 F1500
;WIDTH:0.653196
G1 F2029.313
G1 X109.643 Y127.025 E.00625
;WIDTH:0.642482
G1 F2032.246
G1 X103.476 Y120.857 E.43483
G1 E-.16 F2100
;WIPE_START
G1 F9600
G1 X105.654 Y123.035 E-.64
;WIPE_END
G1 X138.228 Y126.728 Z1.022 F12000
G1 Z.45 F720
G1 E.8 F1500
M204 S800
;TYPE:External perimeter
;WIDTH:0.449999
G1 F2190.683
G1 X139.857 Y126.728 E.05514
G1 F2172.011
G1 X140.001 Y126.669 E.00527
G1 F2204.919
G1 X140.478 Y126.192 E.02283
G1 F2207.65
G1 X146.168 Y120.501 E.2724
G1 F2234.501
G1 X146.228 Y120.357 E.00528
G1 F2262.954
G1 X146.228 Y119.683 E.02281
G1 F2328.783
G1 X146.228 Y91.318 E.96012
G1 F2324.428
G1 X146.228 Y90.644 E.02281
G1 F2318.994
G1 X146.168 Y90.5 E.00528
G1 F2330.062
G1 X145.691 Y90.023 E.02283
G1 F2400
G1 X140.478 Y84.809 E.24957
G1 F2366.905
G1 X140.001 Y84.332 E.02283
G1 F2355.947
G1 X139.857 Y84.273 E.00527
G1 X139.182 Y84.273 E.02285
G1 F2365.713
G1 X110.818 Y84.273 E.96009
G1 F2344.048
G1 X110.143 Y84.273 E.02285
G1 F2331.322
G1 X109.999 Y84.332 E.00527
G1 X103.832 Y90.5 E.29523
G1 X103.772 Y90.644 E.00528
G1 F2344.105
G1 X103.772 Y91.318 E.02281
G1 F2399.997
G1 X103.772 Y119.683 E.96012
G1 F2292.77
G1 X103.772 Y120.357 E.02281
G1 F2273.998
G1 X103.832 Y120.501 E.00528
G1 F2271.82
G1 X109.522 Y126.192 E.2724
G1 F2204.966
G1 X109.999 Y126.669 E.02283
G1 F2178.631
G1 X110.143 Y126.728 E.00527
G1 F2192.661
G1 X111.772 Y126.728 E.05514
G1 F2187.376
G1 X111.772 Y128.275 E.05236
G1 X110.181 Y128.275 E.05385
G1 X102.227 Y120.32 E.38078
G1 F2205.072
G1 X102.227 Y119.645 E.02285
G1 F2399.997
G1 X102.227 Y90.355 E.99143
G1 F2258.039
G1 X102.227 Y89.68 E.02285
G1 F2216.867
G1 X110.181 Y81.726 E.38075
G1 F2205.075
G1 X110.856 Y81.726 E.02285
G1 F2217.965
G1 X139.144 Y81.726 E.95751
G1 F2221.686
M73 P4 R22
G1 X139.819 Y81.726 E.02285
G1 F2205.073
G1 X140.296 Y82.203 E.02283
G1 F2399.998
G1 X147.296 Y89.202 E.33506
G1 F2226.583
G1 X147.773 Y89.68 E.02286
G1 F2197.321
G1 X147.773 Y90.355 E.02285
G1 F2234.844
G1 X147.773 Y119.645 E.99143
G1 F2221.689
M73 P4 R21
G1 X147.773 Y120.32 E.02285
G1 F2178.787
G1 X139.819 Y128.275 E.38078
G1 F2185.836
G1 X138.228 Y128.275 E.05385
G1 X138.228 Y126.788 E.05033
M204 S1000
G1 E-.16 F2100
;WIPE_START
G1 F9600
G1 X138.228 Y126.728 E-.01247
G1 X139.857 Y126.728 E-.33853
G1 X140.001 Y126.669 E-.03234
G1 X140.478 Y126.192 E-.14019
G1 X140.874 Y125.796 E-.11647
;WIPE_END
G1 X110.709 Y82.999 Z1.364 F12000
G1 Z.45 F720
G1 E.8 F1500
M204 S1500
;TYPE:Solid infill
;WIDTH:0.63594
G1 F6070.621
G1 X139.291 Y82.999 E1.40937
M204 S1000
;LAYER_CHANGE
;Z:0.65
;HEIGHT:0.2
;BEFORE_LAYER_CHANGE
G92 E0.0
;0.65

; KLIPPER_PLR
LOG_Z
G1 E-.16 F2100
;WIPE_START
G1 F9600
G1 X136.211 Y82.999 E-.64
;WIPE_END
G1 X136.211 Y82.999 Z.45 F12000
G1 X103 Y120 Z1.318
;AFTER_LAYER_CHANGE
;0.65
;@SNAPSHOT
G1 Z.65 F720
G1 E.8 F1500
;TYPE:Perimeter
;WIDTH:0.366684
G1 F2100
G1 X103 Y90.644 E.7903
;WIDTH:0.413574
G1 X103.023 Y90.492 E.00474
;WIDTH:0.460463
G1 X103.046 Y90.341 E.0053
;WIDTH:0.507353
G1 X103.07 Y90.19 E.0059
;WIDTH:0.554242
G1 X103.093 Y90.039 E.00649
