; generated by PrusaSlicer 2.9.3 on 2025-09-28 at 19:38:35 UTC


;
;

;
;

;
;

;
;

;
;
; 

; external perimeters extrusion width = 0.45mm
; perimeters extrusion width = 0.45mm
; infill extrusion width = 0.45mm
; solid infill extrusion width = 0.45mm
; top infill extrusion width = 0.40mm
; first layer extrusion width = 0.50mm

M73 P0 R17

EXCLUDE_OBJECT_DEFINE NAME='Voron_Design_Cube_v8_STL' CENTER=200.145,55.825 POLYGON=[[207.645,63.325],[192.645,63.325],[192.645,48.325],[207.645,48.325]]

;TYPE:Custom
G90 ; use absolute coordinates
M83 ; extruder relative mode
M104 S170 ; preheat hotend to 170
M140 S60 ; set bed temp
M190 S60 ; wait for bed temp
G28 ; home all
G29 ; mesh bed leveling
G0 X0 Z0.6 Y-3.0 F1000.0 ; go outside print area for intro line
M104 S200 ; set hotend temp
M109 S200 ; wait for hotend temp
;M104 S0 ; Stops PS/SS from sending temp waits separately
;M140 S0
;PRINT_START BED=60 HOTEND=200
G92 E0.0
G1 X60.0 E9.0 F1000.0 ; intro line
G1 X100.0 E12.5 F1000.0 ; intro line
G92 E0.0
G21 ; set units to millimeters
G90 ; use absolute coordinates
M83 ; use relative distances for extrusion
M900 K0.05 ; Filament gcode



M142 S36 ; set heatbreak target temp
M107
;LAYER_CHANGE
;Z:0.2
;HEIGHT:0.2
G1 E-2 F2100
M73 P0 R16
G1 Z.8 F720
EXCLUDE_OBJECT_START NAME='Voron_Design_Cube_v8_STL'
G1 X204.634 Y56.226 F12000
G1 Z.2 F720
G1 E2 F1500
M204 S600
;TYPE:Perimeter
;WIDTH:0.499999
G1 F1200
G1 X204.604 Y56.621 E.01506
G1 X204.369 Y57.46 E.03311
G1 X203.979 Y58.236 E.03301
G1 X203.423 Y58.95 E.03439
G1 X202.734 Y59.541 E.0345
G1 X201.975 Y59.968 E.0331
G1 X201.151 Y60.241 E.03299
G1 X200.253 Y60.353 E.03439
G1 X199.348 Y60.283 E.0345
G1 X198.509 Y60.048 E.03311
G1 X197.703 Y59.639 E.03435
G1 X197.018 Y59.101 E.0331
G1 X196.429 Y58.414 E.03439
G1 X196.002 Y57.655 E.0331
G1 X195.721 Y56.795 E.03439
G1 X195.613 Y55.858 E.03585
G1 X195.687 Y55.028 E.03167
G1 X195.921 Y54.189 E.0331
G1 X196.331 Y53.382 E.0344
G1 X196.869 Y52.697 E.0331
G1 X197.556 Y52.109 E.03437
G1 X198.315 Y51.681 E.03312
G1 X199.175 Y51.401 E.03437
G1 X200.04 Y51.296 E.03312
G1 X200.906 Y51.36 E.033
G1 X201.778 Y51.6 E.03437
G1 X202.557 Y51.991 E.03313
G1 X203.27 Y52.546 E.03434
G1 X203.861 Y53.235 E.0345
G1 X204.288 Y53.994 E.0331
G1 X204.561 Y54.819 E.03303
G1 X204.673 Y55.716 E.03436
G1 X204.638 Y56.167 E.01719
M204 S1000
G1 X204.183 Y56.181 F12000
M204 S600
;TYPE:External perimeter
G1 F1200
G1 X204.148 Y56.579 E.01518
G1 X203.931 Y57.331 E.02975
G1 X203.574 Y58.025 E.02966
G1 X203.067 Y58.664 E.031
G1 X202.442 Y59.189 E.03102
G1 X201.757 Y59.566 E.02972
G1 X201.013 Y59.805 E.0297
G1 X200.204 Y59.898 E.03095
G1 X199.39 Y59.828 E.03105
G1 X198.639 Y59.61 E.02972
G1 X197.916 Y59.234 E.03097
G1 X197.305 Y58.746 E.02972
G1 X196.781 Y58.122 E.03097
G1 X196.404 Y57.437 E.02972
G1 X196.158 Y56.659 E.03101
G1 X196.07 Y55.858 E.03063
G1 X196.142 Y55.07 E.03007
G1 X196.36 Y54.319 E.02972
G1 X196.735 Y53.595 E.03099
G1 X197.224 Y52.985 E.02971
G1 X197.848 Y52.46 E.03099
G1 X198.533 Y52.083 E.02972
G1 X199.31 Y51.837 E.03098
G1 X200.088 Y51.751 E.02975
G1 X200.866 Y51.815 E.02967
G1 X201.65 Y52.039 E.03099
G1 X202.346 Y52.396 E.02973
G1 X202.984 Y52.903 E.03097
G1 X203.51 Y53.528 E.03105
G1 X203.887 Y54.213 E.02972
G1 X204.125 Y54.956 E.02965
G1 X204.219 Y55.766 E.03099
G1 X204.188 Y56.121 E.01354
M204 S1000
G1 E-1.6 F2100
;WIPE_START
G1 F9600
G1 X204.183 Y56.181 E-.01251
G1 X204.148 Y56.579 E-.08303
G1 X203.931 Y57.331 E-.16265
G1 X203.619 Y57.938 E-.14181
;WIPE_END
G1 X206.938 Y51.518 Z.326 F12000
G1 Z.2 F720
M73 P1 R16
G1 E2 F1500
M204 S600
;TYPE:Perimeter
G1 F1200
G1 X206.938 Y52.223 E.02679
G1 X206.938 Y60.132 E.30059
G1 X204.452 Y62.618 E.13362
G1 X195.838 Y62.618 E.32739
G1 X193.352 Y60.132 E.13362
G1 X193.352 Y51.518 E.32739
G1 X195.838 Y49.032 E.13362
G1 X204.452 Y49.032 E.32739
G1 X206.896 Y51.475 E.13134
M204 S1000
G1 X207.395 Y51.328 F12000
M204 S600
;TYPE:External perimeter
G1 F1200
G1 X207.395 Y52.223 E.03402
G1 X207.395 Y60.321 E.30777
G1 X204.642 Y63.075 E.148
G1 X195.649 Y63.075 E.34179
G1 X192.895 Y60.321 E.14802
G1 X192.895 Y51.328 E.34179
G1 X195.649 Y48.575 E.148
G1 X204.642 Y48.575 E.34179
G1 X207.353 Y51.286 E.14571
M204 S1000
G1 X206.732 Y51.899 F12000
M204 S600
;TYPE:Solid infill
;WIDTH:0.507531
G1 F1200
G1 X204.276 Y49.443 E.13418
G1 X203.619 Y49.443 E.02538
G1 X206.527 Y52.35 E.15885
G1 X206.527 Y53.007 E.02538
G1 X202.962 Y49.443 E.19475
G1 X202.305 Y49.443 E.02538
G1 X206.527 Y53.664 E.23064
G1 X206.527 Y54.322 E.02542
G1 X201.648 Y49.443 E.26656
G1 X200.991 Y49.443 E.02538
G1 X206.527 Y54.979 E.30246
G1 X206.527 Y55.636 E.02538
G1 X204.603 Y53.712 E.10512
G1 X204.295 Y53.144 E.02496
G1 X204.208 Y53.01 E.00617
G1 X203.616 Y52.304 E.03559
G1 X202.92 Y51.738 E.03466
G1 X202.754 Y51.63 E.00765
G1 X202.267 Y51.376 E.02122
G1 X200.334 Y49.443 E.10561
G1 X199.677 Y49.443 E.02538
G1 X201.252 Y51.018 E.08605
G1 X200.951 Y50.951 E.01191
G1 X200.487 Y50.91 E.018
G1 X199.02 Y49.443 E.08015
G1 X198.363 Y49.443 E.02538
G1 X199.826 Y50.906 E.07993
G1 X199.232 Y50.97 E.02308
G1 X197.706 Y49.443 E.0834
G1 X197.049 Y49.443 E.02538
G1 X198.72 Y51.115 E.09132
G1 X198.309 Y51.239 E.01658
G1 X198.223 Y51.275 E.0036
G1 X196.392 Y49.443 E.10006
G1 X196.008 Y49.443 E.01483
G1 X195.871 Y49.58 E.00748
G1 X197.79 Y51.498 E.10482
G1 X197.37 Y51.736 E.01865
G1 X195.543 Y49.908 E.09984
G1 X195.214 Y50.237 E.01797
G1 X197.009 Y52.031 E.09804
G1 X196.651 Y52.331 E.01804
G1 X194.886 Y50.566 E.09643
G1 X194.557 Y50.894 E.01795
G1 X196.351 Y52.687 E.09799
G1 X196.057 Y53.051 E.01808
G1 X194.229 Y51.223 E.09987
G1 X193.9 Y51.551 E.01795
G1 X195.82 Y53.47 E.10487
G1 X195.595 Y53.903 E.01885
G1 X193.764 Y52.071 E.10006
G1 X193.764 Y52.728 E.02538
G1 X195.431 Y54.396 E.0911
G1 X195.315 Y54.788 E.01579
G1 X195.291 Y54.913 E.00492
G1 X193.764 Y53.385 E.08345
G1 X193.764 Y54.043 E.02542
M73 P2 R16
G1 X195.231 Y55.51 E.08015
G1 X195.201 Y55.859 E.01353
G1 X195.232 Y56.169 E.01204
G1 X193.764 Y54.7 E.08023
G1 X193.764 Y55.357 E.02538
G1 X195.647 Y57.24 E.10288
M204 S1000
G1 E-1.6 F2100
;WIPE_START
G1 F9600
G1 X194.286 Y55.879 E-.4
;WIPE_END
G1 X204.65 Y54.416 Z.383 F12000
G1 Z.2 F720
G1 E2 F1500
M204 S600
G1 F1200
G1 X206.527 Y56.293 E.10255
G1 X206.527 Y56.95 E.02538
G1 X205.057 Y55.48 E.08031
G1 X205.089 Y55.79 E.01204
G1 X205.058 Y56.138 E.0135
G1 X206.527 Y57.607 E.08026
G1 X206.527 Y58.264 E.02538
G1 X205.003 Y56.74 E.08326
G1 X204.857 Y57.252 E.02057
G1 X206.527 Y58.921 E.09121
G1 X206.527 Y59.578 E.02538
G1 X204.696 Y57.747 E.10004
G1 X204.472 Y58.18 E.01883
G1 X206.39 Y60.098 E.10479
G1 X206.061 Y60.427 E.01797
G1 X204.233 Y58.598 E.0999
G1 X203.938 Y58.961 E.01807
G1 X205.733 Y60.755 E.09804
G1 X205.404 Y61.084 E.01797
G1 X203.639 Y59.319 E.09643
G1 X203.281 Y59.618 E.01802
G1 X205.076 Y61.412 E.09804
G1 X204.747 Y61.741 E.01797
G1 X202.92 Y59.913 E.09984
G1 X202.5 Y60.151 E.01865
G1 X204.419 Y62.069 E.10482
G1 X204.282 Y62.206 E.00748
G1 X203.898 Y62.206 E.01483
G1 X202.067 Y60.375 E.10004
G1 X201.571 Y60.536 E.02015
G1 X203.241 Y62.206 E.09124
G1 X202.584 Y62.206 E.02538
G1 X201.054 Y60.676 E.08359
G1 X200.46 Y60.739 E.02308
G1 X201.927 Y62.206 E.08015
G1 X201.27 Y62.206 E.02538
G1 X199.799 Y60.736 E.08034
G1 X199.302 Y60.692 E.01928
G1 X199.042 Y60.635 E.01028
G1 X200.613 Y62.206 E.08583
G1 X199.956 Y62.206 E.02538
G1 X198.021 Y60.271 E.10572
G1 X197.504 Y59.999 E.02257
G1 X197.349 Y59.899 E.00713
G1 X196.674 Y59.345 E.03374
G1 X196.082 Y58.639 E.03559
G1 X195.996 Y58.505 E.00615
G1 X195.687 Y57.937 E.02498
G1 X193.764 Y56.014 E.10506
G1 X193.764 Y56.671 E.02538
G1 X199.299 Y62.206 E.3024
G1 X198.642 Y62.206 E.02538
G1 X193.764 Y57.328 E.26651
G1 X193.764 Y57.985 E.02538
G1 X197.985 Y62.206 E.23061
G1 X197.328 Y62.206 E.02538
G1 X193.764 Y58.642 E.19472
G1 X193.764 Y59.299 E.02538
G1 X196.671 Y62.206 E.15882
G1 X196.014 Y62.206 E.02538
G1 X193.558 Y59.75 E.13418
M204 S1000
M106 S127.5
;LAYER_CHANGE
;Z:0.4
;HEIGHT:0.2
;BEFORE_LAYER_CHANGE
G92 E0.0
;0.4


G1 E-1.6 F2100
;WIPE_START
G1 F9600
G1 X194.919 Y61.111 E-.4
;WIPE_END
G1 X194.919 Y61.111 Z.2 F12000
G1 X204.56 Y56.214 Z.4
;AFTER_LAYER_CHANGE
;0.4
;@SNAPSHOT
M104 S195 ; set temperature
G1 Z.4 F720
G1 E2 F1500
M204 S900
;TYPE:Perimeter
;WIDTH:0.449999
G1 X204.522 Y56.653 E.01492
G1 X204.283 Y57.475 E.02898
G1 X203.872 Y58.265 E.03014
G1 X203.336 Y58.933 E.02899
G1 X202.754 Y59.423 E.02575
G1 X202.555 Y59.571 E.00839
G1 X201.904 Y59.917 E.02495
G1 X201.09 Y60.178 E.02893
G1 X200.206 Y60.279 E.03012
G1 X199.317 Y60.201 E.03021
G1 X198.495 Y59.962 E.02898
G1 X197.705 Y59.551 E.03014
G1 X197.037 Y59.016 E.02897
G1 X196.543 Y58.432 E.02589
G1 X196.406 Y58.246 E.00782
G1 X196.053 Y57.584 E.02539
G1 X195.785 Y56.735 E.03014
G1 X195.688 Y55.825 E.03098
G1 X195.766 Y55.011 E.02768
G1 X196.007 Y54.175 E.02945
G1 X196.418 Y53.385 E.03014
G1 X196.954 Y52.716 E.02902
G1 X197.538 Y52.223 E.02587
G1 X197.723 Y52.086 E.00779
G1 X198.385 Y51.732 E.02541
G1 X199.2 Y51.471 E.02897
G1 X200.069 Y51.371 E.02961
G1 X200.937 Y51.441 E.02948
G1 X201.793 Y51.686 E.03014
G1 X202.555 Y52.078 E.02901
G1 X203.251 Y52.632 E.03011
G1 X203.751 Y53.22 E.02613
G1 X204.237 Y54.064 E.03297
G1 X204.498 Y54.879 E.02897
G1 X204.599 Y55.763 E.03012
G1 X204.565 Y56.154 E.01328
M204 S1000
G1 X204.158 Y56.177 F12000
M204 S700
;TYPE:External perimeter
G1 F1500
G1 X204.117 Y56.612 E.01479
G1 X203.893 Y57.356 E.0263
G1 X203.513 Y58.072 E.02744
G1 X203.022 Y58.674 E.0263
G1 X202.497 Y59.108 E.02306
G1 X201.713 Y59.558 E.0306
G1 X200.971 Y59.789 E.0263
G1 X200.165 Y59.874 E.02743
G1 X199.358 Y59.796 E.02744
G1 X198.614 Y59.573 E.02629
G1 X197.898 Y59.193 E.02744
G1 X197.296 Y58.702 E.0263
G1 X196.858 Y58.174 E.02322
G1 X196.412 Y57.393 E.03044
G1 X196.174 Y56.617 E.02747
G1 X196.095 Y55.825 E.02694
G1 X196.171 Y55.051 E.02632
G1 X196.397 Y54.293 E.02677
G1 X196.777 Y53.577 E.02744
G1 X197.268 Y52.975 E.0263
G1 X197.796 Y52.538 E.0232
G1 X198.577 Y52.091 E.03046
G1 X199.319 Y51.861 E.02629
G1 X200.111 Y51.776 E.02696
G1 X200.898 Y51.846 E.02674
G1 X201.676 Y52.076 E.02746
G1 X202.364 Y52.437 E.0263
G1 X202.994 Y52.947 E.02744
G1 X203.437 Y53.479 E.02343
G1 X203.878 Y54.256 E.03024
G1 X204.109 Y54.998 E.0263
G1 X204.194 Y55.804 E.02743
G1 X204.164 Y56.117 E.01064
M204 S1000
G1 E-1.6 F2100
;WIPE_START
G1 F9600
G1 X204.158 Y56.177 E-.01253
G1 X204.117 Y56.612 E-.0908
G1 X203.893 Y57.356 E-.16147
G1 X203.588 Y57.931 E-.1352
;WIPE_END
G1 X207.013 Y51.286 Z.53 F12000
G1 Z.4 F720
G1 E2 F1500
M204 S900
;TYPE:Perimeter
G1 F2700
G1 X207.013 Y60.363 E.30725
G1 F2408.531
G1 X204.683 Y62.693 E.11154
G1 F2700
G1 X195.607 Y62.693 E.30721
G1 F2408.531
G1 X193.277 Y60.363 E.11154
G1 F2700
M73 P3 R16
G1 X193.277 Y51.286 E.30725
G1 F2408.532
G1 X195.607 Y48.957 E.11151
G1 F2700
G1 X204.683 Y48.957 E.30721
G1 F2408.532
G1 X206.971 Y51.244 E.1095
M204 S1000
G1 X207.42 Y51.118 F12000
M204 S700
;TYPE:External perimeter
G1 F1422.873
G1 X207.42 Y51.934 E.02762
G1 F1500
G1 X207.42 Y59.715 E.26338
G1 F1422.869
G1 X207.42 Y60.531 E.02762
G1 X204.852 Y63.1 E.12295
G1 X204.035 Y63.1 E.02765
G1 F1500
G1 X196.255 Y63.1 E.26334
G1 F1422.875
G1 X195.438 Y63.1 E.02765
G1 X192.87 Y60.531 E.12295
G1 X192.87 Y59.715 E.02762
G1 F1500
G1 X192.87 Y51.934 E.26338
G1 F1422.875
G1 X192.87 Y51.118 E.02762
G1 X195.438 Y48.55 E.12293
G1 X196.255 Y48.55 E.02765
G1 F1500
G1 X204.035 Y48.55 E.26334
G1 F1422.877
G1 X204.852 Y48.55 E.02765
G1 X207.378 Y51.075 E.12089
M204 S1000
G1 E-1.6 F2100
;WIPE_START
G1 F9600
G1 X207.42 Y51.118 E-.01249
G1 X207.42 Y51.934 E-.16958
G1 X207.42 Y52.983 E-.21793
;WIPE_END
G1 X196.046 Y49.323 Z.609 F12000
G1 Z.4 F720
G1 E2 F1500
M204 S1500
;TYPE:Solid infill
G1 F5400
G1 X193.644 Y51.726 E.11501
G1 X193.593 Y51.561 E.00585
;WIDTH:0.41646
G1 X193.542 Y51.396 E.00536
;WIDTH:0.38292
G1 X195.716 Y49.221 E.08694
M204 S1000
G1 X196.622 Y49.323 F12000
M204 S1500
;WIDTH:0.449999
G1 F5400
G1 X193.644 Y52.302 E.14258
G1 X193.644 Y52.877 E.01946
G1 X197.198 Y49.323 E.17013
G1 X197.774 Y49.323 E.0195
G1 X193.644 Y53.453 E.1977
G1 X193.644 Y54.029 E.0195
G1 X198.349 Y49.323 E.22525
G1 X198.925 Y49.323 E.0195
G1 X193.644 Y54.605 E.25282
M204 S1000
G1 X193.565 Y55.457 F12000
M204 S1500
;WIDTH:0.38292
G1 F5400
G1 X193.494 Y55.438 E.00208
G1 X193.513 Y55.509 E.00208
G1 X193.554 Y55.498 E.0012
;WIDTH:0.41646
G1 X193.599 Y55.339 E.00513
;WIDTH:0.449999
G1 X193.644 Y55.18 E.00559
G1 X199.501 Y49.323 E.28037
G1 X200.076 Y49.323 E.01946
G1 X197.735 Y51.664 E.11206
G1 X197.591 Y51.782 E.0063
;WIDTH:0.41646
G1 X197.447 Y51.9 E.00578
;WIDTH:0.38292
G1 X196.807 Y52.467 E.02417
G1 X196.21 Y53.124 E.0251
;WIDTH:0.449999
G1 X195.988 Y53.411 E.01228
G1 X193.644 Y55.756 E.11223
G1 X193.644 Y56.332 E.0195
G1 X195.548 Y54.428 E.09114
G1 X195.649 Y54.299 E.00555
;WIDTH:0.41646
G1 X195.75 Y54.17 E.00509
;WIDTH:0.38292
G1 X195.709 Y54.181 E.0012
G1 X195.69 Y54.11 E.00208
G1 X195.761 Y54.129 E.00208
M204 S1000
G1 X195.383 Y55.168 F12000
M204 S1500
;WIDTH:0.449999
G1 F5400
G1 X195.323 Y55.844 E.02297
G1 X195.405 Y56.711 E.02948
G1 X195.669 Y57.611 E.03175
G1 X196.081 Y58.414 E.03055
G1 X196.281 Y58.671 E.01102
G1 X196.748 Y59.248 E.02513
G1 X197.401 Y59.787 E.02866
G1 X198.242 Y60.252 E.03253
G1 X199.128 Y60.535 E.03148
G1 X200.165 Y60.647 E.03531
G1 X201.103 Y60.551 E.03192
G1 X201.934 Y60.3 E.02938
;WIDTH:0.457563
G1 X202.726 Y59.904 E.03053
G1 X202.105 Y60.535 E.03052
;WIDTH:0.449999
G1 X200.458 Y62.182 E.07884
G1 X200.458 Y62.326 E.00487
G1 X195.759 Y62.326 E.15906
G1 X193.644 Y60.211 E.10124
G1 X193.644 Y56.763 E.11671
G1 X193.787 Y56.763 E.00484
G1 X195.239 Y55.312 E.06948
M204 S1000
G1 X194.946 Y56.181 F12000
M204 S1500
G1 F5400
G1 X195 Y56.749 E.01931
G1 X195.105 Y57.147 E.01393
G1 X195.307 Y57.796 E.02301
G1 X195.718 Y58.6 E.03056
G1 X195.964 Y58.926 E.01382
G1 X196.488 Y59.561 E.02787
G1 X197.203 Y60.142 E.03118
G1 X198.117 Y60.639 E.03522
G1 X199.082 Y60.94 E.03422
G1 X200.205 Y61.052 E.0382
G1 X201.101 Y60.964 E.03047
G1 X200.17 Y61.919 E.04514
G1 X195.927 Y61.919 E.14362
G1 X194.051 Y60.042 E.08983
G1 X194.051 Y57.864 E.07372
G1 X194.075 Y57.051 E.02753
G1 X194.802 Y56.325 E.03478
G1 X194.652 Y57.05 E.02506
G1 X194.944 Y57.982 E.03306
G1 X195.356 Y58.785 E.03055
G1 X195.646 Y59.18 E.01659
G1 X196.228 Y59.874 E.03066
G1 X197.004 Y60.498 E.03371
G1 X197.991 Y61.027 E.0379
;WIDTH:0.492051
G1 X198.25 Y61.127 E.01037
;WIDTH:0.534102
G1 X198.509 Y61.227 E.01134
;WIDTH:0.576153
G1 X198.768 Y61.328 E.01233
;WIDTH:0.618204
G1 X199.028 Y61.428 E.01333
G1 X198.915 Y61.452 E.00553
;WIDTH:0.57063
G1 X198.803 Y61.475 E.00502
;WIDTH:0.523055
G1 X198.358 Y61.494 E.01778
;WIDTH:0.486527
G1 X197.914 Y61.512 E.01639
;WIDTH:0.449999
G1 X196.096 Y61.512 E.06154
G1 X194.458 Y59.874 E.07841
G1 X194.458 Y57.245 E.08899
G1 X194.508 Y57.194 E.00242
M204 S1000
G1 E-1.6 F2100
;WIPE_START
G1 F9600
G1 X194.458 Y57.245 E-.01484
G1 X194.458 Y59.098 E-.38516
;WIPE_END
G1 X194.893 Y58.837 Z.409 F12000
G1 Z.4 F720
G1 E2 F1500
M204 S1500
;WIDTH:0.506677
G1 F5400
G1 X194.968 Y58.984 E.00636
G1 X195.306 Y59.452 E.02226
G1 X195.962 Y60.193 E.03816
;WIDTH:0.500078
G1 X196.573 Y60.724 E.03077
G1 X197.161 Y61.08 E.02613
G1 X196.275 Y61.08 E.03368
G1 X195.443 Y60.271 E.04411
;WIDTH:0.506677
G1 X194.893 Y59.693 E.03077
G1 X194.893 Y59.04 E.02518
M204 S1000
G1 E-1.6 F2100
;WIPE_START
G1 F9600
G1 X194.893 Y59.693 E-.1357
G1 X195.443 Y60.271 E-.16581
G1 X195.783 Y60.601 E-.09849
;WIPE_END
G1 X199.028 Y61.428 Z.458 F12000
G1 Z.4 F720
G1 E2 F1500
M204 S1500
;WIDTH:0.618204
G1 F5400
G1 X199.34 Y61.445 E.01495
;WIDTH:0.583362
G1 X199.652 Y61.463 E.01404
;WIDTH:0.548519
G1 X199.964 Y61.48 E.01314
M204 S1000
G1 E-1.6 F2100
;WIPE_START
G1 F9600
G1 X199.652 Y61.463 E-.06493
G1 X199.34 Y61.445 E-.06495
G1 X199.028 Y61.428 E-.06493
;WIPE_END
G1 E-.20519 F2100
G1 X198.487 Y51.437 Z.575 F12000
G1 Z.4 F720
G1 E2 F1500
M204 S1500
;WIDTH:0.38292
G1 F5400
G1 X198.446 Y51.448 E.0012
G1 X198.427 Y51.377 E.00208
G1 X198.498 Y51.396 E.00208
;WIDTH:0.41646
G1 X198.622 Y51.313 E.00463
;WIDTH:0.449999
G1 X198.745 Y51.23 E.00502
