; generated by PrusaSlicer 2.9.3 on 2025-09-29 at 18:41:56 UTC


;
;

;
;

;
;

;
;

;
;
; 

; external perimeters extrusion width = 0.45mm
; perimeters extrusion width = 0.45mm
; infill extrusion width = 0.45mm
; solid infill extrusion width = 0.45mm
; top infill extrusion width = 0.40mm
; first layer extrusion width = 0.50mm

M73 P0 R58

EXCLUDE_OBJECT_DEFINE NAME='Voron_Design_Cube_v8_STL' CENTER=222.265,129.003 POLYGON=[[237.265,144.003],[207.265,144.003],[207.265,114.003],[237.265,114.003]]

;TYPE:Custom
G90 ; use absolute coordinates
M83 ; extruder relative mode
M104 S170 ; preheat hotend to 170
M140 S60 ; set bed temp
M190 S60 ; wait for bed temp
G28 ; home all
;G29 ; mesh bed leveling
BED_MESH_CALIBRATE
G0 X0 Z0.6 Y-3.0 F1000.0 ; go outside print area for intro line
M104 S200 ; set hotend temp
M109 S200 ; wait for hotend temp
;M104 S0 ; Stops PS/SS from sending temp waits separately
;M140 S0
;PRINT_START BED=60 HOTEND=200
G92 E0.0
G1 X60.0 E9.0 F1000.0 ; intro line
G1 X100.0 E12.5 F1000.0 ; intro line
M73 P0 R57
G92 E0.0
G21 ; set units to millimeters
G90 ; use absolute coordinates
M83 ; use relative distances for extrusion
M900 K0.05 ; Filament gcode



M142 S36 ; set heatbreak target temp
M107
;LAYER_CHANGE
;Z:0.2
;HEIGHT:0.2
G1 E-2 F2100
G1 Z.8 F720
EXCLUDE_OBJECT_START NAME='Voron_Design_Cube_v8_STL'
G1 X214.326 Y131.883 F12000
G1 Z.2 F720
G1 E2 F1500
M204 S600
;TYPE:Perimeter
;WIDTH:0.499999
G1 F1200
G1 X214.189 Y131.509 E.01514
G1 X213.985 Y130.721 E.03094
G1 X213.858 Y129.919 E.03086
G1 X213.809 Y129.109 E.03084
G1 X213.844 Y128.231 E.0334
G1 X213.951 Y127.459 E.02962
G1 X214.147 Y126.634 E.03223
G1 X214.412 Y125.865 E.03091
G1 X214.749 Y125.127 E.03083
G1 X215.175 Y124.395 E.03219
G1 X215.672 Y123.708 E.03223
G1 X216.211 Y123.099 E.03091
G1 X216.804 Y122.546 E.03082
G1 X217.448 Y122.052 E.03085
G1 X218.137 Y121.623 E.03085
G1 X218.928 Y121.233 E.03352
G1 X219.691 Y120.948 E.03096
G1 X220.544 Y120.723 E.03353
G1 X221.348 Y120.596 E.03094
G1 X222.194 Y120.547 E.03221
G1 X223.041 Y120.582 E.03222
G1 X223.846 Y120.696 E.0309
G1 X224.635 Y120.885 E.03084
G1 X225.402 Y121.15 E.03084
G1 X226.141 Y121.487 E.03087
G1 X226.873 Y121.912 E.03217
G1 X227.56 Y122.409 E.03223
G1 X228.169 Y122.948 E.03091
G1 X228.722 Y123.542 E.03084
G1 X229.215 Y124.186 E.03082
G1 X229.645 Y124.874 E.03084
G1 X230.035 Y125.665 E.03352
G1 X230.32 Y126.428 E.03096
G1 X230.53 Y127.212 E.03085
G1 X230.671 Y128.083 E.03353
G1 X230.721 Y128.896 E.03096
G1 X230.692 Y129.707 E.03084
G1 X230.579 Y130.547 E.03221
G1 X230.383 Y131.371 E.03219
G1 X230.118 Y132.14 E.03091
G1 X229.781 Y132.878 E.03083
G1 X229.355 Y133.611 E.03222
G1 X228.858 Y134.298 E.03223
G1 X228.32 Y134.906 E.03086
G1 X227.726 Y135.459 E.03084
G1 X227.082 Y135.953 E.03085
G1 X226.393 Y136.383 E.03087
G1 X225.602 Y136.773 E.03352
G1 X224.839 Y137.058 E.03096
G1 X224.055 Y137.267 E.03084
G1 X223.185 Y137.409 E.0335
G1 X222.372 Y137.458 E.03096
G1 X221.561 Y137.43 E.03084
G1 X220.721 Y137.317 E.03221
G1 X219.896 Y137.12 E.03224
G1 X219.128 Y136.856 E.03087
G1 X218.389 Y136.519 E.03087
G1 X217.657 Y136.093 E.03219
G1 X216.97 Y135.596 E.03223
G1 X216.361 Y135.057 E.03091
G1 X215.808 Y134.463 E.03084
G1 X215.315 Y133.82 E.03079
G1 X214.851 Y133.069 E.03355
G1 X214.494 Y132.337 E.03095
G1 X214.347 Y131.939 E.01613
M204 S1000
G1 X214.757 Y131.732 F12000
M204 S600
;TYPE:External perimeter
G1 F1200
G1 X214.618 Y131.353 E.01534
G1 X214.428 Y130.608 E.02922
G1 X214.31 Y129.85 E.02916
G1 X214.266 Y129.084 E.02916
G1 X214.297 Y128.294 E.03005
G1 X214.404 Y127.521 E.02966
G1 X214.591 Y126.742 E.03045
G1 X214.844 Y126.016 E.02922
G1 X215.164 Y125.319 E.02915
G1 X215.569 Y124.626 E.03051
G1 X216.041 Y123.977 E.0305
G1 X216.552 Y123.403 E.02921
G1 X217.114 Y122.882 E.02913
G1 X217.725 Y122.416 E.0292
G1 X218.377 Y122.011 E.02917
G1 X219.128 Y121.644 E.03177
G1 X219.849 Y121.377 E.02922
G1 X220.658 Y121.166 E.03178
G1 X221.418 Y121.048 E.02923
G1 X222.219 Y121.003 E.03049
G1 X223.02 Y121.039 E.03047
G1 X223.781 Y121.148 E.02922
G1 X224.527 Y121.329 E.02918
G1 X225.252 Y121.581 E.02917
G1 X225.949 Y121.902 E.02916
G1 X226.642 Y122.307 E.03051
G1 X227.29 Y122.778 E.03045
G1 X227.864 Y123.289 E.02921
G1 X228.386 Y123.852 E.02918
G1 X228.852 Y124.463 E.0292
G1 X229.256 Y125.115 E.02915
G1 X229.624 Y125.866 E.03179
G1 X229.891 Y126.587 E.02922
G1 X230.088 Y127.329 E.02918
G1 X230.22 Y128.155 E.03179
G1 X230.264 Y128.922 E.0292
G1 X230.235 Y129.689 E.02917
G1 X230.126 Y130.484 E.0305
G1 X229.939 Y131.264 E.03048
G1 X229.686 Y131.989 E.02918
G1 X229.366 Y132.687 E.02918
G1 X228.961 Y133.38 E.03051
G1 X228.489 Y134.028 E.03047
G1 X227.979 Y134.602 E.02918
G1 X227.416 Y135.124 E.02918
G1 X226.805 Y135.589 E.02918
G1 X226.153 Y135.994 E.02917
G1 X225.402 Y136.362 E.03179
G1 X224.681 Y136.629 E.02922
G1 X223.939 Y136.825 E.02917
G1 X223.113 Y136.957 E.03179
G1 X222.346 Y137.002 E.0292
G1 X221.579 Y136.973 E.02917
G1 X220.784 Y136.864 E.0305
G1 X220.004 Y136.676 E.03049
G1 X219.278 Y136.424 E.02921
G1 X218.581 Y136.104 E.02915
G1 X217.888 Y135.699 E.03051
G1 X217.24 Y135.227 E.03047
G1 X216.666 Y134.716 E.02921
G1 X216.144 Y134.153 E.02918
G1 X215.678 Y133.543 E.02917
G1 X215.24 Y132.83 E.0318
G1 X214.905 Y132.138 E.02922
G1 X214.778 Y131.788 E.01415
M204 S1000
G1 E-1.6 F2100
;WIPE_START
G1 F9600
G1 X214.757 Y131.732 E-.01243
G1 X214.618 Y131.353 E-.08389
G1 X214.428 Y130.608 E-.15978
G1 X214.322 Y129.924 E-.1439
;WIPE_END
G1 X236.558 Y120.196 Z.624 F12000
G1 Z.2 F720
G1 E2 F1500
M204 S600
;TYPE:Perimeter
G1 F1200
G1 X236.558 Y121.868 E.06355
G1 X236.558 Y137.81 E.6059
G1 X231.072 Y143.296 E.29487
G1 X213.458 Y143.296 E.66944
G1 X207.972 Y137.81 E.29487
G1 X207.972 Y120.196 E.66944
G1 X213.458 Y114.71 E.29487
G1 X231.072 Y114.71 E.66944
G1 X236.516 Y120.153 E.29258
M204 S1000
G1 X237.015 Y120.006 F12000
M204 S600
;TYPE:External perimeter
G1 F1200
G1 X237.015 Y121.868 E.07077
G1 X237.015 Y137.999 E.61308
G1 X231.261 Y143.753 E.30927
G1 X213.269 Y143.753 E.68381
G1 X207.515 Y137.999 E.30927
G1 X207.515 Y120.006 E.68385
G1 X213.269 Y114.253 E.30924
G1 X231.261 Y114.253 E.68381
G1 X236.973 Y119.964 E.30699
M204 S1000
G1 E-1.6 F2100
;WIPE_START
G1 F9600
G1 X237.015 Y120.006 E-.01234
G1 X237.015 Y121.868 E-.38695
G1 X237.015 Y121.871 E-.00071
;WIPE_END
G1 X230.693 Y114.915 Z.364 F12000
G1 Z.2 F720
G1 E2 F1500
M204 S600
;TYPE:Solid infill
;WIDTH:0.504387
G1 F1200
G1 X236.147 Y120.369 E.29596
G1 X236.147 Y121.022 E.02506
G1 X230.246 Y115.121 E.32022
G1 X229.593 Y115.121 E.02506
G1 X236.147 Y121.674 E.35563
G1 X236.147 Y122.327 E.02506
G1 X228.941 Y115.121 E.39103
G1 X228.288 Y115.121 E.02506
G1 X236.147 Y122.98 E.42647
G1 X236.147 Y123.632 E.02502
G1 X227.635 Y115.121 E.46188
G1 X226.983 Y115.121 E.02502
G1 X236.147 Y124.285 E.49728
G1 X236.147 Y124.937 E.02502
G1 X226.33 Y115.121 E.53269
G1 X225.678 Y115.121 E.02502
G1 X236.147 Y125.59 E.5681
G1 X236.147 Y126.243 E.02506
G1 X225.025 Y115.121 E.60354
G1 X224.372 Y115.121 E.02506
G1 X236.147 Y126.895 E.63894
G1 X236.147 Y127.548 E.02506
G1 X223.72 Y115.121 E.67435
G1 X223.067 Y115.121 E.02506
G1 X236.147 Y128.201 E.70979
G1 X236.147 Y128.853 E.02502
G1 X222.415 Y115.121 E.74517
G1 X221.762 Y115.121 E.02506
G1 X236.147 Y129.506 E.7806
G1 X236.147 Y130.158 E.02502
M73 P1 R57
G1 X221.109 Y115.121 E.81601
G1 X220.457 Y115.121 E.02502
G1 X226.634 Y121.298 E.33519
G1 X227.088 Y121.562 E.02015
G1 X227.809 Y122.082 E.03411
G1 X228.487 Y122.682 E.03474
G1 X229.029 Y123.269 E.03066
G1 X229.566 Y123.968 E.03382
G1 X229.984 Y124.649 E.03066
G1 X236.147 Y130.811 E.33441
G1 X236.147 Y131.464 E.02506
G1 X230.55 Y125.867 E.30372
G1 X230.736 Y126.379 E.0209
G1 X230.849 Y126.818 E.01739
G1 X236.147 Y132.116 E.2875
G1 X236.147 Y132.769 E.02506
G1 X231.015 Y127.637 E.27849
G1 X231.089 Y128.12 E.01875
G1 X231.103 Y128.378 E.00991
G1 X236.147 Y133.421 E.27369
G1 X236.147 Y134.074 E.02506
G1 X231.128 Y129.056 E.27233
G1 X231.101 Y129.681 E.024
G1 X236.147 Y134.727 E.27382
G1 X236.147 Y135.379 E.02502
G1 X231.033 Y130.266 E.27748
G1 X230.98 Y130.645 E.01468
G1 X230.937 Y130.822 E.00699
G1 X236.147 Y136.032 E.28272
G1 X236.147 Y136.684 E.02502
G1 X230.808 Y131.346 E.28969
G1 X230.755 Y131.564 E.00861
G1 X230.655 Y131.845 E.01144
G1 X236.147 Y137.337 E.29802
G1 X236.147 Y137.639 E.01159
G1 X235.971 Y137.815 E.00955
G1 X230.484 Y132.327 E.29778
G1 X230.279 Y132.775 E.0189
G1 X235.645 Y138.141 E.29119
G1 X235.319 Y138.467 E.01769
G1 X230.065 Y133.213 E.28511
G1 X229.822 Y133.623 E.01829
G1 X234.992 Y138.793 E.28055
G1 X234.666 Y139.12 E.01772
G1 X229.568 Y134.022 E.27664
G1 X229.291 Y134.397 E.01789
G1 X234.34 Y139.446 E.27398
G1 X234.014 Y139.772 E.01769
G1 X229.001 Y134.76 E.272
G1 X228.693 Y135.104 E.01772
G1 X233.687 Y140.099 E.27103
G1 X233.361 Y140.425 E.01769
G1 X228.365 Y135.429 E.27111
G1 X228.026 Y135.742 E.0177
G1 X233.035 Y140.751 E.27181
G1 X232.708 Y141.078 E.01774
G1 X227.659 Y136.028 E.27401
G1 X227.289 Y136.31 E.01785
G1 X232.382 Y141.404 E.2764
G1 X232.056 Y141.73 E.01769
G1 X226.884 Y136.559 E.28063
G1 X226.476 Y136.804 E.01826
G1 X231.729 Y142.057 E.28505
G1 X231.403 Y142.383 E.01769
G1 X226.036 Y137.016 E.29124
G1 X225.689 Y137.183 E.01478
G1 X225.587 Y137.22 E.00416
G1 X231.077 Y142.709 E.29789
G1 X230.902 Y142.884 E.0095
G1 X230.599 Y142.884 E.01163
G1 X225.109 Y137.394 E.29791
G1 X224.889 Y137.473 E.00897
G1 X224.608 Y137.546 E.01114
G1 X229.947 Y142.884 E.28969
G1 X229.294 Y142.884 E.02506
G1 X224.09 Y137.68 E.28239
G1 X223.528 Y137.771 E.02185
G1 X228.641 Y142.884 E.27746
G1 X227.989 Y142.884 E.02502
G1 X222.939 Y137.835 E.27401
G1 X222.323 Y137.871 E.02368
G1 X227.336 Y142.884 E.27203
G1 X226.684 Y142.884 E.02502
G1 X221.64 Y137.841 E.27369
G1 X221.445 Y137.832 E.00749
G1 X220.901 Y137.754 E.02109
G1 X226.031 Y142.884 E.27838
G1 X225.378 Y142.884 E.02506
G1 X220.08 Y137.586 E.2875
G1 X219.704 Y137.493 E.01486
G1 X219.131 Y137.289 E.02334
G1 X224.931 Y143.09 E.31476
M204 S1000
G1 E-1.6 F2100
;WIPE_START
G1 F9600
G1 X223.57 Y141.729 E-.4
;WIPE_END
G1 X219.598 Y114.915 Z.673 F12000
G1 Z.2 F720
G1 E2 F1500
M204 S600
G1 F1200
G1 X225.396 Y120.713 E.31463
G1 X224.741 Y120.488 E.02657
G1 X224.448 Y120.417 E.01157
G1 X219.152 Y115.121 E.28739
G1 X218.499 Y115.121 E.02506
G1 X223.627 Y120.25 E.2783
G1 X223.068 Y120.171 E.02166
G1 X222.889 Y120.164 E.00687
G1 X217.846 Y115.121 E.27366
G1 X217.194 Y115.121 E.02502
G1 X222.209 Y120.137 E.27217
G1 X221.588 Y120.168 E.02386
G1 X216.541 Y115.121 E.27388
G1 X215.888 Y115.121 E.02506
G1 X221.003 Y120.236 E.27757
G1 X220.442 Y120.328 E.02181
G1 X215.236 Y115.121 E.28253
G1 X214.583 Y115.121 E.02506
G1 X219.922 Y120.46 E.28972
G1 X219.645 Y120.531 E.01097
G1 X219.422 Y120.612 E.0091
G1 X213.931 Y115.121 E.29797
G1 X213.628 Y115.121 E.01163
G1 X213.453 Y115.296 E.0095
G1 X218.943 Y120.786 E.29791
G1 X218.841 Y120.823 E.00416
G1 X218.494 Y120.99 E.01478
G1 X213.127 Y115.623 E.29124
G1 X212.801 Y115.949 E.01769
G1 X218.053 Y121.202 E.28503
G1 X217.646 Y121.447 E.01823
G1 X212.474 Y116.275 E.28066
G1 X212.148 Y116.602 E.01772
G1 X217.241 Y121.695 E.27637
G1 X216.871 Y121.977 E.01785
G1 X211.822 Y116.928 E.27398
G1 X211.495 Y117.254 E.01772
G1 X216.504 Y122.263 E.27181
G1 X216.165 Y122.577 E.01773
G1 X211.169 Y117.58 E.27113
G1 X210.843 Y117.907 E.01772
G1 X215.837 Y122.901 E.271
G1 X215.529 Y123.246 E.01775
G1 X210.516 Y118.233 E.27203
G1 X210.19 Y118.559 E.01769
G1 X215.239 Y123.608 E.27398
M73 P1 R56
G1 X214.962 Y123.984 E.01792
G1 X209.864 Y118.886 E.27664
G1 X209.537 Y119.212 E.01772
G1 X214.708 Y124.383 E.2806
G1 X214.465 Y124.792 E.01825
G1 X209.211 Y119.538 E.28511
G1 X208.885 Y119.865 E.01772
G1 X214.251 Y125.231 E.29119
G1 X214.046 Y125.678 E.01887
G1 X208.559 Y120.191 E.29775
G1 X208.383 Y120.366 E.00952
G1 X208.383 Y120.668 E.01159
G1 X213.875 Y126.16 E.29802
G1 X213.775 Y126.441 E.01144
G1 X213.721 Y126.659 E.00862
G1 X208.383 Y121.321 E.28967
G1 X208.383 Y121.974 E.02506
G1 X213.592 Y127.182 E.28264
G1 X213.562 Y127.302 E.00475
G1 X213.499 Y127.742 E.01706
G1 X208.383 Y122.626 E.27762
G1 X208.383 Y123.279 E.02506
G1 X213.429 Y128.325 E.27382
G1 X213.402 Y128.95 E.024
G1 X208.383 Y123.931 E.27236
G1 X208.383 Y124.584 E.02506
G1 X213.427 Y129.628 E.27371
G1 X213.441 Y129.885 E.00988
G1 X213.513 Y130.366 E.01866
G1 X208.383 Y125.237 E.27835
G1 X208.383 Y125.889 E.02502
G1 X213.683 Y131.189 E.2876
G1 X213.799 Y131.642 E.01794
G1 X213.985 Y132.143 E.02051
G1 X208.383 Y126.542 E.30397
G1 X208.383 Y127.195 E.02506
G1 X214.543 Y133.354 E.33425
G1 X214.964 Y134.037 E.03079
G1 X215.501 Y134.737 E.03385
G1 X216.043 Y135.323 E.03063
G1 X216.65 Y135.866 E.03125
G1 X217.364 Y136.393 E.03405
G1 X217.899 Y136.711 E.02388
G1 X224.073 Y142.884 E.335
G1 X223.421 Y142.884 E.02502
G1 X208.383 Y127.847 E.81601
G1 X208.383 Y128.5 E.02506
M73 P2 R56
G1 X222.768 Y142.884 E.78057
G1 X222.115 Y142.884 E.02506
G1 X208.383 Y129.152 E.74517
G1 X208.383 Y129.805 E.02506
G1 X221.463 Y142.884 E.70976
G1 X220.81 Y142.884 E.02506
G1 X208.383 Y130.458 E.67432
G1 X208.383 Y131.11 E.02502
G1 X220.157 Y142.884 E.63892
G1 X219.505 Y142.884 E.02502
G1 X208.383 Y131.763 E.60351
G1 X208.383 Y132.415 E.02502
G1 X218.852 Y142.884 E.5681
G1 X218.2 Y142.884 E.02502
G1 X208.383 Y133.068 E.53269
G1 X208.383 Y133.721 E.02506
G1 X217.547 Y142.884 E.49726
G1 X216.894 Y142.884 E.02506
G1 X208.383 Y134.373 E.46185
G1 X208.383 Y135.026 E.02506
G1 X216.242 Y142.884 E.42644
G1 X215.589 Y142.884 E.02506
G1 X208.383 Y135.679 E.39101
G1 X208.383 Y136.331 E.02502
G1 X214.937 Y142.884 E.35563
G1 X214.284 Y142.884 E.02506
G1 X208.383 Y136.984 E.32019
G1 X208.383 Y137.636 E.02502
G1 X213.837 Y143.09 E.29596
M204 S1000
M106 S127.5
;LAYER_CHANGE
;Z:0.4
;HEIGHT:0.2
;BEFORE_LAYER_CHANGE
G92 E0.0
;0.4


G1 E-1.6 F2100
;WIPE_START
G1 F9600
G1 X212.476 Y141.729 E-.4
;WIPE_END
G1 X212.476 Y141.729 Z.2 F12000
G1 X214.489 Y131.824 Z.4
;AFTER_LAYER_CHANGE
;0.4
;@SNAPSHOT
M104 S195 ; set temperature
G1 Z.4 F720
G1 E2 F1500
M204 S900
;TYPE:Perimeter
;WIDTH:0.449999
G1 F2700
G1 X214.354 Y131.452 E.0134
G1 X214.156 Y130.682 E.02691
G1 X214.026 Y129.835 E.02901
G1 X213.984 Y129.032 E.02722
G1 X214.019 Y128.238 E.0269
G1 X214.156 Y127.323 E.03132
G1 X214.337 Y126.609 E.02493
G1 X214.603 Y125.861 E.02687
G1 X214.969 Y125.085 E.02904
G1 X215.383 Y124.396 E.02721
G1 X215.856 Y123.758 E.02688
G1 X216.388 Y123.168 E.02689
G1 X217.029 Y122.587 E.02928
G1 X217.471 Y122.259 E.01863
G1 X218.351 Y121.704 E.03522
G1 X219.069 Y121.363 E.02691
G1 X219.816 Y121.092 E.0269
G1 X220.585 Y120.893 E.02689
G1 X221.37 Y120.77 E.0269
G1 X222.226 Y120.721 E.02902
G1 X223.029 Y120.757 E.02721
G1 X223.816 Y120.868 E.0269
G1 X224.656 Y121.074 E.02928
G1 X225.407 Y121.34 E.02697
G1 X226.188 Y121.71 E.02925
G1 X226.872 Y122.121 E.02701
G1 X227.51 Y122.594 E.02688
G1 X228.1 Y123.126 E.02689
G1 X228.676 Y123.761 E.02902
G1 X229.01 Y124.21 E.01894
G1 X229.563 Y125.089 E.03515
G1 X229.905 Y125.807 E.02692
G1 X230.176 Y126.554 E.0269
G1 X230.388 Y127.391 E.02923
G1 X230.505 Y128.18 E.027
G1 X230.546 Y128.973 E.02688
G1 X230.511 Y129.767 E.0269
G1 X230.388 Y130.616 E.02904
G1 X230.193 Y131.396 E.02721
G1 X229.927 Y132.145 E.0269
G1 X229.591 Y132.865 E.02689
G1 X229.148 Y133.607 E.02925
G1 X228.674 Y134.248 E.02698
G1 X228.142 Y134.838 E.02689
G1 X227.555 Y135.374 E.02691
G1 X227.03 Y135.77 E.02226
G1 X226.181 Y136.3 E.03388
G1 X225.461 Y136.642 E.02698
G1 X224.714 Y136.914 E.02691
G1 X223.877 Y137.126 E.02923
G1 X223.088 Y137.243 E.027
G1 X222.294 Y137.284 E.02691
G1 X221.5 Y137.249 E.0269
G1 X220.652 Y137.125 E.02901
G1 X219.872 Y136.931 E.02721
G1 X219.123 Y136.665 E.0269
G1 X218.403 Y136.328 E.02691
G1 X217.661 Y135.886 E.02923
G1 X217.02 Y135.412 E.02698
G1 X216.43 Y134.879 E.02691
G1 X215.849 Y134.239 E.02926
G1 X215.521 Y133.797 E.01863
G1 X214.967 Y132.916 E.03523
G1 X214.625 Y132.199 E.02689
G1 X214.51 Y131.881 E.01145
M204 S1000
G1 X214.873 Y131.69 F12000
M204 S700
;TYPE:External perimeter
G1 F1500
G1 X214.737 Y131.314 E.01353
G1 X214.55 Y130.582 E.02557
G1 X214.428 Y129.775 E.02763
