; generated by PrusaSlicer 2.9.3 on 2025-09-23 at 18:41:26 UTC


;
;

;
;

;
;

;
;

;
;
; 

; external perimeters extrusion width = 0.50mm
; perimeters extrusion width = 0.50mm
; infill extrusion width = 0.50mm
; solid infill extrusion width = 0.50mm
; top infill extrusion width = 0.45mm
; first layer extrusion width = 0.50mm

M73 P0 R36

EXCLUDE_OBJECT_DEFINE NAME='Voron_Design_Cube_v8_STL' CENTER=125.000,105.000 POLYGON=[[140.000,120.000],[110.000,120.000],[110.000,90.000],[140.000,90.000]]

;TYPE:Custom
G90 ; use absolute coordinates
M83 ; extruder relative mode
M104 S170 ; preheat hotend to 170
M140 S85 ; set bed temp
M190 S85 ; wait for bed temp
G28 ; home all
G29 ; mesh bed leveling
G0 X0 Z0.6 Y-3.0 F1000.0 ; go outside print area for intro line
M104 S215 ; set hotend temp
M109 S215 ; wait for hotend temp
G92 E0.0
G1 X60.0 E9.0 F1000.0 ; intro line
G1 X100.0 E12.5 F1000.0 ; intro line
G92 E0.0
G21 ; set units to millimeters
G90 ; use absolute coordinates
M83 ; use relative distances for extrusion
M900 K0.07 ; Filament gcode



M142 S36 ; set heatbreak target temp
M107
;LAYER_CHANGE
;Z:0.2
;HEIGHT:0.2
G1 E-.8 F2100
G1 Z1.7 F720
EXCLUDE_OBJECT_START NAME='Voron_Design_Cube_v8_STL'
G1 X118.626 Y99.145 F12000
G1 Z.2 F720
G1 E.8 F1500
M204 S600
;TYPE:Perimeter
;WIDTH:0.499999
G1 F1200
G3 X116.38 Y104.211 I6.37 J5.855 E1.85191
G1 X116.489 Y103.419 E.03038
G3 X118.585 Y99.189 I8.507 J1.581 E.18172
M204 S1000
G1 X118.959 Y99.457 F12000
M204 S600
;TYPE:External perimeter
G1 F1200
G3 X116.832 Y104.274 I6.038 J5.543 E1.75357
G1 X116.942 Y103.481 E.03043
G3 X118.918 Y99.502 I8.055 J1.519 E.17099
M204 S1000
G1 E-.16 F2100
;WIPE_START
G1 F9600
G1 X118.959 Y99.457 E-.01265
G3 X121.36 Y97.655 I6.038 J5.543 E-.62735
;WIPE_END
G1 X110.907 Y113.724 Z.535 F12000
G1 Z.2 F720
G1 E.8 F1500
M204 S600
;TYPE:Perimeter
G1 F1200
G1 X110.907 Y96.276 E.66313
G1 X116.276 Y90.907 E.28858
G1 X133.724 Y90.907 E.66313
G1 X139.093 Y96.276 E.28858
G1 X139.093 Y97.865 E.06039
G1 X139.093 Y113.724 E.60274
G1 X133.724 Y119.093 E.28858
G1 X116.276 Y119.093 E.66313
G1 X110.95 Y113.767 E.28627
M204 S1000
G1 X110.45 Y113.914 F12000
M204 S600
;TYPE:External perimeter
G1 F1200
G1 X110.45 Y96.086 E.67758
G1 X116.086 Y90.45 E.30293
G1 X133.914 Y90.45 E.67758
G1 X139.55 Y96.086 E.30293
G1 X139.55 Y97.865 E.06761
G1 X139.55 Y113.914 E.60996
G1 X133.914 Y119.55 E.30293
G1 X116.086 Y119.55 E.67758
M73 P1 R36
G1 X110.492 Y113.956 E.30067
M204 S1000
G1 E-.16 F2100
;WIPE_START
G1 F9600
G1 X110.45 Y113.914 E-.01234
G1 X110.45 Y110.894 E-.62766
;WIPE_END
G1 X138.887 Y96.656 Z.755 F12000
G1 Z.2 F720
G1 E.8 F1500
M204 S600
;TYPE:Solid infill
;WIDTH:0.505278
G1 F1200
G1 X133.55 Y91.318 E.2902
G1 X132.896 Y91.318 E.02514
G1 X138.682 Y97.104 E.31458
G1 X138.682 Y97.758 E.02514
G1 X132.242 Y91.318 E.35014
G1 X131.588 Y91.318 E.02514
G1 X138.682 Y98.412 E.3857
G1 X138.682 Y99.065 E.0251
G1 X130.935 Y91.318 E.4212
G1 X130.281 Y91.318 E.02514
G1 X138.682 Y99.719 E.45676
G1 X138.682 Y100.373 E.02514
G1 X129.627 Y91.318 E.49232
G1 X128.973 Y91.318 E.02514
G1 X138.682 Y101.027 E.52788
G1 X138.682 Y101.681 E.02514
G1 X128.319 Y91.318 E.56343
G1 X127.665 Y91.318 E.02514
G1 X138.682 Y102.335 E.59899
G1 X138.682 Y102.989 E.02514
G1 X127.011 Y91.318 E.63455
G1 X126.357 Y91.318 E.02514
G1 X138.682 Y103.643 E.67011
G1 X138.682 Y104.296 E.0251
G1 X125.704 Y91.318 E.70561
G1 X125.05 Y91.318 E.02514
G1 X138.682 Y104.95 E.74117
G1 X138.682 Y105.604 E.02514
G1 X124.396 Y91.318 E.77673
G1 X123.742 Y91.318 E.02514
G1 X129.653 Y97.229 E.32138
G3 X132.769 Y100.346 I-4.486 J7.603 E.17125
G1 X138.682 Y106.258 E.32146
G1 X138.682 Y106.912 E.02514
G1 X133.419 Y101.65 E.28612
G3 X133.741 Y102.625 I-6.668 J2.737 E.03951
G1 X138.682 Y107.566 E.26864
G1 X138.682 Y108.22 E.02514
G1 X133.927 Y103.465 E.25853
G3 X134.026 Y104.218 I-5.446 J1.098 E.02922
G1 X138.682 Y108.874 E.25315
G1 X138.682 Y109.527 E.0251
G1 X134.067 Y104.913 E.25089
G1 X134.042 Y105.541 E.02416
G1 X138.682 Y110.181 E.25228
G1 X138.682 Y110.835 E.02514
M73 P1 R35
G1 X133.987 Y106.14 E.25527
G1 X133.904 Y106.711 E.02218
G1 X138.682 Y111.489 E.25978
G1 X138.682 Y112.143 E.02514
G1 X133.775 Y107.236 E.26679
G1 X133.635 Y107.75 E.02048
G1 X138.682 Y112.797 E.2744
G1 X138.682 Y113.451 E.02514
G1 X133.464 Y108.233 E.2837
G1 X133.271 Y108.694 E.01921
G1 X138.406 Y113.829 E.27919
G1 X138.079 Y114.156 E.01778
G1 X133.063 Y109.14 E.27272
G1 X132.826 Y109.557 E.01844
G1 X137.752 Y114.483 E.26783
G1 X137.425 Y114.81 E.01778
G1 X132.583 Y109.968 E.26326
G1 X132.309 Y110.348 E.01801
G1 X137.098 Y115.137 E.26038
G1 X136.772 Y115.464 E.01775
G1 X132.032 Y110.724 E.25771
G1 X131.724 Y111.07 E.01781
G1 X136.445 Y115.791 E.25668
G1 X136.118 Y116.118 E.01778
G1 X131.41 Y111.41 E.25597
G1 X131.071 Y111.725 E.01779
G1 X135.791 Y116.445 E.25663
G1 X135.464 Y116.772 E.01778
G1 X130.72 Y112.027 E.25796
G1 X130.35 Y112.311 E.01793
M73 P2 R35
G1 X135.137 Y117.099 E.2603
G1 X134.81 Y117.425 E.01775
G1 X129.964 Y112.579 E.26348
G1 X129.559 Y112.828 E.01828
G1 X134.483 Y117.752 E.26772
G1 X134.156 Y118.079 E.01778
G1 X129.136 Y113.059 E.27294
G1 X128.694 Y113.272 E.01886
G1 X133.829 Y118.406 E.27916
G1 X133.554 Y118.682 E.01498
G1 X133.451 Y118.682 E.00396
G1 X128.231 Y113.462 E.28381
G1 X127.752 Y113.636 E.01959
G1 X132.797 Y118.682 E.27432
G1 X132.143 Y118.682 E.02514
G1 X127.237 Y113.776 E.26674
G1 X126.71 Y113.902 E.02083
G1 X131.489 Y118.682 E.25986
G1 X130.835 Y118.682 E.02514
G1 X126.141 Y113.987 E.25524
G3 X125.542 Y114.042 I-.669 J-3.977 E.02315
G1 X130.181 Y118.682 E.25225
G1 X129.527 Y118.682 E.02514
G1 X124.907 Y114.061 E.25122
G1 X124.223 Y114.032 E.02632
G1 X128.873 Y118.682 E.25282
G1 X128.22 Y118.682 E.0251
G1 X123.467 Y113.929 E.25842
G3 X122.626 Y113.742 I1.029 J-6.614 E.03314
G1 X127.566 Y118.682 E.26859
G1 X126.912 Y118.682 E.02514
G1 X121.247 Y113.016 E.30803
M204 S1000
G1 E-.16 F2100
;WIPE_START
G1 F9600
G1 X123.424 Y115.194 E-.64
;WIPE_END
G1 X128.752 Y96.982 Z.531 F12000
G1 Z.2 F720
G1 E.8 F1500
M204 S600
G1 F1200
G1 X123.088 Y91.318 E.30795
G1 X122.434 Y91.318 E.02514
G1 X127.37 Y96.254 E.26837
G1 X126.531 Y96.069 E.03303
G1 X121.78 Y91.318 E.25831
G1 X121.126 Y91.318 E.02514
G1 X125.776 Y95.968 E.25282
G1 X125.094 Y95.94 E.02624
G1 X120.473 Y91.318 E.25127
G1 X119.819 Y91.318 E.02514
G1 X124.458 Y95.958 E.25225
G2 X123.859 Y96.013 I.068 J4.012 E.02315
G1 X119.165 Y91.318 E.25524
G1 X118.511 Y91.318 E.02514
G1 X123.29 Y96.098 E.25986
G1 X122.761 Y96.223 E.0209
G1 X117.857 Y91.318 E.26666
G1 X117.203 Y91.318 E.02514
G1 X122.251 Y96.366 E.27446
G1 X121.769 Y96.538 E.01968
G1 X116.549 Y91.318 E.28381
G1 X116.446 Y91.318 E.00396
G1 X116.171 Y91.594 E.01498
G1 X121.306 Y96.729 E.27919
G1 X120.864 Y96.941 E.01885
G1 X115.844 Y91.921 E.27294
G1 X115.517 Y92.248 E.01778
G1 X120.441 Y97.172 E.26772
G1 X120.036 Y97.421 E.01828
G1 X115.19 Y92.575 E.26348
G1 X114.863 Y92.902 E.01778
G1 X119.65 Y97.689 E.26027
G1 X119.28 Y97.973 E.01793
G1 X114.536 Y93.228 E.25796
G1 X114.209 Y93.555 E.01778
G1 X118.929 Y98.275 E.25663
G1 X118.59 Y98.59 E.01779
G1 X113.882 Y93.882 E.25597
G1 X113.555 Y94.209 E.01778
G1 X118.276 Y98.93 E.25668
G1 X117.968 Y99.276 E.01781
G1 X113.228 Y94.536 E.25771
G1 X112.901 Y94.863 E.01778
G1 X117.691 Y99.653 E.26043
G1 X117.417 Y100.033 E.01801
G1 X112.575 Y95.19 E.26329
G1 X112.248 Y95.517 E.01778
G1 X117.174 Y100.443 E.26783
G1 X116.937 Y100.86 E.01844
G1 X111.921 Y95.844 E.27272
G1 X111.594 Y96.171 E.01778
G1 X116.729 Y101.306 E.27919
G1 X116.536 Y101.767 E.01921
G1 X111.318 Y96.549 E.2837
G1 X111.318 Y97.203 E.02514
G1 X116.365 Y102.25 E.2744
G1 X116.224 Y102.763 E.02045
G1 X111.318 Y97.857 E.26674
G1 X111.318 Y98.511 E.02514
G1 X116.097 Y103.289 E.25981
G1 X116.014 Y103.861 E.02222
G1 X111.318 Y99.165 E.25532
G1 X111.318 Y99.819 E.02514
G1 X115.958 Y104.459 E.25228
G1 X115.933 Y105.087 E.02416
G1 X111.318 Y100.473 E.25089
G1 X111.318 Y101.127 E.02514
G1 X115.974 Y105.783 E.25315
G2 X116.073 Y106.535 I5.539 J-.341 E.02918
G1 X111.318 Y101.78 E.25853
G1 X111.318 Y102.434 E.02514
G1 X116.258 Y107.374 E.26859
G2 X116.581 Y108.351 I7.127 J-1.812 E.03959
G1 X111.318 Y103.088 E.28615
G1 X111.318 Y103.742 E.02514
G1 X117.231 Y109.655 E.32149
G2 X120.344 Y112.768 I7.581 J-4.468 E.17107
M73 P3 R35
G1 X126.258 Y118.682 E.32154
G1 X125.604 Y118.682 E.02514
G1 X111.318 Y104.396 E.77673
G1 X111.318 Y105.05 E.02514
G1 X124.95 Y118.682 E.74117
G1 X124.296 Y118.682 E.02514
G1 X111.318 Y105.704 E.70561
G1 X111.318 Y106.358 E.02514
G1 X123.642 Y118.682 E.67005
G1 X122.989 Y118.682 E.0251
G1 X111.318 Y107.011 E.63455
G1 X111.318 Y107.665 E.02514
G1 X122.335 Y118.682 E.59899
G1 X121.681 Y118.682 E.02514
G1 X111.318 Y108.319 E.56343
G1 X111.318 Y108.973 E.02514
G1 X121.027 Y118.682 E.52788
G1 X120.373 Y118.682 E.02514
G1 X111.318 Y109.627 E.49232
G1 X111.318 Y110.281 E.02514
G1 X119.719 Y118.682 E.45676
G1 X119.065 Y118.682 E.02514
G1 X111.318 Y110.935 E.4212
G1 X111.318 Y111.589 E.02514
G1 X118.411 Y118.682 E.38564
G1 X117.758 Y118.682 E.0251
G1 X111.318 Y112.242 E.35014
G1 X111.318 Y112.896 E.02514
G1 X117.104 Y118.682 E.31458
G1 X116.45 Y118.682 E.02514
G1 X111.113 Y113.345 E.29017
M204 S1000
;LAYER_CHANGE
;Z:0.5
;HEIGHT:0.3
;BEFORE_LAYER_CHANGE
G92 E0.0
;0.5


G1 E-.16 F2100
;WIPE_START
G1 F9600
G1 X113.291 Y115.522 E-.64
;WIPE_END
G1 X113.291 Y115.522 Z.2 F12000
G1 X118.861 Y99.367 Z.5
;AFTER_LAYER_CHANGE
;0.5
@SNAPSHOT
M140 S90 ; set bed temperature
G1 Z.5 F720
G1 E.8 F1500
M204 S1100
;TYPE:Perimeter
;WIDTH:0.5
G1 F4200
G3 X119.674 Y98.588 I6.184 J5.65 E.06122
G3 X121.059 Y97.656 I8.314 J10.847 E.09076
G3 X131.456 Y99.728 I3.935 J7.371 E.62396
G3 X132.345 Y101.059 I-11.6 J8.707 E.08701
G3 X130.272 Y111.456 I-7.372 J3.935 E.62398
G3 X128.941 Y112.345 I-8.707 J-11.6 E.08701
G3 X118.588 Y110.326 I-3.936 J-7.373 E.62021
G3 X117.656 Y108.941 I10.847 J-8.313 E.09076
G3 X116.817 Y106.589 I7.966 J-4.165 E.13612
G3 X118.821 Y99.411 I8.228 J-1.572 E.41962
M204 S1000
G1 X119.179 Y99.663 F12000
;TYPE:External perimeter
G1 F1678.731
G3 X119.967 Y98.911 I5.862 J5.352 E.05923
G1 F1615.207
G3 X121.282 Y98.03 I8.143 J10.73 E.08605
G1 F1678.733
G3 X118.911 Y110.033 I3.714 J6.969 E1.93559
G1 F1615.206
G3 X118.03 Y108.718 I10.729 J-8.142 E.08605
G1 F1678.438
G3 X117.246 Y106.513 I7.554 J-3.926 E.12756
G3 X119.139 Y99.708 I7.795 J-1.498 E.39772
G1 E-.16 F2100
;WIPE_START
G1 F9600
G1 X119.179 Y99.663 E-.01251
G3 X119.967 Y98.911 I5.861 J5.353 E-.22654
G3 X121.282 Y98.03 I8.142 J10.73 E-.32912
G3 X121.59 Y97.874 I3.714 J6.969 E-.07183
;WIPE_END
G1 X110.686 Y114.066 Z.841 F12000
G1 Z.5 F720
G1 E.8 F1500
M204 S1100
;TYPE:Perimeter
G1 F4200
G1 X110.686 Y95.934 E.98516
G1 F3088.861
G1 X115.934 Y90.686 E.40325
G1 F4200
G1 X134.066 Y90.686 E.98516
G1 F3090.881
G1 X139.314 Y95.934 E.40325
G1 F4200
G1 X139.314 Y114.066 E.98516
G1 F3084.273
G1 X134.066 Y119.314 E.40325
G1 F3813.018
G1 X115.934 Y119.314 E.98516
G1 F3088.865
G1 X110.728 Y114.108 E.40002
M204 S1000
G1 X110.25 Y114.246 F12000
;TYPE:External perimeter
G1 F1375.735
G1 X110.25 Y113.32 E.05031
G1 F2400
G1 X110.25 Y96.68 E.9041
G1 F1375.735
G1 X110.25 Y95.754 E.05031
G1 X115.754 Y90.25 E.42292
G1 X116.68 Y90.25 E.05031
G1 F2400
G1 X133.32 Y90.25 E.9041
G1 F1375.737
G1 X134.246 Y90.25 E.05031
G1 X139.75 Y95.754 E.42292
G1 X139.75 Y96.68 E.05031
G1 F2399.995
G1 X139.75 Y113.32 E.9041
G1 F1375.735
G1 X139.75 Y114.246 E.05031
G1 X134.246 Y119.75 E.42292
G1 X133.32 Y119.75 E.05031
G1 F2245.209
G1 X116.68 Y119.75 E.9041
G1 F1375.735
G1 X115.754 Y119.75 E.05031
G1 X110.292 Y114.289 E.41965
G1 E-.16 F2100
;WIPE_START
G1 F9600
G1 X110.25 Y114.246 E-.01249
G1 X110.25 Y113.32 E-.19243
G1 X110.25 Y111.226 E-.43508
;WIPE_END
G1 X110.969 Y96.051 Z.765 F12000
G1 Z.5 F720
G1 E.8 F1500
M204 S1700
;TYPE:Solid infill
;WIDTH:0.404381
G1 F5100
G1 X116.051 Y90.969 E.30478
;WIDTH:0.45219
G1 X116.228 Y91.023 E.00895
;WIDTH:0.5
G1 X116.404 Y91.078 E.01002
G1 X111.078 Y96.404 E.40924
G1 X111.078 Y97.02 E.03347
G1 X117.02 Y91.078 E.45657
G1 X117.637 Y91.078 E.03352
G1 X111.078 Y97.637 E.50398
G1 X111.078 Y98.253 E.03347
G1 X118.253 Y91.078 E.55131
G1 X118.869 Y91.078 E.03347
G1 X111.078 Y98.869 E.59865
G1 X111.078 Y99.485 E.03347
G1 X119.485 Y91.078 E.64598
G1 X120.101 Y91.078 E.03347
M73 P4 R35
G1 X111.078 Y100.101 E.69331
G1 X111.078 Y100.717 E.03347
G1 X120.717 Y91.078 E.74064
G1 X121.333 Y91.078 E.03347
G1 X111.078 Y101.333 E.78798
G1 X111.078 Y101.949 E.03347
G1 X121.949 Y91.078 E.83531
G1 X122.565 Y91.078 E.03347
G1 X111.078 Y102.565 E.88264
G1 X111.078 Y103.181 E.03347
G1 X123.181 Y91.078 E.92997
G1 X123.797 Y91.078 E.03347
G1 X111.078 Y103.797 E.9773
G1 X111.078 Y104.413 E.03347
G1 X124.413 Y91.078 E1.02464
G1 X125.029 Y91.078 E.03347
G1 X111.078 Y105.029 E1.07197
G1 X111.078 Y105.645 E.03347
G1 X125.645 Y91.078 E1.1193
G1 X126.261 Y91.078 E.03347
G1 X111.078 Y106.261 E1.16663
G1 X111.029 Y106.43 E.00956
;WIDTH:0.45219
G1 X110.98 Y106.599 E.00851
;WIDTH:0.404381
G3 X110.92 Y106.539 I-.02 J-.04 E.00472
G1 X110.991 Y106.558 E.00312
M204 S1000
G1 E-.16 F2100
;WIPE_START
G1 F9600
G1 X110.92 Y106.539 E-.01527
G2 X110.98 Y106.599 I.04 J.02 E-.02315
G1 X111.029 Y106.43 E-.03657
G1 X111.078 Y106.261 E-.03657
G1 X112.876 Y104.463 E-.52844
;WIPE_END
G1 X117.916 Y99.986 Z.618 F12000
G1 Z.5 F720
G1 E.8 F1500
M204 S1700
;WIDTH:0.424745
G1 F5100
G1 X118.364 Y99.468 E.03078
;WIDTH:0.404381
G3 X119.477 Y98.356 I14.978 J13.876 E.06674
;WIDTH:0.423947
G1 X119.991 Y97.91 E.03052
;WIDTH:0.461973
G1 X120.145 Y97.783 E.0099
;WIDTH:0.5
G1 X120.299 Y97.656 E.01085
G1 X126.877 Y91.078 E.50544
G1 X127.493 Y91.078 E.03347
G1 X121.614 Y96.957 E.45173
G1 X121.481 Y97.06 E.00914
;WIDTH:0.45219
G1 X121.347 Y97.164 E.0082
;WIDTH:0.404381
G1 X121.276 Y97.145 E.00312
G2 X121.336 Y97.205 I.04 J.02 E.00472
M204 S1000
G1 E-.16 F2100
;WIPE_START
G1 F9600
G3 X121.276 Y97.145 I-.02 J-.04 E-.02315
G1 X121.347 Y97.164 E-.01527
G1 X121.481 Y97.06 E-.03525
G1 X121.614 Y96.957 E-.03496
G1 X123.422 Y95.149 E-.53137
;WIPE_END
G1 X122.998 Y96.689 Z.528 F12000
G1 Z.5 F720
G1 E.8 F1500
M204 S1700
G1 F5100
G1 X122.459 Y96.824 E.02356
G1 X122.254 Y96.816 E.0087
;WIDTH:0.45219
G1 X122.406 Y96.722 E.00864
;WIDTH:0.5
G1 X122.559 Y96.628 E.00976
G1 X128.11 Y91.078 E.42649
G1 X128.726 Y91.078 E.03347
G1 X123.374 Y96.429 E.4112
G1 X124.098 Y96.322 E.03976
G1 X129.342 Y91.078 E.40294
G1 X129.958 Y91.078 E.03347
G1 X124.752 Y96.283 E.39998
G1 X125.361 Y96.291 E.03309
G1 X130.574 Y91.078 E.40056
G1 X131.19 Y91.078 E.03347
G1 X125.938 Y96.329 E.40352
G1 X126.479 Y96.405 E.02968
G1 X131.806 Y91.078 E.40932
G1 X132.422 Y91.078 E.03347
G1 X126.986 Y96.514 E.41769
G1 X127.481 Y96.635 E.02769
G1 X133.038 Y91.078 E.42699
G1 X133.654 Y91.078 E.03347
G1 X127.938 Y96.793 E.43917
G1 X128.387 Y96.961 E.02605
G1 X134.087 Y91.261 E.43798
G1 X134.395 Y91.569 E.02367
G1 X128.807 Y97.157 E.42937
G1 X129.214 Y97.366 E.02486
G1 X134.703 Y91.877 E.42176
G1 X135.011 Y92.185 E.02367
G1 X129.6 Y97.596 E.41577
G1 X129.974 Y97.838 E.0242
G1 X135.319 Y92.493 E.4107
G1 X135.627 Y92.801 E.02367
G1 X130.329 Y98.099 E.40709
G1 X130.669 Y98.375 E.02379
G1 X135.935 Y93.109 E.40463
G1 X136.243 Y93.417 E.02367
G1 X130.993 Y98.667 E.4034
G1 X131.303 Y98.974 E.0237
G1 X136.551 Y93.725 E.40329
G1 X136.859 Y94.033 E.02367
G1 X131.595 Y99.297 E.40448
G1 X131.873 Y99.635 E.02378
G1 X137.167 Y94.341 E.40678
G1 X137.475 Y94.649 E.02367
G1 X132.136 Y99.989 E.41028
G1 X132.381 Y100.359 E.02411
G1 X137.783 Y94.957 E.41508
G1 X138.091 Y95.265 E.02367
G1 X132.612 Y100.744 E.421
G1 X132.821 Y101.152 E.02491
G1 X138.399 Y95.573 E.42864
G1 X138.707 Y95.881 E.02367
G1 X133.018 Y101.571 E.43717
G1 X133.19 Y102.015 E.02587
G1 X139.02 Y96.17 E.44854
;WIDTH:0.45219
G1 X139.118 Y96.058 E.0072
;WIDTH:0.404381
G3 X139.057 Y95.998 I-.02 J-.04 E.00482
G1 X139.129 Y96.017 E.00316
M204 S1000
G1 X138.922 Y96.898 F12000
M204 S1700
;WIDTH:0.5
G1 F5100
G1 X133.351 Y102.47 E.4281
G1 X133.476 Y102.961 E.02753
G1 X138.922 Y97.515 E.41846
G1 X138.922 Y98.131 E.03347
G1 X133.584 Y103.468 E.41012
G1 X133.665 Y104.004 E.02945
