; generated by PrusaSlicer 2.9.3 on 2025-10-27 at 19:03:17 UTC


;
;

;
;

;
;

;
;

;
;
; 

; external perimeters extrusion width = 0.45mm
; perimeters extrusion width = 0.45mm
; infill extrusion width = 0.45mm
; solid infill extrusion width = 0.45mm
; top infill extrusion width = 0.42mm
; first layer extrusion width = 0.50mm

M73 P0 R9

EXCLUDE_OBJECT_DEFINE NAME='100mm_dimension_calibration_tool_stl' CENTER=196.281,152.281 POLYGON=[[202.500,121.250],[202.500,130.750],[202.750,131.000],[224.750,131.000],[225.000,131.250],[225.000,180.750],[224.750,181.000],[175.250,181.000],[175.000,180.750],[175.000,158.750],[174.750,158.500],[165.250,158.500],[165.000,158.250],[165.000,131.250],[165.250,131.000],[174.750,131.000],[175.000,130.750],[175.000,121.250],[175.250,121.000],[202.250,121.000]]

;TYPE:Custom
G90 ; use absolute coordinates
M83 ; extruder relative mode
M104 S170 ; preheat hotend to 170
M140 S85 ; set bed temp
M190 S85 ; wait for bed temp
G28 ; home all
;G29 ; mesh bed leveling
BED_MESH_CALIBRATE
G0 X0 Z0.6 Y-3.0 F1000.0 ; go outside print area for intro line
M104 S225 ; set hotend temp
M109 S225 ; wait for hotend temp
;M104 S0 ; Stops PS/SS from sending temp waits separately
;M140 S0
;PRINT_START BED=85 HOTEND=225
G92 E0.0
G1 X60.0 E9.0 F1000.0 ; intro line
G1 X100.0 E12.5 F1000.0 ; intro line
G92 E0.0
SKEW_PROFILE LOAD=CaliFlower

; KLIPPER_PLR
G31
save_last_file
SAVE_VARIABLE VARIABLE=was_interrupted VALUE=True
G21 ; set units to millimeters
G90 ; use absolute coordinates
M83 ; use relative distances for extrusion
M900 K0.07 ; Filament gcode



M142 S36 ; set heatbreak target temp
M107
;LAYER_CHANGE
;Z:0.2
;HEIGHT:0.2
G1 E-.8 F2100
M73 P1 R9
G1 Z1.7 F720
EXCLUDE_OBJECT_START NAME='100mm_dimension_calibration_tool_stl'
G1 X220.273 Y154.776 F12000
G1 Z.2 F720
G1 E.8 F1500
M204 S600
;TYPE:Perimeter
;WIDTH:0.499999
G1 F1200
G1 X219.842 Y154.864 E.01672
G1 X202.658 Y154.864 E.6531
G1 X202.381 Y154.83 E.01061
G1 X202.147 Y154.744 E.00948
G1 X201.85 Y154.529 E.01394
G1 X201.471 Y154.15 E.02037
G1 X201.256 Y153.853 E.01394
G1 X201.14 Y153.441 E.01627
G1 X201.136 Y153.342 E.00377
G1 X201.136 Y136.158 E.6531
G1 X201.23 Y135.704 E.01762
G1 X201.471 Y135.35 E.01628
G1 X201.85 Y134.971 E.02037
G1 X202.21 Y134.727 E.01653
G1 X202.658 Y134.636 E.01737
G1 X219.842 Y134.636 E.6531
G1 X220.296 Y134.73 E.01762
G1 X220.65 Y134.971 E.01628
G1 X221.029 Y135.35 E.02037
G1 X221.27 Y135.704 E.01628
G1 X221.364 Y136.158 E.01762
G1 X221.364 Y153.342 E.6531
G1 X221.27 Y153.796 E.01762
M73 P2 R9
G1 X221.029 Y154.15 E.01628
G1 X220.65 Y154.529 E.02037
G1 X220.326 Y154.748 E.01486
M204 S1000
G1 X220.1 Y154.354 F12000
M204 S600
G1 F1200
G1 X219.842 Y154.407 E.01001
G1 X202.658 Y154.407 E.6531
G1 X202.352 Y154.335 E.01195
G1 X201.984 Y154.016 E.01851
G1 X201.665 Y153.648 E.01851
G1 X201.593 Y153.342 E.01195
G1 X201.593 Y136.158 E.6531
G1 X201.649 Y135.886 E.01055
M73 P2 R8
G1 X201.794 Y135.673 E.00979
G1 X202.173 Y135.294 E.02037
G1 X202.389 Y135.148 E.00991
G1 X202.658 Y135.093 E.01044
G1 X219.842 Y135.093 E.6531
G1 X220.114 Y135.149 E.01055
G1 X220.516 Y135.484 E.01989
G1 X220.851 Y135.886 E.01989
G1 X220.907 Y136.158 E.01055
G1 X220.907 Y153.342 E.6531
G1 X220.851 Y153.614 E.01055
G1 X220.706 Y153.827 E.00979
G1 X220.327 Y154.206 E.02037
G1 X220.152 Y154.324 E.00802
M204 S1000
G1 X219.923 Y153.917 F12000
M204 S600
;TYPE:External perimeter
G1 F1200
G1 X219.842 Y153.95 E.00332
G1 X202.658 Y153.95 E.6531
G1 X202.556 Y153.926 E.00398
G1 X202.117 Y153.503 E.02317
G1 X202.05 Y153.342 E.00663
G1 X202.05 Y136.158 E.6531
G1 X202.117 Y135.997 E.00663
M73 P3 R8
G1 X202.497 Y135.617 E.02042
G1 X202.658 Y135.55 E.00663
G1 X219.842 Y135.55 E.6531
G1 X220.003 Y135.617 E.00663
G1 X220.383 Y135.997 E.02042
G1 X220.45 Y136.158 E.00663
G1 X220.45 Y153.342 E.6531
G1 X220.383 Y153.503 E.00663
G1 X220.003 Y153.883 E.02042
G1 X219.978 Y153.894 E.00104
M204 S1000
G1 E-.16 F2100
;WIPE_START
G1 F9600
G1 X219.923 Y153.917 E-.01239
G1 X219.842 Y153.95 E-.01818
G1 X216.909 Y153.95 E-.60943
;WIPE_END
G1 X220.273 Y177.275 Z.611 F12000
G1 Z.2 F720
G1 E.8 F1500
M204 S600
;TYPE:Perimeter
G1 F1200
G1 X219.842 Y177.364 E.01673
G1 X202.658 Y177.364 E.6531
G1 X202.204 Y177.27 E.01762
G1 X201.85 Y177.029 E.01628
G1 X201.471 Y176.65 E.02037
G1 X201.227 Y176.29 E.01653
G1 X201.136 Y175.842 E.01737
G1 X201.136 Y158.658 E.6531
G1 X201.17 Y158.381 E.01061
G1 X201.364 Y157.973 E.01717
G1 X201.85 Y157.471 E.02656
G1 X202.147 Y157.256 E.01394
G1 X202.381 Y157.17 E.00948
G1 X202.658 Y157.136 E.01061
G1 X219.842 Y157.136 E.6531
G1 X220.29 Y157.227 E.01737
M73 P4 R8
G1 X220.65 Y157.471 E.01653
G1 X221.029 Y157.85 E.02037
G1 X221.27 Y158.204 E.01628
G1 X221.364 Y158.658 E.01762
G1 X221.364 Y175.842 E.6531
G1 X221.27 Y176.296 E.01762
G1 X221.029 Y176.65 E.01628
G1 X220.65 Y177.029 E.02037
G1 X220.326 Y177.249 E.01488
M204 S1000
G1 X220.097 Y176.854 F12000
M204 S600
G1 F1200
G1 X219.842 Y176.907 E.0099
G1 X202.658 Y176.907 E.6531
G1 X202.386 Y176.851 E.01055
G1 X202.173 Y176.706 E.00979
G1 X201.794 Y176.327 E.02037
G1 X201.648 Y176.111 E.00991
G1 X201.593 Y175.842 E.01044
G1 X201.593 Y158.658 E.6531
G1 X201.665 Y158.352 E.01195
G1 X201.984 Y157.984 E.01851
G1 X202.352 Y157.665 E.01851
G1 X202.658 Y157.593 E.01195
G1 X219.842 Y157.593 E.6531
G1 X220.111 Y157.648 E.01044
G1 X220.327 Y157.794 E.00991
G1 X220.706 Y158.173 E.02037
G1 X220.851 Y158.386 E.00979
G1 X220.907 Y158.658 E.01055
G1 X220.907 Y175.842 E.6531
G1 X220.851 Y176.114 E.01055
G1 X220.516 Y176.516 E.01989
G1 X220.147 Y176.824 E.01827
M204 S1000
G1 X219.923 Y176.417 F12000
M204 S600
;TYPE:External perimeter
G1 F1200
G1 X219.842 Y176.45 E.00332
G1 X202.658 Y176.45 E.6531
G1 X202.497 Y176.383 E.00663
M73 P5 R8
G1 X202.117 Y176.003 E.02042
G1 X202.05 Y175.842 E.00663
G1 X202.05 Y158.658 E.6531
G1 X202.117 Y158.497 E.00663
G1 X202.497 Y158.117 E.02042
G1 X202.658 Y158.05 E.00663
G1 X219.842 Y158.05 E.6531
G1 X220.003 Y158.117 E.00663
G1 X220.383 Y158.497 E.02042
G1 X220.45 Y158.658 E.00663
G1 X220.45 Y175.842 E.6531
G1 X220.383 Y176.003 E.00663
G1 X220.003 Y176.383 E.02042
G1 X219.978 Y176.394 E.00104
M204 S1000
G1 E-.16 F2100
;WIPE_START
G1 F9600
G1 X219.923 Y176.417 E-.01239
G1 X219.842 Y176.45 E-.01818
G1 X216.909 Y176.45 E-.60943
;WIPE_END
G1 X197.773 Y177.275 Z.534 F12000
G1 Z.2 F720
G1 E.8 F1500
M204 S600
;TYPE:Perimeter
G1 F1200
G1 X197.342 Y177.364 E.01673
G1 X180.158 Y177.364 E.6531
G1 X179.704 Y177.27 E.01762
G1 X179.35 Y177.029 E.01628
G1 X178.971 Y176.65 E.02037
G1 X178.73 Y176.296 E.01628
G1 X178.636 Y175.842 E.01762
G1 X178.636 Y158.658 E.6531
G1 X178.727 Y158.21 E.01737
M73 P6 R8
G1 X178.971 Y157.85 E.01653
G1 X179.35 Y157.471 E.02037
G1 X179.704 Y157.23 E.01628
G1 X180.158 Y157.136 E.01762
G1 X197.342 Y157.136 E.6531
G1 X197.619 Y157.17 E.01061
G1 X198.027 Y157.364 E.01717
G1 X198.529 Y157.85 E.02656
G1 X198.744 Y158.147 E.01394
G1 X198.83 Y158.381 E.00948
G1 X198.864 Y158.658 E.01061
G1 X198.864 Y175.842 E.6531
G1 X198.773 Y176.29 E.01737
G1 X198.529 Y176.65 E.01653
G1 X198.15 Y177.029 E.02037
G1 X197.826 Y177.249 E.01488
M204 S1000
G1 X197.6 Y176.854 F12000
M204 S600
G1 F1200
G1 X197.342 Y176.907 E.01001
G1 X180.158 Y176.907 E.6531
G1 X179.886 Y176.851 E.01055
G1 X179.484 Y176.516 E.01989
G1 X179.149 Y176.114 E.01989
G1 X179.093 Y175.842 E.01055
G1 X179.093 Y158.658 E.6531
G1 X179.148 Y158.389 E.01044
G1 X179.294 Y158.173 E.00991
G1 X179.673 Y157.794 E.02037
G1 X179.886 Y157.649 E.00979
G1 X180.158 Y157.593 E.01055
G1 X197.342 Y157.593 E.6531
G1 X197.648 Y157.665 E.01195
G1 X198.016 Y157.984 E.01851
G1 X198.335 Y158.352 E.01851
G1 X198.407 Y158.658 E.01195
G1 X198.407 Y175.842 E.6531
G1 X198.352 Y176.111 E.01044
M73 P7 R8
G1 X198.206 Y176.327 E.00991
G1 X197.827 Y176.706 E.02037
G1 X197.652 Y176.825 E.00804
M204 S1000
G1 X197.423 Y176.417 F12000
M204 S600
;TYPE:External perimeter
G1 F1200
G1 X197.342 Y176.45 E.00332
G1 X180.158 Y176.45 E.6531
G1 X179.997 Y176.383 E.00663
G1 X179.617 Y176.003 E.02042
G1 X179.55 Y175.842 E.00663
G1 X179.55 Y158.658 E.6531
G1 X179.617 Y158.497 E.00663
G1 X179.997 Y158.117 E.02042
G1 X180.158 Y158.05 E.00663
G1 X197.342 Y158.05 E.6531
G1 X197.503 Y158.117 E.00663
G1 X197.883 Y158.497 E.02042
G1 X197.95 Y158.658 E.00663
G1 X197.95 Y175.842 E.6531
G1 X197.883 Y176.003 E.00663
G1 X197.503 Y176.383 E.02042
G1 X197.478 Y176.394 E.00104
M204 S1000
G1 E-.16 F2100
;WIPE_START
G1 F9600
G1 X197.423 Y176.417 E-.01239
G1 X197.342 Y176.45 E-.01818
G1 X194.409 Y176.45 E-.60943
;WIPE_END
G1 X169.727 Y154.775 Z.773 F12000
G1 Z.2 F720
G1 E.8 F1500
M204 S600
;TYPE:Perimeter
G1 F1200
G1 X169.704 Y154.77 E.00089
G1 X169.35 Y154.529 E.01628
G1 X168.971 Y154.15 E.02037
G1 X168.73 Y153.796 E.01628
G1 X168.636 Y153.342 E.01762
G1 X168.636 Y136.158 E.6531
G1 X168.73 Y135.704 E.01762
G1 X168.971 Y135.35 E.01628
M73 P8 R8
G1 X169.35 Y134.971 E.02037
G1 X169.704 Y134.73 E.01628
G1 X170.158 Y134.636 E.01762
G1 X178.636 Y134.636 E.32222
G1 X178.636 Y126.158 E.32222
G1 X178.73 Y125.704 E.01762
G1 X178.971 Y125.35 E.01628
G1 X179.35 Y124.971 E.02037
G1 X179.704 Y124.73 E.01628
G1 X180.158 Y124.636 E.01762
G1 X197.342 Y124.636 E.6531
G1 X197.796 Y124.73 E.01762
G1 X198.15 Y124.971 E.01628
G1 X198.529 Y125.35 E.02037
G1 X198.77 Y125.704 E.01628
G1 X198.864 Y126.158 E.01762
G1 X198.864 Y153.342 E1.03316
G1 X198.83 Y153.619 E.01061
G1 X198.636 Y154.027 E.01717
G1 X198.15 Y154.529 E.02656
G1 X197.853 Y154.744 E.01394
G1 X197.619 Y154.83 E.00948
G1 X197.342 Y154.864 E.01061
G1 X174.842 Y154.864 E.85514
G1 X170.158 Y154.864 E.17802
G1 X169.786 Y154.787 E.01444
M204 S1000
G1 X169.903 Y154.354 F12000
M204 S600
G1 F1200
G1 X169.886 Y154.351 E.00066
G1 X169.484 Y154.016 E.01989
G1 X169.149 Y153.614 E.01989
G1 X169.093 Y153.342 E.01055
G1 X169.093 Y136.158 E.6531
G1 X169.149 Y135.886 E.01055
M73 P9 R8
G1 X169.484 Y135.484 E.01989
G1 X169.886 Y135.149 E.01989
G1 X170.158 Y135.093 E.01055
G1 X179.093 Y135.093 E.33959
G1 X179.093 Y126.158 E.33959
G1 X179.149 Y125.886 E.01055
G1 X179.484 Y125.484 E.01989
G1 X179.886 Y125.149 E.01989
G1 X180.158 Y125.093 E.01055
G1 X197.342 Y125.093 E.6531
G1 X197.614 Y125.149 E.01055
G1 X198.016 Y125.484 E.01989
G1 X198.351 Y125.886 E.01989
G1 X198.407 Y126.158 E.01055
G1 X198.407 Y153.342 E1.03316
G1 X198.335 Y153.648 E.01195
G1 X198.016 Y154.016 E.01851
G1 X197.648 Y154.335 E.01851
G1 X197.342 Y154.407 E.01195
G1 X174.842 Y154.407 E.85514
G1 X170.158 Y154.407 E.17802
G1 X169.962 Y154.366 E.00761
M204 S1000
G1 X170.077 Y153.917 F12000
M204 S600
;TYPE:External perimeter
G1 F1200
G1 X169.997 Y153.883 E.0033
G1 X169.617 Y153.503 E.02042
G1 X169.55 Y153.342 E.00663
G1 X169.55 Y136.158 E.6531
G1 X169.617 Y135.997 E.00663
M73 P10 R8
G1 X169.997 Y135.617 E.02042
G1 X170.158 Y135.55 E.00663
G1 X179.55 Y135.55 E.35695
G1 X179.55 Y126.158 E.35695
G1 X179.617 Y125.997 E.00663
G1 X179.997 Y125.617 E.02042
G1 X180.158 Y125.55 E.00663
G1 X197.342 Y125.55 E.6531
G1 X197.503 Y125.617 E.00663
G1 X197.883 Y125.997 E.02042
G1 X197.95 Y126.158 E.00663
G1 X197.95 Y153.342 E1.03316
G1 X197.883 Y153.503 E.00663
G1 X197.503 Y153.883 E.02042
G1 X197.342 Y153.95 E.00663
G1 X174.842 Y153.95 E.85514
G1 X170.158 Y153.95 E.17802
G1 X170.133 Y153.939 E.00104
M204 S1000
G1 E-.16 F2100
;WIPE_START
G1 F9600
G1 X170.077 Y153.917 E-.0125
G1 X169.997 Y153.883 E-.01806
G1 X169.617 Y153.503 E-.11168
G1 X169.55 Y153.342 E-.03624
G1 X169.55 Y151.121 E-.46152
;WIPE_END
G1 X176.276 Y158.227 Z.371 F12000
G1 Z.2 F720
M73 P11 R8
G1 E.8 F1500
M204 S600
;TYPE:Perimeter
G1 F1200
G1 X176.273 Y158.21 E.00066
G1 X176.029 Y157.85 E.01653
G1 X175.65 Y157.471 E.02037
G1 X175.296 Y157.23 E.01628
G1 X174.842 Y157.136 E.01762
G1 X166.364 Y157.136 E.32222
G1 X166.364 Y132.364 E.94149
G1 X174.842 Y132.364 E.32222
G1 X175.296 Y132.27 E.01762
G1 X175.65 Y132.029 E.01628
G1 X176.029 Y131.65 E.02037
G1 X176.27 Y131.296 E.01628
G1 X176.364 Y130.842 E.01762
G1 X176.364 Y122.364 E.32222
G1 X201.136 Y122.364 E.94149
G1 X201.136 Y130.842 E.32222
G1 X201.23 Y131.296 E.01762
G1 X201.471 Y131.65 E.01628
G1 X201.85 Y132.029 E.02037
G1 X202.21 Y132.273 E.01653
G1 X202.658 Y132.364 E.01737
G1 X223.636 Y132.364 E.7973
G1 X223.636 Y179.636 E1.79663
M73 P12 R8
G1 X176.364 Y179.636 E1.79663
G1 X176.364 Y158.658 E.7973
G1 X176.288 Y158.285 E.01447
M73 P13 R8
M204 S1000
G1 X175.854 Y158.4 F12000
M204 S600
G1 F1200
G1 X175.852 Y158.389 E.00042
G1 X175.706 Y158.173 E.00991
G1 X175.327 Y157.794 E.02037
G1 X175.114 Y157.649 E.00979
G1 X174.842 Y157.593 E.01055
G1 X165.907 Y157.593 E.33959
G1 X165.907 Y131.907 E.97623
G1 X174.842 Y131.907 E.33959
M73 P13 R7
G1 X175.114 Y131.851 E.01055
G1 X175.516 Y131.516 E.01989
G1 X175.851 Y131.114 E.01989
G1 X175.907 Y130.842 E.01055
G1 X175.907 Y121.907 E.33959
G1 X201.593 Y121.907 E.97623
G1 X201.593 Y130.842 E.33959
G1 X201.649 Y131.114 E.01055
G1 X201.794 Y131.327 E.00979
G1 X202.173 Y131.706 E.02037
G1 X202.389 Y131.852 E.00991
G1 X202.658 Y131.907 E.01044
G1 X224.093 Y131.907 E.81466
G1 X224.093 Y180.093 E1.83137
M73 P14 R7
G1 X175.907 Y180.093 E1.83137
G1 X175.907 Y158.658 E.81466
M73 P15 R7
G1 X175.866 Y158.458 E.00776
M204 S1000
G1 X175.417 Y158.577 F12000
M204 S600
;TYPE:External perimeter
G1 F1200
G1 X175.383 Y158.497 E.0033
G1 X175.003 Y158.117 E.02042
G1 X174.842 Y158.05 E.00663
G1 X165.45 Y158.05 E.35695
G1 X165.45 Y131.45 E1.01097
G1 X174.842 Y131.45 E.35695
G1 X175.003 Y131.383 E.00663
G1 X175.383 Y131.003 E.02042
G1 X175.45 Y130.842 E.00663
G1 X175.45 Y121.45 E.35695
G1 X202.05 Y121.45 E1.01097
G1 X202.05 Y130.842 E.35695
G1 X202.117 Y131.003 E.00663
M73 P16 R7
G1 X202.497 Y131.383 E.02042
G1 X202.658 Y131.45 E.00663
G1 X224.55 Y131.45 E.83203
G1 X224.55 Y180.55 E1.86611
G1 X175.45 Y180.55 E1.86611
G1 X175.45 Y158.658 E.83203
M73 P17 R7
G1 X175.439 Y158.633 E.00104
M204 S1000
G1 E-.16 F2100
;WIPE_START
G1 F9600
G1 X175.417 Y158.577 E-.0125
G1 X175.383 Y158.497 E-.01806
G1 X175.003 Y158.117 E-.11168
G1 X174.842 Y158.05 E-.03624
G1 X172.621 Y158.05 E-.46152
;WIPE_END
G1 X223.43 Y133.495 Z1.185 F12000
G1 Z.2 F720
G1 E.8 F1500
M204 S600
;TYPE:Solid infill
;WIDTH:0.500403
G1 F1200
G1 X222.711 Y132.776 E.03868
G1 X222.064 Y132.776 E.02461
G1 X223.224 Y133.936 E.0624
G1 X223.224 Y134.583 E.02461
G1 X221.417 Y132.776 E.09721
G1 X220.77 Y132.776 E.02461
G1 X223.224 Y135.23 E.13202
G1 X223.224 Y135.877 E.02461
G1 X220.123 Y132.776 E.16682
G1 X219.476 Y132.776 E.02461
G1 X223.224 Y136.524 E.20163
G1 X223.224 Y137.171 E.02461
G1 X218.829 Y132.776 E.23644
G1 X218.182 Y132.776 E.02461
G1 X219.631 Y134.224 E.07792
G1 X218.984 Y134.224 E.02461
G1 X217.535 Y132.776 E.07792
G1 X216.888 Y132.776 E.02461
G1 X218.337 Y134.224 E.07792
G1 X217.69 Y134.224 E.02461
G1 X216.241 Y132.776 E.07792
G1 X215.594 Y132.776 E.02461
G1 X217.043 Y134.224 E.07792
G1 X216.396 Y134.224 E.02461
G1 X214.947 Y132.776 E.07792
G1 X214.3 Y132.776 E.02461
G1 X215.749 Y134.224 E.07792
G1 X215.102 Y134.224 E.02461
G1 X213.653 Y132.776 E.07792
G1 X213.006 Y132.776 E.02461
G1 X214.455 Y134.224 E.07792
G1 X213.808 Y134.224 E.02461
M73 P18 R7
G1 X212.359 Y132.776 E.07792
G1 X211.712 Y132.776 E.02461
G1 X213.161 Y134.224 E.07792
G1 X212.514 Y134.224 E.02461
G1 X211.065 Y132.776 E.07792
G1 X210.418 Y132.776 E.02461
G1 X211.867 Y134.224 E.07792
G1 X211.22 Y134.224 E.02461
G1 X209.771 Y132.776 E.07792
G1 X209.124 Y132.776 E.02461
G1 X210.573 Y134.224 E.07792
G1 X209.926 Y134.224 E.02461
G1 X208.477 Y132.776 E.07792
G1 X207.831 Y132.776 E.02457
G1 X209.279 Y134.224 E.0779
G1 X208.632 Y134.224 E.02461
G1 X207.184 Y132.776 E.0779
G1 X206.537 Y132.776 E.02461
G1 X207.985 Y134.224 E.0779
G1 X207.339 Y134.224 E.02457
G1 X205.89 Y132.776 E.07792
G1 X205.243 Y132.776 E.02461
G1 X206.692 Y134.224 E.07792
G1 X206.045 Y134.224 E.02461
G1 X204.596 Y132.776 E.07792
G1 X203.949 Y132.776 E.02461
G1 X205.398 Y134.224 E.07792
G1 X204.751 Y134.224 E.02461
G1 X203.096 Y132.57 E.08901
M204 S1000
G1 E-.16 F2100
;WIPE_START
G1 F9600
G1 X204.751 Y134.224 E-.48624
G1 X205.398 Y134.224 E-.13445
G1 X205.332 Y134.158 E-.01931
;WIPE_END
G1 X200.213 Y122.57 Z.421 F12000
G1 Z.2 F720
