; generated by PrusaSlicer 2.9.3 on 2025-10-20 at 19:22:41 UTC


;
;

;
;

;
;

;
;

;
;
; 

; external perimeters extrusion width = 0.45mm
; perimeters extrusion width = 0.45mm
; infill extrusion width = 0.45mm
; solid infill extrusion width = 0.45mm
; top infill extrusion width = 0.40mm
; first layer extrusion width = 0.50mm

; external perimeters extrusion width = 0.45mm
; perimeters extrusion width = 0.45mm
; infill extrusion width = 0.45mm
; solid infill extrusion width = 0.45mm
; top infill extrusion width = 0.40mm
; first layer extrusion width = 0.50mm

; external perimeters extrusion width = 0.45mm
; perimeters extrusion width = 0.45mm
; infill extrusion width = 0.45mm
; solid infill extrusion width = 0.45mm
; top infill extrusion width = 0.40mm
; first layer extrusion width = 0.50mm

; external perimeters extrusion width = 0.45mm
; perimeters extrusion width = 0.45mm
; infill extrusion width = 0.45mm
; solid infill extrusion width = 0.45mm
; top infill extrusion width = 0.40mm
; first layer extrusion width = 0.50mm

M73 P0 R78

EXCLUDE_OBJECT_DEFINE NAME='crysknife(21)_stl' CENTER=51.434,64.266 POLYGON=[[89.123,81.490],[71.742,80.847],[55.930,80.399],[39.462,80.046],[10.780,79.687],[10.780,51.366],[21.560,50.286],[46.823,48.241],[73.449,46.540],[89.123,45.782]]
EXCLUDE_OBJECT_DEFINE NAME='crysknife(17)_stl' CENTER=193.525,19.121 POLYGON=[[239.220,38.196],[233.071,37.988],[205.428,36.652],[178.887,34.956],[153.704,32.918],[143.543,31.901],[143.543,3.616],[171.076,3.268],[187.544,2.915],[203.356,2.466],[218.359,1.928],[239.220,0.935]]
EXCLUDE_OBJECT_DEFINE NAME='crysknife(23)_stl' CENTER=70.006,167.205 POLYGON=[[89.948,147.871],[89.447,154.078],[88.432,170.218],[80.111,170.218],[80.111,209.838],[59.910,209.838],[59.910,170.218],[51.017,170.218],[50.321,149.641],[50.074,137.323],[51.338,137.388],[54.037,137.161],[56.611,136.544],[89.948,136.544]]
EXCLUDE_OBJECT_DEFINE NAME='crysknife(22)_stl' CENTER=185.475,108.644 POLYGON=[[144.368,88.823],[154.969,89.035],[183.540,90.002],[195.593,90.584],[235.346,98.688],[235.346,118.888],[195.593,126.292],[153.013,128.791],[144.368,128.791]]

;TYPE:Custom
G90 ; use absolute coordinates
M83 ; extruder relative mode
M104 S170 ; preheat hotend to 170
M140 S60 ; set bed temp
M190 S60 ; wait for bed temp
G28 ; home all
;G29 ; mesh bed leveling
BED_MESH_CALIBRATE
G0 X0 Z0.6 Y-3.0 F1000.0 ; go outside print area for intro line
M104 S215 ; set hotend temp
M109 S215 ; wait for hotend temp
;M104 S0 ; Stops PS/SS from sending temp waits separately
;M140 S0
;PRINT_START BED=60 HOTEND=215
G92 E0.0
G1 X60.0 E9.0 F1000.0 ; intro line
G1 X100.0 E12.5 F1000.0 ; intro line
G92 E0.0
SKEW_PROFILE LOAD=CaliFlower
G21 ; set units to millimeters
G90 ; use absolute coordinates
M83 ; use relative distances for extrusion

M900 K0.05 ; Legacy LA


M142 S36 ; set heatbreak target temp
M107
;LAYER_CHANGE
;Z:0.2
;HEIGHT:0.2
G1 E-2 F2100
G1 Z.8 F720
EXCLUDE_OBJECT_START NAME='crysknife(21)_stl'
G1 X12.144 Y54.993 F12000
G1 Z.2 F720
G1 E2 F1500
M204 S600
;TYPE:Perimeter
;WIDTH:0.499999
G1 F1200
G1 X29.602 Y53.245 E.66683
G1 X53.641 Y51.3 E.91662
G1 X78.98 Y49.68 E.96501
G1 X87.759 Y49.256 E.33405
G1 X87.759 Y57.98 E.33157
G1 X87.759 Y80.064 E.83933
G1 X71.79 Y79.483 E.60732
G1 X55.968 Y79.035 E.60158
G1 X39.49 Y78.682 E.62641
G1 X22.513 Y78.428 E.6453
G1 X12.144 Y78.335 E.3941
G1 X12.144 Y55.053 E.88486
M204 S1000
G1 X11.687 Y54.58 F12000
M204 S600
G1 F1200
G1 X29.561 Y52.79 E.68272
G1 X53.608 Y50.844 E.91692
G1 X78.954 Y49.224 E.96527
G1 X88.216 Y48.776 E.35243
G1 X88.216 Y57.98 E.34981
G1 X88.216 Y80.542 E.8575
G1 X86.784 Y80.478 E.05448
G1 X71.773 Y79.94 E.57088
G1 X55.955 Y79.492 E.60142
G1 X39.48 Y79.139 E.6263
G1 X22.507 Y78.885 E.64515
G1 X11.687 Y78.788 E.41124
G1 X11.687 Y54.64 E.91778
M204 S1000
G1 X11.23 Y54.166 F12000
M204 S600
;TYPE:External perimeter
G1 F1200
G1 X29.52 Y52.334 E.69861
G1 X53.575 Y50.388 E.91723
G1 X78.929 Y48.767 E.96558
G1 X88.673 Y48.296 E.37077
G1 X88.673 Y57.98 E.36805
G1 X88.673 Y81.02 E.87566
G1 X86.764 Y80.935 E.07263
G1 X71.757 Y80.397 E.57073
G1 X55.942 Y79.949 E.60131
G1 X39.471 Y79.596 E.62615
G1 X22.5 Y79.342 E.64508
G1 X11.23 Y79.241 E.42835
G1 X11.23 Y54.226 E.95073
M204 S1000
G1 E-1.6 F2100
;WIPE_START
G1 F9600
G1 X11.23 Y54.166 E-.01247
G1 X13.086 Y53.98 E-.38753
;WIPE_END
G1 X47.42 Y52.319 Z.8 F12000
G1 X87.576 Y50.376
G1 Z.2 F720
G1 E2 F1500
M204 S600
;TYPE:Solid infill
;WIDTH:0.502749
G1 F1200
G1 X86.886 Y49.687 E.03728
G1 X86.266 Y49.717 E.02373
G1 X87.37 Y50.821 E.0597
G1 X87.37 Y51.471 E.02485
G1 X85.646 Y49.747 E.09322
G1 X85.025 Y49.777 E.02377
G1 X87.37 Y52.122 E.1268
G1 X87.37 Y52.772 E.02485
G1 X84.405 Y49.807 E.16032
G1 X83.785 Y49.837 E.02373
G1 X87.37 Y53.422 E.19385
G1 X87.37 Y54.072 E.02485
G1 X83.164 Y49.867 E.2274
G1 X82.544 Y49.897 E.02373
G1 X87.37 Y54.723 E.26095
G1 X87.37 Y55.373 E.02485
G1 X81.924 Y49.927 E.29448
G1 X81.303 Y49.957 E.02377
M73 P0 R77
G1 X87.37 Y56.023 E.32803
G1 X87.37 Y56.674 E.02489
G1 X80.683 Y49.987 E.36158
G1 X80.063 Y50.017 E.02373
G1 X87.37 Y57.324 E.39511
G1 X87.37 Y57.974 E.02485
G1 X79.442 Y50.047 E.42866
G1 X78.825 Y50.079 E.02362
G1 X87.37 Y58.625 E.46208
G1 X87.37 Y59.275 E.02485
G1 X78.213 Y50.118 E.49514
G1 X77.602 Y50.157 E.02341
G1 X87.37 Y59.925 E.52818
G1 X87.37 Y60.575 E.02485
G1 X76.991 Y50.196 E.56122
G1 X76.38 Y50.235 E.02341
G1 X87.37 Y61.226 E.59428
G1 X87.37 Y61.876 E.02485
M73 P1 R77
G1 X75.769 Y50.275 E.62729
G1 X75.157 Y50.314 E.02345
G1 X87.37 Y62.526 E.66036
G1 X87.37 Y63.177 E.02489
G1 X74.546 Y50.353 E.69342
G1 X73.935 Y50.392 E.02341
G1 X87.37 Y63.827 E.72646
G1 X87.37 Y64.477 E.02485
G1 X73.324 Y50.431 E.7595
G1 X72.712 Y50.47 E.02345
G1 X87.37 Y65.127 E.79257
G1 X87.37 Y65.778 E.02489
G1 X72.101 Y50.509 E.82563
G1 X71.49 Y50.548 E.02341
G1 X87.37 Y66.428 E.85867
G1 X87.37 Y67.078 E.02485
G1 X70.879 Y50.587 E.89171
G1 X70.268 Y50.626 E.02341
G1 X87.37 Y67.729 E.92477
G1 X87.37 Y68.379 E.02485
G1 X69.656 Y50.665 E.95784
G1 X69.045 Y50.704 E.02341
G1 X87.37 Y69.029 E.99088
G1 X87.37 Y69.68 E.02489
G1 X68.434 Y50.743 E1.02394
G1 X67.823 Y50.782 E.02341
G1 X87.37 Y70.33 E1.05698
G1 X87.37 Y70.98 E.02485
G1 X67.211 Y50.822 E1.09002
G1 X66.6 Y50.861 E.02341
G1 X87.37 Y71.63 E1.12306
G1 X87.37 Y72.281 E.02489
G1 X65.989 Y50.9 E1.15612
G1 X65.378 Y50.939 E.02341
G1 X87.37 Y72.931 E1.18916
G1 X87.37 Y73.581 E.02485
G1 X64.767 Y50.978 E1.2222
G1 X64.155 Y51.017 E.02345
G1 X87.37 Y74.232 E1.25529
G1 X87.37 Y74.882 E.02485
G1 X63.544 Y51.056 E1.28833
G1 X62.933 Y51.095 E.02341
G1 X87.37 Y75.532 E1.32137
G1 X87.37 Y76.183 E.02489
G1 X62.322 Y51.134 E1.35443
G1 X61.71 Y51.173 E.02345
G1 X87.37 Y76.833 E1.3875
G1 X87.37 Y77.483 E.02485
G1 X61.099 Y51.212 E1.42054
G1 X60.488 Y51.251 E.02341
G1 X87.37 Y78.133 E1.45357
G1 X87.37 Y78.784 E.02489
G1 X59.877 Y51.29 E1.48664
G1 X59.266 Y51.33 E.02341
G1 X87.37 Y79.434 E1.51965
G1 X87.37 Y79.659 E.0086
G1 X86.929 Y79.643 E.01687
G1 X58.654 Y51.369 E1.52887
G1 X58.043 Y51.408 E.02341
G1 X86.254 Y79.619 E1.52544
G1 X85.58 Y79.594 E.02579
G1 X57.432 Y51.447 E1.522
G1 X56.821 Y51.486 E.02341
M73 P2 R77
G1 X84.905 Y79.57 E1.51857
G1 X84.23 Y79.546 E.02582
G1 X56.209 Y51.525 E1.51516
G1 X55.598 Y51.564 E.02341
G1 X83.555 Y79.521 E1.5117
G1 X82.881 Y79.497 E.02579
G1 X54.987 Y51.603 E1.50829
G1 X54.376 Y51.642 E.02341
M73 P2 R76
G1 X82.206 Y79.472 E1.50483
G1 X81.531 Y79.448 E.02582
G1 X53.765 Y51.681 E1.5014
G1 X53.161 Y51.728 E.02316
G1 X80.856 Y79.423 E1.49753
G1 X80.182 Y79.399 E.02579
G1 X52.56 Y51.777 E1.49359
G1 X51.958 Y51.826 E.02309
G1 X79.507 Y79.374 E1.48961
G1 X78.832 Y79.35 E.02582
G1 X51.357 Y51.874 E1.48567
G1 X50.755 Y51.923 E.02309
G1 X78.157 Y79.325 E1.48169
G1 X77.483 Y79.301 E.02579
G1 X50.153 Y51.972 E1.47777
G1 X49.552 Y52.02 E.02305
G1 X76.808 Y79.276 E1.4738
G1 X76.133 Y79.252 E.02582
G1 X48.95 Y52.069 E1.46985
G1 X48.349 Y52.118 E.02306
G1 X75.458 Y79.228 E1.46587
G1 X74.784 Y79.203 E.02579
G1 X47.747 Y52.166 E1.46195
G1 X47.145 Y52.215 E.02309
G1 X74.109 Y79.179 E1.45801
G1 X73.434 Y79.154 E.02583
G1 X46.544 Y52.264 E1.45401
G1 X45.942 Y52.313 E.02309
G1 X72.759 Y79.13 E1.45006
G1 X72.084 Y79.105 E.02583
G1 X45.34 Y52.361 E1.44611
G1 X44.739 Y52.41 E.02306
G1 X71.413 Y79.084 E1.44233
G1 X70.744 Y79.065 E.02559
G1 X44.137 Y52.459 E1.43868
G1 X43.536 Y52.507 E.02305
G1 X70.074 Y79.046 E1.435
G1 X69.405 Y79.027 E.02559
G1 X42.934 Y52.556 E1.43135
G1 X42.332 Y52.605 E.02309
M73 P3 R76
G1 X68.736 Y79.008 E1.4277
G1 X68.067 Y78.989 E.02559
G1 X41.731 Y52.653 E1.42405
G1 X41.129 Y52.702 E.02309
G1 X67.397 Y78.97 E1.42037
G1 X66.728 Y78.951 E.02559
G1 X40.528 Y52.751 E1.4167
G1 X39.926 Y52.799 E.02309
G1 X66.059 Y78.932 E1.41307
G1 X65.39 Y78.913 E.02559
G1 X39.324 Y52.848 E1.40942
G1 X38.723 Y52.897 E.02306
G1 X64.72 Y78.894 E1.40572
G1 X64.051 Y78.875 E.02559
G1 X38.121 Y52.945 E1.4021
G1 X37.519 Y52.994 E.02309
G1 X63.382 Y78.856 E1.39845
G1 X62.713 Y78.837 E.02559
G1 X36.918 Y53.043 E1.39477
G1 X36.316 Y53.091 E.02309
G1 X62.043 Y78.819 E1.39115
G1 X61.374 Y78.8 E.02559
M73 P3 R75
G1 X35.715 Y53.14 E1.38747
G1 X35.113 Y53.189 E.02309
G1 X60.705 Y78.781 E1.38382
G1 X60.036 Y78.762 E.02559
G1 X34.511 Y53.237 E1.3802
G1 X33.91 Y53.286 E.02306
G1 X59.366 Y78.743 E1.37649
G1 X58.697 Y78.724 E.02559
G1 X33.308 Y53.335 E1.37284
G1 X32.707 Y53.384 E.02306
G1 X58.028 Y78.705 E1.36917
G1 X57.358 Y78.686 E.02563
G1 X32.105 Y53.432 E1.36552
G1 X31.503 Y53.481 E.02309
G1 X56.689 Y78.667 E1.36187
G1 X56.02 Y78.648 E.02559
G1 X30.902 Y53.53 E1.35819
G1 X30.3 Y53.578 E.02309
G1 X55.355 Y78.633 E1.35478
G1 X54.691 Y78.619 E.02539
G1 X29.698 Y53.627 E1.3514
G1 X29.106 Y53.685 E.02274
G1 X54.026 Y78.605 E1.34748
G1 X53.361 Y78.591 E.02543
G1 X28.515 Y53.744 E1.34351
G1 X27.924 Y53.803 E.02271
G1 X52.697 Y78.576 E1.33953
G1 X52.032 Y78.562 E.02543
G1 X27.333 Y53.863 E1.33553
G1 X26.742 Y53.922 E.02271
M73 P4 R75
G1 X51.368 Y78.548 E1.33159
G1 X50.703 Y78.534 E.02543
G1 X26.151 Y53.981 E1.32761
G1 X25.56 Y54.04 E.02271
G1 X50.039 Y78.519 E1.32364
G1 X49.374 Y78.505 E.02543
G1 X24.969 Y54.099 E1.31966
G1 X24.378 Y54.159 E.02271
G1 X48.71 Y78.491 E1.31569
G1 X48.045 Y78.477 E.02543
G1 X23.786 Y54.218 E1.31174
G1 X23.195 Y54.277 E.02271
G1 X47.381 Y78.462 E1.30777
G1 X46.716 Y78.448 E.02543
G1 X22.604 Y54.336 E1.30379
G1 X22.013 Y54.395 E.02271
G1 X46.052 Y78.434 E1.29985
G1 X45.387 Y78.42 E.02543
G1 X21.422 Y54.455 E1.29584
G1 X20.831 Y54.514 E.02271
G1 X44.722 Y78.405 E1.29184
G1 X44.058 Y78.391 E.02539
G1 X20.24 Y54.573 E1.2879
G1 X19.649 Y54.632 E.02271
G1 X43.393 Y78.377 E1.28392
G1 X42.729 Y78.363 E.02539
G1 X19.058 Y54.692 E1.27995
G1 X18.467 Y54.751 E.02271
G1 X42.064 Y78.348 E1.27595
G1 X41.4 Y78.334 E.02539
G1 X17.875 Y54.81 E1.27203
G1 X17.284 Y54.869 E.02271
G1 X40.735 Y78.32 E1.26805
G1 X40.071 Y78.306 E.02539
G1 X16.693 Y54.928 E1.2641
G1 X16.102 Y54.988 E.02271
M73 P4 R74
G1 X39.407 Y78.292 E1.26013
G1 X38.746 Y78.282 E.02528
G1 X15.511 Y55.047 E1.25637
G1 X14.92 Y55.106 E.02271
G1 X38.086 Y78.272 E1.25264
G1 X37.426 Y78.262 E.02524
G1 X14.329 Y55.165 E1.24891
G1 X13.738 Y55.224 E.02271
G1 X36.766 Y78.252 E1.24518
G1 X36.106 Y78.243 E.02524
G1 X13.147 Y55.284 E1.24145
G1 X12.556 Y55.343 E.02271
G1 X35.446 Y78.233 E1.23772
G1 X34.785 Y78.223 E.02528
G1 X12.533 Y55.97 E1.20325
G1 X12.533 Y56.62 E.02485
G1 X34.125 Y78.213 E1.16756
G1 X33.465 Y78.203 E.02524
M73 P5 R74
G1 X12.533 Y57.271 E1.13184
G1 X12.533 Y57.921 E.02485
G1 X32.805 Y78.193 E1.09615
G1 X32.145 Y78.183 E.02524
G1 X12.533 Y58.571 E1.06047
G1 X12.533 Y59.222 E.02489
G1 X31.485 Y78.173 E1.02475
G1 X30.824 Y78.163 E.02528
G1 X12.533 Y59.872 E.98904
G1 X12.533 Y60.522 E.02485
G1 X30.164 Y78.154 E.95338
G1 X29.504 Y78.144 E.02524
G1 X12.533 Y61.172 E.91769
G1 X12.533 Y61.823 E.02489
G1 X28.844 Y78.134 E.88197
G1 X28.184 Y78.124 E.02524
G1 X12.533 Y62.473 E.84629
G1 X12.533 Y63.123 E.02485
G1 X27.523 Y78.114 E.81057
G1 X26.863 Y78.104 E.02524
G1 X12.533 Y63.774 E.77486
G1 X12.533 Y64.424 E.02485
G1 X26.203 Y78.094 E.73917
G1 X25.543 Y78.084 E.02524
G1 X12.533 Y65.074 E.70348
G1 X12.533 Y65.725 E.02489
G1 X24.883 Y78.075 E.66779
G1 X24.223 Y78.065 E.02524
G1 X12.533 Y66.375 E.63211
G1 X12.533 Y67.025 E.02485
G1 X23.562 Y78.055 E.59639
G1 X22.902 Y78.045 E.02524
G1 X12.533 Y67.675 E.5607
G1 X12.533 Y68.326 E.02489
G1 X22.244 Y78.037 E.5251
G1 X21.588 Y78.031 E.02508
G1 X12.533 Y68.976 E.48963
G1 X12.533 Y69.626 E.02485
G1 X20.931 Y78.025 E.45413
G1 X20.275 Y78.019 E.02508
G1 X12.533 Y70.277 E.41863
G1 X12.533 Y70.927 E.02485
G1 X19.619 Y78.013 E.38316
G1 X18.963 Y78.008 E.02508
G1 X12.533 Y71.577 E.34771
G1 X12.533 Y72.228 E.02489
G1 X18.307 Y78.002 E.31221
G1 X17.651 Y77.996 E.02508
G1 X12.533 Y72.878 E.27674
G1 X12.533 Y73.528 E.02485
G1 X16.995 Y77.99 E.24127
G1 X16.338 Y77.984 E.02512
G1 X12.533 Y74.178 E.20577
G1 X12.533 Y74.829 E.02489
G1 X15.682 Y77.978 E.17027
G1 X15.026 Y77.972 E.02508
G1 X12.533 Y75.479 E.1348
G1 X12.533 Y76.129 E.02485
G1 X14.37 Y77.967 E.09936
G1 X13.714 Y77.961 E.02508
G1 X12.533 Y76.78 E.06386
G1 X12.533 Y77.43 E.02485
G1 X13.265 Y78.162 E.03958
M204 S1000
G1 E-1.6 F2100
;WIPE_START
G1 F9600
G1 X12.533 Y77.43 E-.21513
G1 X12.533 Y76.78 E-.13508
G1 X12.702 Y76.949 E-.04979
;WIPE_END
G1 X35.316 Y102.837 Z.8 F12000
EXCLUDE_OBJECT_END NAME='crysknife(21)_stl'
EXCLUDE_OBJECT_START NAME='crysknife(23)_stl'
G1 X70.639 Y143.275
G1 Z.2 F720
G1 E2 F1500
M204 S600
;TYPE:Perimeter
;WIDTH:0.499999
G1 F1200
G1 X70.781 Y143.329 E.00577
G1 X70.918 Y143.74 E.01647
G1 X70.918 Y164.187 E.77711
G1 X70.847 Y164.491 E.01186
G1 X70.689 Y164.698 E.0099
G1 X70.412 Y164.849 E.01199
G1 X70.01 Y164.873 E.01531
G1 X68.039 Y164.873 E.07491
G1 X67.776 Y164.82 E.0102
G1 X67.527 Y164.643 E.01161
G1 X67.456 Y164.547 E.00454
G1 X67.357 Y164.257 E.01165
G1 X67.354 Y143.74 E.77977
G1 X67.491 Y143.329 E.01647
G1 X67.638 Y143.262 E.00614
;WIDTH:0.45676
G1 X67.785 Y143.195 E.00556
;WIDTH:0.413521
G1 X67.932 Y143.129 E.00497
;WIDTH:0.370281
G1 X68.039 Y143.122 E.00292
;WIDTH:0.364382
G1 X70.232 Y143.122 E.05862
;WIDTH:0.409587
G1 X70.415 Y143.191 E.00596
;WIDTH:0.454793
G1 X70.583 Y143.254 E.00614
M204 S1000
G1 X70.362 Y143.577 F12000
M204 S600
;TYPE:External perimeter
;WIDTH:0.499999
G1 F1200
G1 X70.415 Y143.603 E.00224
G1 X70.461 Y143.74 E.00549
G1 X70.461 Y164.187 E.77711
G1 X70.407 Y164.334 E.00595
G1 X70.251 Y164.415 E.00668
G1 X68.039 Y164.415 E.08407
G1 X67.878 Y164.349 E.00661
G1 X67.845 Y164.307 E.00203
G1 X67.811 Y164.187 E.00474
G1 X67.811 Y143.74 E.77711
G1 X67.857 Y143.603 E.00549
G1 X68.039 Y143.511 E.00775
G1 X70.232 Y143.511 E.08335
G1 X70.309 Y143.55 E.00328
M204 S1000
G1 X71.237 Y143.326 F12000
M204 S600
;TYPE:Perimeter
G1 F1200
G1 X71.375 Y143.74 E.01659
G1 X71.375 Y164.187 E.77711
G3 X71.209 Y164.781 I-1.385 J-.068 E.02364
G1 X70.994 Y165.039 E.01276
G1 X70.643 Y165.253 E.01562
G1 X70.232 Y165.33 E.01589
G1 X68.039 Y165.33 E.08335
G1 X67.711 Y165.282 E.0126
G1 X67.355 Y165.102 E.01516
G1 X67.067 Y164.787 E.01622
G1 X66.924 Y164.436 E.0144
G1 X66.897 Y163.189 E.0474
G1 X66.897 Y143.74 E.73918
G1 X67.035 Y143.326 E.01659
G1 X59.787 Y143.326 E.27547
G1 X59.382 Y143.251 E.01565
G3 X58.886 Y142.886 I.554 J-1.269 E.0236
G1 X58.71 Y142.564 E.01395
G1 X58.645 Y142.183 E.01469
G1 X58.645 Y139.989 E.08339
G1 X58.742 Y139.528 E.0179
G1 X58.952 Y139.209 E.01452
G1 X59.313 Y138.949 E.01691
G3 X59.787 Y138.846 I.534 J1.313 E.01853
G1 X80.235 Y138.846 E.77715
G1 X80.773 Y138.981 E.02108
G1 X81.149 Y139.303 E.01881
G1 X81.332 Y139.669 E.01555
G1 X81.378 Y139.989 E.01229
G1 X81.378 Y142.183 E.08339
G1 X81.319 Y142.547 E.01401
G1 X81.158 Y142.858 E.01331
G1 X80.935 Y143.086 E.01212
G1 X80.567 Y143.276 E.01574
G1 X80.235 Y143.326 E.01276
G1 X71.297 Y143.326 E.3397
M204 S1000
G1 E-1.6 F2100
;WIPE_START
G1 F9600
G1 X71.237 Y143.326 E-.01247
G1 X71.375 Y143.74 E-.09069
G1 X71.375 Y145.168 E-.29684
;WIPE_END
G1 X59.317 Y139.499 Z.433 F12000
G1 Z.2 F720
G1 E2 F1500
M204 S600
G1 F1200
G1 X59.503 Y139.365 E.00871
G1 X59.787 Y139.303 E.01105
G1 X80.235 Y139.303 E.77715
