; generated by PrusaSlicer 2.9.3 on 2025-10-20 at 20:22:44 UTC


;
;

;
;

;
;

;
;

;
;
; 

; external perimeters extrusion width = 0.45mm
; perimeters extrusion width = 0.45mm
; infill extrusion width = 0.45mm
; solid infill extrusion width = 0.45mm
; top infill extrusion width = 0.40mm
; first layer extrusion width = 0.50mm

; external perimeters extrusion width = 0.45mm
; perimeters extrusion width = 0.45mm
; infill extrusion width = 0.45mm
; solid infill extrusion width = 0.45mm
; top infill extrusion width = 0.40mm
; first layer extrusion width = 0.50mm

; external perimeters extrusion width = 0.45mm
; perimeters extrusion width = 0.45mm
; infill extrusion width = 0.45mm
; solid infill extrusion width = 0.45mm
; top infill extrusion width = 0.40mm
; first layer extrusion width = 0.50mm

; external perimeters extrusion width = 0.45mm
; perimeters extrusion width = 0.45mm
; infill extrusion width = 0.45mm
; solid infill extrusion width = 0.45mm
; top infill extrusion width = 0.40mm
; first layer extrusion width = 0.50mm

M73 P0 R78

EXCLUDE_OBJECT_DEFINE NAME='crysknife(21)_stl' CENTER=175.815,75.659 POLYGON=[[192.935,40.347],[192.397,55.350],[191.949,71.162],[191.596,87.630],[191.238,116.311],[162.916,116.311],[161.836,105.532],[159.791,80.269],[158.090,53.643],[157.333,37.969],[193.040,37.969]]
EXCLUDE_OBJECT_DEFINE NAME='crysknife(17)_stl' CENTER=75.226,77.959 POLYGON=[[94.093,38.413],[92.757,66.056],[91.061,92.597],[89.023,117.780],[88.005,127.941],[59.721,127.941],[59.373,100.408],[59.020,83.940],[58.571,68.128],[58.033,53.125],[57.039,32.264],[94.301,32.264]]
EXCLUDE_OBJECT_DEFINE NAME='crysknife(23)_stl' CENTER=128.643,158.134 POLYGON=[[158.459,139.466],[158.686,142.165],[159.304,144.739],[159.304,178.076],[147.976,178.076],[141.769,177.575],[125.629,176.560],[125.629,168.238],[86.009,168.238],[86.009,148.038],[125.629,148.038],[125.629,139.144],[146.206,138.449],[158.524,138.202]]
EXCLUDE_OBJECT_DEFINE NAME='crysknife(22)_stl' CENTER=126.053,81.796 POLYGON=[[106.232,122.903],[106.444,112.301],[107.411,83.730],[107.993,71.677],[116.097,31.924],[136.297,31.924],[143.702,71.677],[146.200,114.257],[146.200,122.903]]

;TYPE:Custom
G90 ; use absolute coordinates
M83 ; extruder relative mode
M104 S170 ; preheat hotend to 170
M140 S65 ; set bed temp
M190 S65 ; wait for bed temp
G28 ; home all
;G29 ; mesh bed leveling
BED_MESH_CALIBRATE
G0 X0 Z0.6 Y-3.0 F1000.0 ; go outside print area for intro line
M104 S225 ; set hotend temp
M109 S225 ; wait for hotend temp
;M104 S0 ; Stops PS/SS from sending temp waits separately
;M140 S0
;PRINT_START BED=65 HOTEND=225
G92 E0.0
G1 X60.0 E9.0 F1000.0 ; intro line
G1 X100.0 E12.5 F1000.0 ; intro line
G92 E0.0
SKEW_PROFILE LOAD=CaliFlower
G21 ; set units to millimeters
G90 ; use absolute coordinates
M83 ; use relative distances for extrusion
;M900 K0.05 ; Filament gcode



;M142 S36 ; set heatbreak target temp
M107
;LAYER_CHANGE
;Z:0.2
;HEIGHT:0.2
G1 E-2 F2100
G1 Z.8 F720
EXCLUDE_OBJECT_START NAME='crysknife(23)_stl'
G1 X152.579 Y158.777 F12000
G1 Z.2 F720
G1 E2 F1500
M204 S600
;TYPE:Perimeter
;WIDTH:0.499999
G1 F1200
G1 X152.519 Y158.909 E.00551
G1 X152.108 Y159.046 E.01647
G1 X131.58 Y159.041 E.78019
G1 X131.305 Y158.946 E.01106
G1 X131.094 Y158.745 E.01108
G1 X130.985 Y158.476 E.01103
G3 X130.975 Y156.167 I89.344 J-1.536 E.08776
G1 X131.028 Y155.904 E.0102
G1 X131.205 Y155.655 E.01161
G1 X131.426 Y155.523 E.00978
G1 X131.661 Y155.482 E.00907
G1 X152.108 Y155.482 E.77711
G1 X152.519 Y155.619 E.01647
G1 X152.588 Y155.801 E.0074
;WIDTH:0.454793
G1 X152.657 Y155.984 E.0067
;WIDTH:0.409587
G1 X152.726 Y156.167 E.00596
;WIDTH:0.36438
G1 X152.726 Y158.36 E.05862
;WIDTH:0.370278
G1 X152.719 Y158.467 E.00292
;WIDTH:0.413519
G1 X152.653 Y158.614 E.00497
;WIDTH:0.456759
G1 X152.604 Y158.722 E.00408
M204 S1000
G1 X152.271 Y158.49 F12000
M204 S600
;TYPE:External perimeter
;WIDTH:0.499999
G1 F1200
G1 X152.245 Y158.543 E.00224
G1 X152.108 Y158.589 E.00549
G1 X131.634 Y158.587 E.77814
G1 X131.491 Y158.512 E.00614
G1 X131.432 Y158.36 E.0062
G1 X131.432 Y156.167 E.08335
G1 X131.499 Y156.006 E.00663
G1 X131.661 Y155.939 E.00666
G1 X152.108 Y155.939 E.77711
G1 X152.245 Y155.984 E.00548
G1 X152.336 Y156.167 E.00777
G1 X152.336 Y158.36 E.08335
G1 X152.298 Y158.437 E.00326
M204 S1000
G1 X152.522 Y159.365 F12000
M204 S600
;TYPE:Perimeter
G1 F1200
G1 X152.108 Y159.503 E.01659
G1 X131.526 Y159.495 E.78225
G1 X131.155 Y159.384 E.01472
G3 X130.716 Y159.002 I.671 J-1.213 E.02228
G1 X130.558 Y158.659 E.01435
G1 X130.518 Y158.138 E.01986
G1 X130.518 Y156.167 E.07491
G1 X130.566 Y155.839 E.0126
G1 X130.746 Y155.483 E.01516
G1 X131.061 Y155.194 E.01625
G1 X131.412 Y155.052 E.01439
G1 X132.659 Y155.024 E.04741
G1 X152.108 Y155.024 E.73918
G1 X152.522 Y155.163 E.0166
G1 X152.522 Y147.915 E.27547
G1 X152.597 Y147.51 E.01565
G3 X152.962 Y147.014 I1.269 J.553 E.0236
G1 X153.284 Y146.838 E.01395
G1 X153.665 Y146.772 E.0147
G1 X155.859 Y146.772 E.08339
G1 X156.32 Y146.87 E.01791
G1 X156.639 Y147.08 E.01452
G1 X156.899 Y147.441 E.01691
G1 X157.002 Y147.915 E.01844
G1 X157.002 Y168.363 E.77715
G3 X156.867 Y168.901 I-1.466 J-.081 E.02121
G1 X156.545 Y169.277 E.01881
G1 X156.179 Y169.46 E.01555
G1 X155.859 Y169.506 E.01229
G1 X153.665 Y169.506 E.08339
G1 X153.301 Y169.446 E.01402
G1 X152.99 Y169.285 E.01331
G1 X152.762 Y169.063 E.01209
G1 X152.572 Y168.695 E.01574
G1 X152.522 Y168.363 E.01276
G1 X152.522 Y159.425 E.3397
M204 S1000
G1 E-1.6 F2100
;WIPE_START
G1 F9600
G1 X152.522 Y159.365 E-.01247
G1 X152.108 Y159.503 E-.09069
G1 X150.68 Y159.502 E-.29684
;WIPE_END
G1 X156.337 Y168.833 Z.39 F12000
G1 Z.2 F720
G1 E2 F1500
M204 S600
G1 F1200
G1 X156.27 Y168.912 E.00394
G3 X155.859 Y169.049 I-.46 J-.696 E.01666
G1 X153.665 Y169.049 E.08339
G1 X153.348 Y168.971 E.01241
G1 X153.123 Y168.783 E.01114
G1 X152.992 Y168.492 E.01213
G1 X152.979 Y168.363 E.00493
G1 X152.979 Y159.139 E.35057
G1 X153.001 Y158.924 E.00821
;WIDTH:0.456759
G1 X153.023 Y158.71 E.0074
;WIDTH:0.413519
G1 X153.044 Y158.496 E.00663
;WIDTH:0.370278
G1 X153.047 Y158.36 E.0037
;WIDTH:0.36438
G1 X153.047 Y156.167 E.05862
;WIDTH:0.409587
G1 X153.025 Y155.908 E.00792
;WIDTH:0.454793
G1 X153.002 Y155.648 E.00894
;WIDTH:0.499999
G1 X152.979 Y155.389 E.00988
G1 X152.979 Y147.915 E.28406
G1 X153.024 Y147.672 E.00939
G1 X153.167 Y147.444 E.01023
G1 X153.436 Y147.269 E.0122
G1 X153.665 Y147.23 E.00883
G1 X155.859 Y147.23 E.08339
G1 X156.136 Y147.288 E.01076
G1 X156.327 Y147.414 E.0087
G1 X156.483 Y147.631 E.01016
G1 X156.545 Y147.915 E.01105
G1 X156.545 Y168.363 E.77715
G1 X156.464 Y168.686 E.01266
G1 X156.376 Y168.788 E.00512
M204 S1000
G1 X156.003 Y168.518 F12000
M204 S600
;TYPE:External perimeter
G1 F1200
G1 X155.923 Y168.582 E.00389
G1 X155.859 Y168.592 E.00246
G1 X153.665 Y168.592 E.08339
G1 X153.505 Y168.526 E.00658
G1 X153.436 Y168.363 E.00673
G1 X153.436 Y147.915 E.77715
G1 X153.499 Y147.758 E.00643
G1 X153.665 Y147.687 E.00686
G1 X155.859 Y147.687 E.08339
G1 X156.015 Y147.748 E.00637
G1 X156.087 Y147.915 E.00691
G1 X156.087 Y168.363 E.77715
G1 X156.061 Y168.471 E.00422
G1 X156.049 Y168.48 E.00057
M204 S1000
G1 E-1.6 F2100
;WIPE_START
G1 F9600
G1 X156.003 Y168.518 E-.0124
G1 X155.923 Y168.582 E-.02129
G1 X155.859 Y168.592 E-.01346
G1 X154.161 Y168.592 E-.35285
;WIPE_END
G1 X126.648 Y167.108 Z.681 F12000
G1 Z.2 F720
G1 E2 F1500
M204 S600
;TYPE:Perimeter
G1 F1200
G1 X126.445 Y166.939 E.01004
G2 X125.851 Y166.773 I-.662 J1.219 E.02364
G1 X87.374 Y166.773 E1.46237
G1 X87.374 Y149.504 E.65633
G1 X124.853 Y149.504 E1.42444
G1 X126.1 Y149.476 E.04741
G1 X126.451 Y149.334 E.01439
G1 X126.766 Y149.045 E.01625
G1 X126.946 Y148.689 E.01516
G1 X126.994 Y148.361 E.0126
G1 X126.994 Y140.568 E.29618
G1 X146.39 Y139.912 E.73759
G1 X157.11 Y139.697 E.40751
M73 P0 R77
G1 X157.328 Y142.295 E.09909
G1 X157.355 Y142.462 E.00643
G1 X157.894 Y144.723 E.08834
G1 X157.94 Y145.114 E.01496
G1 X157.94 Y176.711 E1.20088
G1 X148.031 Y176.711 E.3766
G1 X141.861 Y176.214 E.23526
G1 X130.112 Y175.437 E.44751
G1 X126.994 Y175.268 E.11868
G1 X126.994 Y167.916 E.27942
G1 X126.924 Y167.522 E.01521
G1 X126.703 Y167.154 E.01631
G1 X126.694 Y167.146 E.00046
M204 S1000
G1 X126.322 Y167.428 F12000
M204 S600
G1 F1200
G1 X126.155 Y167.301 E.00797
G1 X125.851 Y167.23 E.01186
G1 X86.917 Y167.23 E1.47974
G1 X86.917 Y149.046 E.69111
G1 X125.851 Y149.046 E1.47974
G1 X126.086 Y149.005 E.00907
G1 X126.307 Y148.873 E.00978
G1 X126.484 Y148.624 E.01161
G1 X126.537 Y148.361 E.0102
G1 X126.537 Y140.126 E.31298
G1 X146.377 Y139.455 E.75448
G1 X157.563 Y139.231 E.42522
G1 X157.554 Y139.527 E.01126
G1 X157.784 Y142.257 E.10412
G1 X158.397 Y144.862 E.10171
G1 X158.397 Y145.114 E.00958
G1 X158.397 Y177.169 E1.21829
G1 X148.013 Y177.169 E.39466
G1 X141.831 Y176.67 E.23572
G1 X130.082 Y175.893 E.44751
G1 X126.537 Y175.701 E.13493
G1 X126.537 Y167.916 E.29588
G1 X126.495 Y167.68 E.00911
G1 X126.367 Y167.467 E.00944
M204 S1000
G1 X126.023 Y167.778 F12000
M204 S600
;TYPE:External perimeter
G1 F1200
G2 X125.998 Y167.74 I-.426 J.256 E.00173
G1 X125.851 Y167.687 E.00594
G1 X86.459 Y167.687 E1.49714
G1 X86.459 Y148.589 E.72584
G1 X125.851 Y148.589 E1.49714
M73 P1 R77
G1 X126.013 Y148.522 E.00666
G1 X126.079 Y148.361 E.00661
G1 X126.079 Y139.684 E.32978
G1 X146.365 Y138.998 E.77144
G1 X158.045 Y138.764 E.444
G1 X158.01 Y139.488 E.02755
G1 X158.239 Y142.219 E.10416
G1 X158.854 Y144.808 E.10114
G1 X158.854 Y145.114 E.01163
G1 X158.854 Y177.626 E1.23566
G1 X147.995 Y177.626 E.41271
G1 X141.804 Y177.126 E.23606
G1 X130.052 Y176.349 E.44762
G1 X126.079 Y176.134 E.15122
G1 X126.079 Y167.916 E.31234
G2 X126.05 Y167.831 I-.482 J.118 E.00342
M204 S1000
G1 E-1.6 F2100
;WIPE_START
G1 F9600
G1 X126.023 Y167.778 E-.01236
G2 X125.998 Y167.74 I-.427 J.254 E-.00946
G1 X125.851 Y167.687 E-.03247
G1 X124.187 Y167.687 E-.34571
;WIPE_END
G1 X150.087 Y145.087 Z.8 F12000
G1 X156.03 Y139.901
G1 Z.2 F720
G1 E2 F1500
M204 S600
;TYPE:Solid infill
;WIDTH:0.502456
G1 F1200
G1 X156.802 Y140.674 E.04174
G1 X156.862 Y141.383 E.02719
G1 X155.594 Y140.116 E.06849
G1 X154.957 Y140.129 E.02435
G1 X156.922 Y142.093 E.10616
G2 X157.054 Y142.875 I3.632 J-.213 E.03036
G1 X154.32 Y140.141 E.14774
G1 X153.683 Y140.154 E.02435
G1 X157.258 Y143.729 E.19319
G1 X157.461 Y144.582 E.0335
G1 X153.046 Y140.167 E.23858
G1 X152.409 Y140.18 E.02435
G1 X157.552 Y145.322 E.27789
G1 X157.552 Y145.972 E.02484
G1 X151.772 Y140.192 E.31234
G1 X151.135 Y140.205 E.02435
G1 X157.552 Y146.622 E.34676
G1 X157.552 Y147.272 E.02484
G1 X150.497 Y140.218 E.38121
G1 X149.86 Y140.231 E.02435
G1 X156.025 Y146.395 E.33312
G1 X156.078 Y146.399 E.00203
G1 X156.48 Y146.514 E.01598
G1 X156.907 Y146.796 E.01955
G1 X157.256 Y147.28 E.0228
G1 X157.352 Y147.722 E.01728
G1 X157.757 Y148.128 E.02191
M204 S1000
G1 X157.184 Y148.205 F12000
M204 S600
G1 F1200
G1 X157.552 Y148.572 E.01986
G1 X157.552 Y149.222 E.02484
G1 X157.39 Y149.06 E.00875
G1 X157.39 Y149.71 E.02484
G1 X157.552 Y149.872 E.00875
G1 X157.552 Y150.522 E.02484
G1 X157.39 Y150.36 E.00875
G1 X157.39 Y151.01 E.02484
G1 X157.552 Y151.171 E.00873
G1 X157.552 Y151.821 E.02484
G1 X157.39 Y151.66 E.00873
G1 X157.39 Y152.31 E.02484
G1 X157.552 Y152.471 E.00873
G1 X157.552 Y153.121 E.02484
G1 X157.39 Y152.96 E.00873
G1 X157.39 Y153.609 E.0248
G1 X157.552 Y153.771 E.00875
G1 X157.552 Y154.421 E.02484
G1 X157.39 Y154.259 E.00875
G1 X157.39 Y154.909 E.02484
G1 X157.552 Y155.071 E.00875
G1 X157.552 Y155.721 E.02484
G1 X157.39 Y155.559 E.00875
G1 X157.39 Y156.209 E.02484
G1 X157.552 Y156.37 E.00873
G1 X157.552 Y157.02 E.02484
G1 X157.39 Y156.859 E.00873
G1 X157.39 Y157.509 E.02484
G1 X157.552 Y157.67 E.00873
G1 X157.552 Y158.32 E.02484
G1 X157.39 Y158.159 E.00873
G1 X157.39 Y158.809 E.02484
G1 X157.552 Y158.97 E.00873
G1 X157.552 Y159.62 E.02484
G1 X157.39 Y159.458 E.00875
G1 X157.39 Y160.108 E.02484
G1 X157.552 Y160.27 E.00875
G1 X157.552 Y160.92 E.02484
G1 X157.39 Y160.758 E.00875
G1 X157.39 Y161.408 E.02484
G1 X157.552 Y161.57 E.00875
G1 X157.552 Y162.219 E.0248
G1 X157.39 Y162.058 E.00873
G1 X157.39 Y162.708 E.02484
G1 X157.552 Y162.869 E.00873
G1 X157.552 Y163.519 E.02484
G1 X157.39 Y163.358 E.00873
G1 X157.39 Y164.008 E.02484
G1 X157.552 Y164.169 E.00873
G1 X157.552 Y164.819 E.02484
G1 X157.39 Y164.657 E.00875
G1 X157.39 Y165.307 E.02484
G1 X157.552 Y165.469 E.00875
G1 X157.552 Y166.119 E.02484
G1 X157.39 Y165.957 E.00875
G1 X157.39 Y166.607 E.02484
G1 X157.552 Y166.769 E.00875
G1 X157.552 Y167.418 E.0248
G1 X157.39 Y167.257 E.00873
G1 X157.39 Y167.907 E.02484
G1 X157.552 Y168.068 E.00873
G1 X157.552 Y168.718 E.02484
G1 X157.375 Y168.542 E.00954
G1 X157.367 Y168.633 E.00349
G1 X157.226 Y169.043 E.01657
G1 X157.552 Y169.368 E.01759
G1 X157.552 Y170.018 E.02484
G1 X156.939 Y169.405 E.03313
G1 X156.782 Y169.589 E.00924
G1 X156.576 Y169.692 E.0088
G1 X157.552 Y170.668 E.05274
G1 X157.552 Y171.318 E.02484
G1 X156.096 Y169.862 E.07868
G3 X155.478 Y169.894 I-.453 J-2.749 E.02369
G1 X157.552 Y171.968 E.11207
G1 X157.552 Y172.617 E.0248
G1 X154.828 Y169.894 E.14717
G1 X154.179 Y169.894 E.0248
G1 X157.757 Y173.473 E.19337
M204 S1000
G1 E-1.6 F2100
;WIPE_START
G1 F9600
G1 X156.396 Y172.112 E-.4
;WIPE_END
G1 X151.768 Y159.686 Z.431 F12000
G1 Z.2 F720
G1 E2 F1500
M204 S600
G1 F1200
G1 X152.134 Y160.051 E.01975
G1 X152.134 Y160.701 E.02484
G1 X151.324 Y159.891 E.04377
G1 X150.674 Y159.891 E.02484
G1 X152.134 Y161.351 E.0789
G1 X152.134 Y162.001 E.02484
G1 X150.024 Y159.891 E.11402
G1 X149.375 Y159.891 E.0248
G1 X152.134 Y162.651 E.14912
G1 X152.134 Y163.3 E.0248
G1 X148.725 Y159.891 E.18422
G1 X148.075 Y159.891 E.02484
G1 X152.134 Y163.95 E.21934
G1 X152.134 Y164.6 E.02484
G1 X147.425 Y159.891 E.25446
G1 X146.775 Y159.891 E.02484
G1 X152.134 Y165.25 E.28959
G1 X152.134 Y165.9 E.02484
G1 X146.125 Y159.891 E.32471
G1 X145.475 Y159.891 E.02484
G1 X152.134 Y166.55 E.35984
G1 X152.134 Y167.2 E.02484
G1 X144.825 Y159.891 E.39496
G1 X144.176 Y159.891 E.0248
G1 X152.339 Y168.055 E.44114
M204 S1000
G1 E-1.6 F2100
;WIPE_START
G1 F9600
G1 X150.978 Y166.694 E-.4
;WIPE_END
G1 X157.757 Y174.123 Z.376 F12000
G1 Z.2 F720
G1 E2 F1500
M204 S600
G1 F1200
G1 X153.517 Y169.883 E.22912
G3 X152.147 Y168.513 I.134 J-1.504 E.08038
G1 X143.526 Y159.891 E.46589
G1 X142.876 Y159.891 E.02484
G1 X157.552 Y174.567 E.79306
G1 X157.552 Y175.217 E.02484
G1 X142.226 Y159.891 E.82818
G1 X141.576 Y159.891 E.02484
G1 X157.552 Y175.867 E.86331
G1 X157.552 Y176.323 E.01742
G1 X157.358 Y176.323 E.00741
G1 X140.926 Y159.891 E.88795
G1 X140.276 Y159.891 E.02484
G1 X156.708 Y176.323 E.88795
G1 X156.058 Y176.323 E.02484
G1 X139.626 Y159.891 E.88795
G1 X138.976 Y159.891 E.02484
G1 X155.408 Y176.323 E.88795
G1 X154.758 Y176.323 E.02484
G1 X138.327 Y159.891 E.88792
G1 X137.677 Y159.891 E.02484
G1 X154.108 Y176.323 E.88792
G1 X153.458 Y176.323 E.02484
G1 X137.027 Y159.891 E.88792
G1 X136.377 Y159.891 E.02484
G1 X152.809 Y176.323 E.88795
G1 X152.159 Y176.323 E.02484
G1 X135.727 Y159.891 E.88795
G1 X135.077 Y159.891 E.02484
G1 X151.509 Y176.323 E.88795
G1 X150.859 Y176.323 E.02484
G1 X134.427 Y159.891 E.88795
G1 X133.777 Y159.891 E.02484
G1 X150.209 Y176.323 E.88795
G1 X149.559 Y176.323 E.02484
G1 X133.128 Y159.891 E.88792
G1 X132.478 Y159.891 E.02484
G1 X148.909 Y176.323 E.88792
G1 X148.259 Y176.323 E.02484
M73 P1 R76
G1 X131.62 Y159.683 E.89916
M204 S1000
G1 E-1.6 F2100
;WIPE_START
G1 F9600
G1 X132.981 Y161.044 E-.4
;WIPE_END
G1 X149.022 Y140.042 Z.661 F12000
G1 Z.2 F720
G1 E2 F1500
M204 S600
G1 F1200
G1 X155.364 Y146.384 E.34271
G1 X154.714 Y146.384 E.02484
G1 X148.586 Y140.256 E.33114
G1 X147.949 Y140.269 E.02435
G1 X154.064 Y146.384 E.33044
G2 X153.435 Y146.405 I-.18 J4.025 E.02407
G1 X147.312 Y140.282 E.33087
G1 X146.675 Y140.295 E.02435
G1 X152.945 Y146.565 E.33882
G2 X152.574 Y146.843 I.776 J1.423 E.01778
M73 P2 R76
G1 X146.043 Y140.312 E.35292
G1 X145.414 Y140.333 E.02405
G1 X152.301 Y147.221 E.37219
G2 X152.148 Y147.717 I1.367 J.694 E.01993
G1 X144.785 Y140.355 E.39785
G1 X144.157 Y140.376 E.02401
G1 X152.134 Y148.353 E.43106
G1 X152.134 Y149.003 E.02484
G1 X143.528 Y140.397 E.46505
