; generated by PrusaSlicer 2.9.3 on 2025-10-20 at 21:05:02 UTC


;
;

;
;

;
;

;
;

;
;
; 

; external perimeters extrusion width = 0.45mm
; perimeters extrusion width = 0.45mm
; infill extrusion width = 0.45mm
; solid infill extrusion width = 0.45mm
; top infill extrusion width = 0.42mm
; first layer extrusion width = 0.50mm

; external perimeters extrusion width = 0.45mm
; perimeters extrusion width = 0.45mm
; infill extrusion width = 0.45mm
; solid infill extrusion width = 0.45mm
; top infill extrusion width = 0.42mm
; first layer extrusion width = 0.50mm

; external perimeters extrusion width = 0.45mm
; perimeters extrusion width = 0.45mm
; infill extrusion width = 0.45mm
; solid infill extrusion width = 0.45mm
; top infill extrusion width = 0.42mm
; first layer extrusion width = 0.50mm

; external perimeters extrusion width = 0.45mm
; perimeters extrusion width = 0.45mm
; infill extrusion width = 0.45mm
; solid infill extrusion width = 0.45mm
; top infill extrusion width = 0.42mm
; first layer extrusion width = 0.50mm

M73 P0 R74

EXCLUDE_OBJECT_DEFINE NAME='crysknife(21)_stl' CENTER=175.815,75.659 POLYGON=[[192.935,40.347],[192.397,55.350],[191.949,71.162],[191.596,87.630],[191.238,116.311],[162.916,116.311],[161.836,105.532],[159.791,80.269],[158.090,53.643],[157.333,37.969],[193.040,37.969]]
EXCLUDE_OBJECT_DEFINE NAME='crysknife(17)_stl' CENTER=75.226,77.959 POLYGON=[[94.093,38.413],[92.757,66.056],[91.061,92.597],[89.023,117.780],[88.005,127.941],[59.721,127.941],[59.373,100.408],[59.020,83.940],[58.571,68.128],[58.033,53.125],[57.039,32.264],[94.301,32.264]]
EXCLUDE_OBJECT_DEFINE NAME='crysknife(23)_stl' CENTER=128.643,158.134 POLYGON=[[158.459,139.466],[158.686,142.165],[159.304,144.739],[159.304,178.076],[147.976,178.076],[141.769,177.575],[125.629,176.560],[125.629,168.238],[86.009,168.238],[86.009,148.038],[125.629,148.038],[125.629,139.144],[146.206,138.449],[158.524,138.202]]
EXCLUDE_OBJECT_DEFINE NAME='crysknife(22)_stl' CENTER=126.053,81.796 POLYGON=[[106.232,122.903],[106.444,112.301],[107.411,83.730],[107.993,71.677],[116.097,31.924],[136.297,31.924],[143.702,71.677],[146.200,114.257],[146.200,122.903]]

;TYPE:Custom
G90 ; use absolute coordinates
M83 ; extruder relative mode
M104 S170 ; preheat hotend to 170
M140 S65 ; set bed temp
M190 S65 ; wait for bed temp
G28 ; home all
;G29 ; mesh bed leveling
BED_MESH_CALIBRATE
G0 X0 Z0.6 Y-3.0 F1000.0 ; go outside print area for intro line
M104 S215 ; set hotend temp
M109 S215 ; wait for hotend temp
;M104 S0 ; Stops PS/SS from sending temp waits separately
;M140 S0
;PRINT_START BED=65 HOTEND=215
G92 E0.0
G1 X60.0 E9.0 F1000.0 ; intro line
G1 X100.0 E12.5 F1000.0 ; intro line
G92 E0.0
SKEW_PROFILE LOAD=CaliFlower
G21 ; set units to millimeters
G90 ; use absolute coordinates
M83 ; use relative distances for extrusion
;M900 K0.05 ; Filament gcode



;M142 S36 ; set heatbreak target temp
M107
;LAYER_CHANGE
;Z:0.2
;HEIGHT:0.2
G1 E-2 F2100
G1 Z.8 F720
EXCLUDE_OBJECT_START NAME='crysknife(23)_stl'
G1 X152.579 Y158.777 F12000
G1 Z.2 F720
G1 E2 F1500
M204 S600
;TYPE:Perimeter
;WIDTH:0.499999
G1 F1200
G1 X152.519 Y158.909 E.00551
G1 X152.108 Y159.046 E.01647
G1 X131.58 Y159.041 E.78019
G1 X131.305 Y158.946 E.01106
G1 X131.094 Y158.745 E.01108
G1 X130.985 Y158.476 E.01103
G1 X130.975 Y156.167 E.08776
G1 X131.028 Y155.904 E.0102
G1 X131.205 Y155.655 E.01161
G1 X131.426 Y155.523 E.00978
G1 X131.661 Y155.482 E.00907
G1 X152.108 Y155.482 E.77711
G1 X152.519 Y155.619 E.01647
G1 X152.588 Y155.801 E.0074
;WIDTH:0.454793
G1 X152.657 Y155.984 E.0067
;WIDTH:0.409587
G1 X152.726 Y156.167 E.00596
;WIDTH:0.36438
G1 X152.726 Y158.36 E.05862
;WIDTH:0.370278
G1 X152.719 Y158.467 E.00292
;WIDTH:0.413519
G1 X152.653 Y158.614 E.00497
;WIDTH:0.456759
G1 X152.604 Y158.722 E.00408
M204 S1000
G1 X152.271 Y158.49 F12000
M204 S600
;TYPE:External perimeter
;WIDTH:0.499999
G1 F1200
G1 X152.245 Y158.543 E.00224
G1 X152.108 Y158.589 E.00549
G1 X131.634 Y158.587 E.77814
G1 X131.491 Y158.512 E.00614
G1 X131.432 Y158.36 E.0062
G1 X131.432 Y156.167 E.08335
G1 X131.499 Y156.006 E.00663
G1 X131.661 Y155.939 E.00666
G1 X152.108 Y155.939 E.77711
G1 X152.245 Y155.984 E.00548
G1 X152.336 Y156.167 E.00777
G1 X152.336 Y158.36 E.08335
G1 X152.298 Y158.437 E.00326
M204 S1000
G1 X152.522 Y159.365 F12000
M204 S600
;TYPE:Perimeter
G1 F1200
G1 X152.108 Y159.503 E.01659
G1 X131.526 Y159.495 E.78225
G1 X131.155 Y159.384 E.01472
G1 X130.927 Y159.236 E.01033
G1 X130.716 Y159.002 E.01198
G1 X130.558 Y158.659 E.01435
G1 X130.518 Y158.138 E.01986
G1 X130.518 Y156.167 E.07491
G1 X130.566 Y155.839 E.0126
G1 X130.746 Y155.483 E.01516
G1 X131.061 Y155.194 E.01625
G1 X131.412 Y155.052 E.01439
G1 X132.659 Y155.024 E.04741
G1 X152.108 Y155.024 E.73918
G1 X152.522 Y155.163 E.0166
G1 X152.522 Y147.915 E.27547
G1 X152.597 Y147.51 E.01565
G1 X152.733 Y147.254 E.01102
G1 X152.962 Y147.014 E.01261
G1 X153.284 Y146.838 E.01395
G1 X153.665 Y146.772 E.0147
G1 X155.859 Y146.772 E.08339
G1 X156.32 Y146.87 E.01791
G1 X156.639 Y147.08 E.01452
G1 X156.899 Y147.441 E.01691
G1 X157.002 Y147.915 E.01844
G1 X157.002 Y168.363 E.77715
G1 X156.984 Y168.56 E.00752
G1 X156.867 Y168.901 E.0137
G1 X156.545 Y169.277 E.01881
G1 X156.179 Y169.46 E.01555
G1 X155.859 Y169.506 E.01229
G1 X153.665 Y169.506 E.08339
G1 X153.301 Y169.446 E.01402
G1 X152.99 Y169.285 E.01331
G1 X152.762 Y169.063 E.01209
G1 X152.572 Y168.695 E.01574
G1 X152.522 Y168.363 E.01276
G1 X152.522 Y159.425 E.3397
M204 S1000
G1 E-1.6 F2100
;WIPE_START
G1 F9600
G1 X152.522 Y159.365 E-.01247
G1 X152.108 Y159.503 E-.09069
G1 X150.68 Y159.502 E-.29684
;WIPE_END
G1 X156.337 Y168.833 Z.39 F12000
G1 Z.2 F720
G1 E2 F1500
M204 S600
G1 F1200
G1 X156.27 Y168.912 E.00394
G1 X156.051 Y169.021 E.0093
G1 X155.859 Y169.049 E.00737
G1 X153.665 Y169.049 E.08339
G1 X153.348 Y168.971 E.01241
G1 X153.123 Y168.783 E.01114
G1 X152.992 Y168.492 E.01213
G1 X152.979 Y168.363 E.00493
G1 X152.979 Y159.139 E.35057
G1 X153.001 Y158.924 E.00821
;WIDTH:0.456759
G1 X153.023 Y158.71 E.0074
;WIDTH:0.413519
G1 X153.044 Y158.496 E.00663
;WIDTH:0.370278
G1 X153.047 Y158.36 E.0037
;WIDTH:0.36438
G1 X153.047 Y156.167 E.05862
;WIDTH:0.409587
G1 X153.025 Y155.908 E.00792
;WIDTH:0.454793
G1 X153.002 Y155.648 E.00894
;WIDTH:0.499999
G1 X152.979 Y155.389 E.00988
G1 X152.979 Y147.915 E.28406
G1 X153.024 Y147.672 E.00939
G1 X153.167 Y147.444 E.01023
G1 X153.436 Y147.269 E.0122
G1 X153.665 Y147.23 E.00883
G1 X155.859 Y147.23 E.08339
G1 X156.136 Y147.288 E.01076
G1 X156.327 Y147.414 E.0087
G1 X156.483 Y147.631 E.01016
G1 X156.545 Y147.915 E.01105
G1 X156.545 Y168.363 E.77715
G1 X156.464 Y168.686 E.01266
G1 X156.376 Y168.788 E.00512
M204 S1000
G1 X156.003 Y168.518 F12000
M204 S600
;TYPE:External perimeter
G1 F1200
G1 X155.923 Y168.582 E.00389
G1 X155.859 Y168.592 E.00246
G1 X153.665 Y168.592 E.08339
G1 X153.505 Y168.526 E.00658
G1 X153.436 Y168.363 E.00673
G1 X153.436 Y147.915 E.77715
G1 X153.499 Y147.758 E.00643
G1 X153.665 Y147.687 E.00686
G1 X155.859 Y147.687 E.08339
G1 X156.015 Y147.748 E.00637
G1 X156.087 Y147.915 E.00691
G1 X156.087 Y168.363 E.77715
G1 X156.061 Y168.471 E.00422
G1 X156.049 Y168.48 E.00057
M204 S1000
G1 E-1.6 F2100
;WIPE_START
G1 F9600
G1 X156.003 Y168.518 E-.0124
G1 X155.923 Y168.582 E-.02129
G1 X155.859 Y168.592 E-.01346
G1 X154.161 Y168.592 E-.35285
;WIPE_END
G1 X157.471 Y147.915 Z.566 F12000
G1 Z.2 F720
G1 E2 F1500
M204 S600
;TYPE:Perimeter
;WIDTH:0.524336
G1 F1200
G1 X157.471 Y168.363 E.81853
;WIDTH:0.548762
G1 X157.459 Y168.644 E.01183
M204 S1000
G1 E-1.6 F2100
;WIPE_START
G1 F9600
G1 X157.471 Y168.363 E-.05845
G1 X157.471 Y166.719 E-.34155
;WIPE_END
G1 X126.969 Y166.787 Z.732 F12000
G1 Z.2 F720
M73 P0 R73
G1 E2 F1500
M204 S600
;WIDTH:0.499999
G1 F1200
G1 X126.682 Y166.549 E.01417
G1 X126.249 Y166.366 E.01787
G1 X125.851 Y166.316 E.01525
G1 X87.831 Y166.316 E1.445
G1 X87.831 Y149.961 E.62159
G1 X125.851 Y149.961 E1.445
G1 X126.2 Y149.922 E.01335
G1 X126.607 Y149.771 E.0165
G1 X126.985 Y149.49 E.0179
G1 X127.246 Y149.143 E.0165
G1 X127.383 Y148.82 E.01333
G1 X127.451 Y148.361 E.01764
G1 X127.451 Y141.01 E.27938
G1 X146.402 Y140.369 E.72067
G1 X156.69 Y140.162 E.39109
G1 X156.873 Y142.334 E.08284
G1 X156.91 Y142.567 E.00897
G1 X157.45 Y144.829 E.08839
G1 X157.483 Y145.114 E.0109
G1 X157.483 Y147.215 E.07985
;WIDTH:0.524336
G1 X157.471 Y147.915 E.02803
G1 X157.315 Y147.251 E.0273
;WIDTH:0.499999
G1 X156.951 Y146.746 E.02366
G1 X156.505 Y146.452 E.0203
G1 X156.082 Y146.331 E.01672
G1 X155.859 Y146.315 E.0085
G1 X153.943 Y146.315 E.07282
G1 X153.393 Y146.339 E.02092
G1 X152.892 Y146.515 E.02018
G1 X152.504 Y146.815 E.01864
G1 X152.25 Y147.169 E.01656
G1 X152.115 Y147.52 E.01429
G1 X152.065 Y147.915 E.01513
G1 X152.065 Y154.567 E.25282
G1 X131.661 Y154.567 E.77548
G1 X131.312 Y154.606 E.01335
G1 X130.905 Y154.757 E.0165
G1 X130.527 Y155.038 E.0179
G1 X130.266 Y155.385 E.0165
G1 X130.129 Y155.708 E.01333
G1 X130.061 Y156.167 E.01764
G1 X130.061 Y158.138 E.07491
G1 X130.084 Y158.63 E.01872
G1 X130.241 Y159.096 E.01869
G1 X130.468 Y159.426 E.01522
G1 X130.83 Y159.727 E.01789
G1 X131.263 Y159.91 E.01787
G1 X131.661 Y159.96 E.01525
G1 X152.065 Y159.96 E.77548
G1 X152.072 Y168.508 E.32488
G1 X152.197 Y169 E.01929
G1 X152.401 Y169.343 E.01517
G1 X152.721 Y169.654 E.01696
G1 X153.156 Y169.88 E.01863
G1 X153.665 Y169.963 E.0196
G1 X155.859 Y169.963 E.08339
G1 X156.307 Y169.899 E.0172
G1 X156.819 Y169.643 E.02176
G1 X157.27 Y169.116 E.02636
;WIDTH:0.548762
G1 X157.459 Y168.644 E.02139
G1 X157.483 Y169.169 E.02211
;WIDTH:0.499999
G1 X157.483 Y176.254 E.26927
G1 X148.05 Y176.254 E.35851
G1 X141.891 Y175.757 E.23484
G1 X130.142 Y174.981 E.44751
G1 X127.451 Y174.835 E.10243
G1 X127.451 Y167.916 E.26297
G1 X127.407 Y167.543 E.01427
G1 X127.271 Y167.179 E.01477
G1 X127.044 Y166.85 E.01519
G1 X127.015 Y166.826 E.00143
M204 S1000
G1 X126.648 Y167.108 F12000
M204 S600
G1 F1200
G1 X126.445 Y166.939 E.01004
G1 X126.135 Y166.809 E.01278
G1 X125.851 Y166.773 E.01088
G1 X87.374 Y166.773 E1.46237
G1 X87.374 Y149.504 E.65633
G1 X124.853 Y149.504 E1.42444
G1 X126.1 Y149.476 E.04741
G1 X126.451 Y149.334 E.01439
G1 X126.766 Y149.045 E.01625
G1 X126.946 Y148.689 E.01516
G1 X126.994 Y148.361 E.0126
G1 X126.994 Y140.568 E.29618
G1 X146.39 Y139.912 E.73759
G1 X157.11 Y139.697 E.40751
G1 X157.328 Y142.295 E.09909
M73 P1 R73
G1 X157.894 Y144.723 E.09475
G1 X157.94 Y145.114 E.01496
G1 X157.94 Y176.711 E1.20088
G1 X148.031 Y176.711 E.3766
G1 X141.861 Y176.214 E.23526
G1 X130.112 Y175.437 E.44751
G1 X126.994 Y175.268 E.11868
G1 X126.994 Y167.916 E.27942
G1 X126.924 Y167.522 E.01521
G1 X126.703 Y167.154 E.01631
G1 X126.694 Y167.146 E.00046
M204 S1000
G1 X126.322 Y167.428 F12000
M204 S600
G1 F1200
G1 X126.155 Y167.301 E.00797
G1 X125.851 Y167.23 E.01186
G1 X86.917 Y167.23 E1.47974
G1 X86.917 Y149.046 E.69111
G1 X125.851 Y149.046 E1.47974
G1 X126.086 Y149.005 E.00907
G1 X126.307 Y148.873 E.00978
G1 X126.484 Y148.624 E.01161
G1 X126.537 Y148.361 E.0102
G1 X126.537 Y140.126 E.31298
G1 X146.377 Y139.455 E.75448
G1 X157.563 Y139.231 E.42522
G1 X157.554 Y139.527 E.01126
G1 X157.784 Y142.257 E.10412
G1 X158.397 Y144.862 E.10171
G1 X158.397 Y145.114 E.00958
G1 X158.397 Y177.169 E1.21829
G1 X148.013 Y177.169 E.39466
G1 X141.831 Y176.67 E.23572
G1 X130.082 Y175.893 E.44751
G1 X126.537 Y175.701 E.13493
G1 X126.537 Y167.916 E.29588
G1 X126.495 Y167.68 E.00911
G1 X126.367 Y167.467 E.00944
M204 S1000
G1 X126.017 Y167.781 F12000
M204 S600
;TYPE:External perimeter
G1 F1200
G1 X125.998 Y167.74 E.00172
G1 X125.851 Y167.687 E.00594
G1 X86.459 Y167.687 E1.49714
G1 X86.459 Y148.589 E.72584
G1 X125.851 Y148.589 E1.49714
G1 X126.013 Y148.522 E.00666
G1 X126.079 Y148.361 E.00661
G1 X126.079 Y139.684 E.32978
G1 X146.365 Y138.998 E.77144
G1 X158.045 Y138.764 E.444
G1 X158.01 Y139.488 E.02755
G1 X158.239 Y142.219 E.10416
G1 X158.854 Y144.808 E.10114
G1 X158.854 Y145.114 E.01163
G1 X158.854 Y177.626 E1.23566
G1 X147.995 Y177.626 E.41271
G1 X141.804 Y177.126 E.23606
G1 X130.052 Y176.349 E.44762
G1 X126.079 Y176.134 E.15122
G1 X126.079 Y167.916 E.31234
G1 X126.042 Y167.835 E.00338
M204 S1000
G1 E-1.6 F2100
;WIPE_START
G1 F9600
G1 X126.017 Y167.781 E-.01237
G1 X125.998 Y167.74 E-.00939
G1 X125.851 Y167.687 E-.03247
G1 X124.187 Y167.687 E-.34577
;WIPE_END
G1 X156.576 Y169.99 Z.767 F12000
G1 Z.2 F720
G1 E2 F1500
M204 S600
;TYPE:Solid infill
;WIDTH:0.502751
G1 F1200
G1 X157.072 Y170.486 E.02682
G1 X157.072 Y171.137 E.02489
G1 X156.255 Y170.32 E.04418
G1 X155.872 Y170.374 E.01479
G1 X155.659 Y170.374 E.00814
G1 X157.072 Y171.787 E.0764
G1 X157.072 Y172.437 E.02485
G1 X155.009 Y170.374 E.11155
G1 X154.358 Y170.374 E.02489
G1 X157.072 Y173.088 E.14675
G1 X157.072 Y173.738 E.02485
G1 X153.488 Y170.154 E.1938
M204 S1000
G1 E-1.6 F2100
;WIPE_START
G1 F9600
G1 X154.849 Y171.515 E-.4
;WIPE_END
G1 X151.86 Y160.722 Z.395 F12000
G1 Z.2 F720
G1 E2 F1500
M204 S600
G1 F1200
G1 X151.509 Y160.371 E.01898
G1 X150.858 Y160.371 E.02489
G1 X151.654 Y161.167 E.04304
G1 X151.654 Y161.817 E.02485
G1 X150.208 Y160.371 E.07819
G1 X149.558 Y160.371 E.02485
G1 X151.654 Y162.467 E.11334
G1 X151.654 Y163.118 E.02489
G1 X148.907 Y160.371 E.14854
G1 X148.257 Y160.371 E.02485
G1 X151.654 Y163.768 E.18368
G1 X151.654 Y164.418 E.02485
G1 X147.607 Y160.371 E.21883
G1 X146.956 Y160.371 E.02489
G1 X151.654 Y165.069 E.25403
G1 X151.654 Y165.719 E.02485
G1 X146.306 Y160.371 E.28918
G1 X145.656 Y160.371 E.02485
G1 X151.654 Y166.369 E.32433
G1 X151.654 Y167.019 E.02485
G1 X145.006 Y160.371 E.35947
G1 X144.355 Y160.371 E.02489
G1 X151.654 Y167.67 E.39468
G1 X151.654 Y168.32 E.02485
G1 X143.705 Y160.371 E.42982
G1 X143.055 Y160.371 E.02485
G1 X157.072 Y174.388 E.75794
G1 X157.072 Y175.038 E.02485
G1 X142.404 Y160.371 E.79311
G1 X141.754 Y160.371 E.02485
G1 X157.072 Y175.689 E.82828
G1 X157.072 Y175.843 E.00589
G1 X156.576 Y175.843 E.01896
G1 X141.104 Y160.371 E.83661
G1 X140.454 Y160.371 E.02485
G1 X155.925 Y175.843 E.83658
G1 X155.275 Y175.843 E.02485
G1 X139.803 Y160.371 E.83661
G1 X139.153 Y160.371 E.02485
G1 X154.625 Y175.843 E.83661
G1 X153.974 Y175.843 E.02489
M73 P1 R72
G1 X138.503 Y160.371 E.83658
G1 X137.852 Y160.371 E.02489
G1 X153.324 Y175.843 E.83661
G1 X152.674 Y175.843 E.02485
G1 X137.202 Y160.371 E.83661
G1 X136.552 Y160.371 E.02485
G1 X152.023 Y175.843 E.83658
G1 X151.373 Y175.843 E.02485
M73 P2 R72
G1 X135.901 Y160.371 E.83661
G1 X135.251 Y160.371 E.02485
G1 X150.723 Y175.843 E.83661
G1 X150.073 Y175.843 E.02485
G1 X134.601 Y160.371 E.83661
G1 X133.951 Y160.371 E.02485
G1 X149.422 Y175.843 E.83658
G1 X148.772 Y175.843 E.02485
G1 X133.3 Y160.371 E.83661
G1 X132.65 Y160.371 E.02485
G1 X148.122 Y175.843 E.83661
G1 X147.419 Y175.791 E.02695
G1 X131.794 Y160.166 E.84488
M204 S1000
G1 E-1.6 F2100
;WIPE_START
G1 F9600
G1 X133.155 Y161.527 E-.4
;WIPE_END
G1 X155.589 Y140.39 Z.738 F12000
G1 Z.2 F720
G1 E2 F1500
M204 S600
G1 F1200
G1 X156.362 Y141.163 E.0418
G1 X156.421 Y141.873 E.02724
G1 X155.153 Y140.605 E.06856
G1 X154.515 Y140.617 E.0244
G1 X156.5 Y142.602 E.10733
G1 X156.698 Y143.45 E.0333
G1 X153.878 Y140.63 E.15248
G1 X153.24 Y140.643 E.0244
G1 X156.902 Y144.304 E.19799
G1 X157.072 Y145.018 E.02806
G1 X157.072 Y145.125 E.00409
G1 X152.603 Y140.656 E.24165
G1 X151.965 Y140.669 E.0244
G1 X157.072 Y145.775 E.27612
G1 X157.072 Y146.337 E.02149
G1 X156.811 Y146.164 E.01197
G1 X151.328 Y140.681 E.29648
G1 X150.69 Y140.694 E.0244
G1 X155.903 Y145.907 E.28188
G1 X155.25 Y145.904 E.02497
G1 X150.053 Y140.707 E.28102
G1 X149.415 Y140.72 E.0244
G1 X154.6 Y145.904 E.28034
G1 X153.949 Y145.904 E.02489
G1 X148.778 Y140.733 E.27961
G1 X148.14 Y140.745 E.0244
G1 X153.327 Y145.932 E.28047
G1 X152.994 Y146.018 E.01315
G1 X152.835 Y146.09 E.00667
G1 X147.503 Y140.758 E.28832
G1 X146.865 Y140.771 E.0244
G1 X152.425 Y146.331 E.30064
G1 X152.205 Y146.532 E.01139
G1 X152.101 Y146.657 E.00622
G1 X146.23 Y140.786 E.31746
G1 X145.601 Y140.807 E.02406
G1 X151.85 Y147.056 E.3379
G1 X151.783 Y147.205 E.00625
G1 X151.693 Y147.55 E.01363
G1 X144.972 Y140.829 E.36342
G1 X144.343 Y140.85 E.02406
