; generated by PrusaSlicer 2.9.3 on 2025-10-30 at 15:39:32 UTC


;
;

;
;

;
;

;
;

;
;
; 

; external perimeters extrusion width = 0.45mm
; perimeters extrusion width = 0.45mm
; infill extrusion width = 0.45mm
; solid infill extrusion width = 0.45mm
; top infill extrusion width = 0.42mm
; first layer extrusion width = 0.50mm

; external perimeters extrusion width = 0.45mm
; perimeters extrusion width = 0.45mm
; infill extrusion width = 0.45mm
; solid infill extrusion width = 0.45mm
; top infill extrusion width = 0.42mm
; first layer extrusion width = 0.50mm

M73 P0 R34

EXCLUDE_OBJECT_DEFINE NAME='bear___2020___2040_extrusion_corner_camera_mount_V1(1)_stl' CENTER=85.371,87.034 POLYGON=[[86.676,72.777],[97.505,79.029],[98.371,80.529],[98.371,93.539],[97.505,95.039],[86.237,101.544],[84.505,101.544],[73.237,95.039],[72.371,93.539],[72.371,80.529],[73.237,79.029],[84.505,72.524],[86.237,72.524]]
EXCLUDE_OBJECT_DEFINE NAME='bear___2020___2040_extrusion_corner_camera_mount_V1(2)_stl' CENTER=64.628,122.965 POLYGON=[[65.503,108.460],[76.761,114.959],[77.233,115.777],[77.627,116.469],[77.627,129.470],[76.752,130.975],[65.503,137.471],[63.753,137.471],[52.494,130.972],[51.628,129.461],[51.628,116.471],[52.503,114.956],[63.753,108.460]]

;TYPE:Custom
G90 ; use absolute coordinates
M83 ; extruder relative mode
M104 S170 ; preheat hotend to 170
M140 S85 ; set bed temp
M190 S85 ; wait for bed temp
G28 ; home all
;G29 ; mesh bed leveling
BED_MESH_CALIBRATE
G0 X0 Z0.6 Y-3.0 F1000.0 ; go outside print area for intro line
M104 S225 ; set hotend temp
M109 S225 ; wait for hotend temp
;M104 S0 ; Stops PS/SS from sending temp waits separately
;M140 S0
;PRINT_START BED=85 HOTEND=225
G92 E0.0
G1 X60.0 E9.0 F1000.0 ; intro line
G1 X100.0 E12.5 F1000.0 ; intro line
G92 E0.0
SKEW_PROFILE LOAD=CaliFlower

; KLIPPER_PLR
G31
save_last_file
SAVE_VARIABLE VARIABLE=was_interrupted VALUE=True
G21 ; set units to millimeters
G90 ; use absolute coordinates
M83 ; use relative distances for extrusion
M900 K0.07 ; Filament gcode



M142 S36 ; set heatbreak target temp
M107
;LAYER_CHANGE
;Z:0.25
;HEIGHT:0.25
G1 E-.8 F2100
G1 Z1.75 F720
EXCLUDE_OBJECT_START NAME='bear___2020___2040_extrusion_corner_camera_mount_V1(2)_stl'
G1 X59.521 Y127.933 F12000
G1 Z.25 F720
G1 E.8 F1500
M204 S600
;TYPE:Perimeter
;WIDTH:0.499999
G1 F1200
G1 X59.472 Y127.885 E.00318
G1 X58.77 Y127.024 E.05154
G1 X58.433 Y126.486 E.02945
G1 X58.082 Y125.793 E.03604
G1 X57.838 Y125.136 E.03251
G1 X57.676 Y124.549 E.02825
G1 X57.555 Y123.862 E.03236
G1 X57.505 Y122.92 E.04376
G1 X57.571 Y121.965 E.04441
G1 X57.704 Y121.265 E.03306
G1 X58.093 Y120.124 E.05593
G1 X58.404 Y119.492 E.03268
G1 X58.774 Y118.896 E.03254
G1 X59.176 Y118.371 E.03068
G1 X59.628 Y117.883 E.03086
G1 X60.127 Y117.436 E.03108
G1 X60.292 Y117.316 E.00947
G1 X61.682 Y116.482 E.0752
G1 X61.913 Y116.376 E.01179
G1 X62.985 Y116.031 E.05224
G1 X63.756 Y115.891 E.03635
G1 X64.359 Y115.841 E.02807
G1 X64.972 Y115.845 E.02844
G1 X65.627 Y115.907 E.03052
G1 X66.867 Y116.2 E.05911
G1 X67.064 Y116.268 E.00967
G1 X68.088 Y116.735 E.05221
G1 X68.702 Y117.115 E.0335
G1 X69.346 Y117.623 E.03805
G1 X70.097 Y118.396 E.05
G1 X70.225 Y118.554 E.00943
G1 X70.849 Y119.489 E.05215
G1 X71.169 Y120.13 E.03324
G1 X71.405 Y120.752 E.03086
G1 X71.582 Y121.393 E.03085
G1 X71.698 Y122.048 E.03086
G1 X71.749 Y122.649 E.02798
G1 X71.719 Y123.638 E.0459
G1 X71.561 Y124.615 E.04591
G1 X71.515 Y124.794 E.00857
G1 X71.155 Y125.825 E.05066
G1 X70.741 Y126.627 E.04187
G1 X70.113 Y127.515 E.05046
G1 X69.632 Y128.044 E.03317
G1 X69.137 Y128.488 E.03085
G1 X68.603 Y128.884 E.03084
G1 X68.033 Y129.229 E.03091
G1 X67.43 Y129.521 E.03108
G1 X66.317 Y129.888 E.05437
G1 X65.241 Y130.062 E.05057
G1 X64.602 Y130.079 E.02966
G1 X64.053 Y130.069 E.02547
G1 X63.032 Y129.911 E.04793
G1 X62.308 Y129.707 E.0349
G1 X61.696 Y129.465 E.03053
G1 X61.063 Y129.139 E.03303
G1 X60.895 Y129.031 E.00927
G1 X59.65 Y128.06 E.07325
G1 X59.564 Y127.975 E.00561
M204 S1000
G1 X59.832 Y127.617 F12000
M204 S600
G1 F1200
G1 X59.818 Y127.603 E.00092
G1 X59.116 Y126.742 E.05154
G1 X58.815 Y126.255 E.02656
G1 X58.485 Y125.6 E.03403
G1 X58.257 Y124.983 E.03052
G1 X58.107 Y124.433 E.02645
G1 X57.995 Y123.788 E.03037
G1 X57.95 Y122.9 E.04125
G1 X58.016 Y122 E.04187
G1 X58.142 Y121.353 E.03058
G1 X58.514 Y120.272 E.05304
G1 X58.802 Y119.694 E.02996
G1 X59.151 Y119.135 E.03057
G1 X59.528 Y118.645 E.02868
G1 X59.954 Y118.188 E.02898
G1 X60.521 Y117.698 E.03477
G1 X61.911 Y116.864 E.0752
G1 X62.05 Y116.801 E.00708
G1 X63.122 Y116.455 E.05226
G1 X63.829 Y116.332 E.03329
G1 X64.393 Y116.286 E.02625
G1 X64.965 Y116.292 E.02654
G1 X65.582 Y116.351 E.02875
G1 X66.878 Y116.674 E.06196
G1 X67.903 Y117.141 E.05226
G1 X68.462 Y117.491 E.0306
G1 X69.026 Y117.935 E.0333
G1 X69.854 Y118.802 E.05562
G1 X70.477 Y119.737 E.05212
G1 X70.767 Y120.324 E.03037
G1 X70.987 Y120.907 E.02891
G1 X71.151 Y121.508 E.0289
G1 X71.258 Y122.123 E.02896
G1 X71.304 Y122.683 E.02607
G1 X71.273 Y123.622 E.04359
G1 X71.122 Y124.539 E.04311
G1 X70.733 Y125.678 E.05584
G1 X70.376 Y126.369 E.03608
G1 X69.748 Y127.258 E.0505
G1 X69.306 Y127.738 E.03027
G1 X68.841 Y128.154 E.02895
G1 X68.339 Y128.524 E.02893
G1 X67.805 Y128.845 E.02891
G1 X67.238 Y129.118 E.02919
G1 X66.181 Y129.463 E.05158
G1 X65.175 Y129.62 E.04724
G1 X64.121 Y129.628 E.0489
G1 X63.1 Y129.47 E.04793
G1 X62.434 Y129.279 E.03214
G1 X61.863 Y129.051 E.02852
G1 X61.169 Y128.679 E.03653
G1 X59.925 Y127.708 E.07321
G1 X59.875 Y127.659 E.00325
M204 S1000
G1 X60.146 Y127.299 F12000
M204 S600
;TYPE:External perimeter
G1 F1200
G1 X59.462 Y126.46 E.05022
G1 X59.197 Y126.025 E.02363
G1 X58.888 Y125.407 E.03205
G1 X58.676 Y124.83 E.02852
G1 X58.538 Y124.318 E.0246
G1 X58.436 Y123.714 E.02842
G1 X58.396 Y122.88 E.03874
G1 X58.461 Y122.034 E.03936
G1 X58.579 Y121.442 E.028
G1 X58.935 Y120.42 E.05021
G1 X59.2 Y119.896 E.02724
G1 X59.529 Y119.373 E.02866
G1 X59.88 Y118.919 E.02662
G1 X60.279 Y118.494 E.02704
G1 X60.751 Y118.081 E.0291
G1 X62.141 Y117.247 E.0752
G1 X63.259 Y116.88 E.05459
G1 X63.901 Y116.772 E.0302
G1 X64.428 Y116.731 E.02452
G1 X64.959 Y116.738 E.02464
G1 X65.538 Y116.795 E.02699
G1 X66.693 Y117.081 E.0552
G1 X67.718 Y117.547 E.05224
G1 X68.222 Y117.867 E.0277
G1 X68.706 Y118.246 E.02852
G1 X69.483 Y119.05 E.05187
G1 X70.108 Y119.987 E.05225
G1 X70.365 Y120.517 E.02733
G1 X70.568 Y121.063 E.02702
G1 X70.719 Y121.624 E.02695
G1 X70.818 Y122.198 E.02702
G1 X70.859 Y122.718 E.0242
G1 X70.827 Y123.605 E.04118
G1 X70.682 Y124.464 E.04042
G1 X70.312 Y125.531 E.05239
G1 X70.012 Y126.112 E.03034
G1 X69.384 Y127 E.05046
G1 X68.981 Y127.433 E.02744
G1 X68.546 Y127.819 E.02698
G1 X68.076 Y128.163 E.02702
G1 X67.576 Y128.462 E.02703
G1 X67.046 Y128.715 E.02725
G1 X66.045 Y129.037 E.04878
G1 X65.11 Y129.179 E.04387
G1 X64.189 Y129.187 E.04273
G1 X63.168 Y129.029 E.04793
G1 X62.561 Y128.851 E.02935
G1 X62.031 Y128.637 E.02652
G1 X61.444 Y128.327 E.0308
G1 X60.189 Y127.341 E.07404
M204 S1000
G1 E-.16 F2100
;WIPE_START
G1 F9600
G1 X60.146 Y127.299 E-.01249
G1 X59.462 Y126.46 E-.22495
G1 X59.197 Y126.025 E-.10585
G1 X58.888 Y125.407 E-.14359
G1 X58.676 Y124.83 E-.12775
G1 X58.644 Y124.712 E-.02537
;WIPE_END
G1 X54.023 Y116.806 Z.41 F12000
G1 Z.25 F720
G1 E.8 F1500
M204 S600
;TYPE:Perimeter
G1 F1200
G1 X54.076 Y116.712 E.00501
G1 X54.466 Y116.389 E.02349
G1 X63.808 Y110.991 E.50055
G1 X64.272 Y110.766 E.02392
G1 X64.59 Y110.683 E.01525
G1 X64.855 Y110.718 E.0124
G1 X65.373 Y110.946 E.02626
G1 X74.678 Y116.317 E.49844
G1 X75.118 Y116.648 E.02554
G1 X75.321 Y116.935 E.01631
G1 X75.367 Y117.16 E.01065
G1 X75.409 Y117.67 E.02374
G1 X75.409 Y127.759 E.46805
G1 X75.378 Y128.688 E.04312
G1 X75.297 Y129.009 E.01536
G1 X75.179 Y129.219 E.01118
G1 X74.789 Y129.542 E.02349
G1 X65.864 Y134.699 E.4782
G1 X65 Y135.157 E.04537
G1 X64.727 Y135.231 E.01312
G1 X64.416 Y135.219 E.01444
G1 X63.882 Y134.985 E.02705
G1 X54.642 Y129.651 E.49497
G1 X54.216 Y129.359 E.02396
G1 X53.996 Y129.127 E.01483
G1 X53.9 Y128.864 E.01299
G1 X53.846 Y128.334 E.02472
G1 X53.846 Y118.172 E.47144
G1 X53.878 Y117.243 E.04312
G1 X53.958 Y116.922 E.01535
G1 X53.994 Y116.858 E.00341
M204 S1000
G1 X53.63 Y116.552 F12000
M204 S600
G1 F1200
G1 X53.815 Y116.326 E.01355
G1 X54.218 Y116.017 E.02356
G1 X63.585 Y110.605 E.50188
G1 X64.094 Y110.357 E.02627
G1 X64.577 Y110.23 E.02317
G1 X64.976 Y110.284 E.01868
G1 X65.575 Y110.547 E.03035
G1 X74.396 Y115.639 E.47252
G1 X75.203 Y116.137 E.04399
G1 X75.559 Y116.451 E.02202
G1 X75.74 Y116.767 E.01689
G1 X75.812 Y117.117 E.01658
G1 X75.856 Y117.67 E.02574
G1 X75.856 Y128.361 E.49598
G1 X75.806 Y128.906 E.02539
G1 X75.652 Y129.346 E.02163
G1 X75.44 Y129.605 E.01553
G1 X75.037 Y129.914 E.02356
G1 X65.582 Y135.378 E.50662
G1 X65.033 Y135.63 E.02802
G1 X64.617 Y135.704 E.0196
G1 X64.288 Y135.651 E.01546
G1 X63.68 Y135.384 E.03081
G1 X54.34 Y129.992 E.50033
G1 X53.897 Y129.68 E.02514
M73 P1 R34
G1 X53.6 Y129.346 E.02074
G1 X53.462 Y128.964 E.01884
G1 X53.4 Y128.357 E.02831
G1 X53.4 Y117.57 E.50044
G1 X53.449 Y117.025 E.02539
G1 X53.598 Y116.601 E.02085
M204 S1000
G1 X53.254 Y116.308 F12000
M204 S600
;TYPE:External perimeter
G1 F1200
G1 X53.502 Y116.003 E.01824
G1 X53.97 Y115.645 E.02734
G1 X63.565 Y110.101 E.5141
G1 X64.094 Y109.87 E.02678
G1 X64.563 Y109.778 E.02217
G1 X65.098 Y109.85 E.02504
G1 X65.777 Y110.148 E.0344
G1 X74.62 Y115.253 E.4737
G1 X75.456 Y115.77 E.0456
G1 X75.914 Y116.173 E.0283
G1 X76.158 Y116.599 E.02278
G1 X76.262 Y117.141 E.0256
G1 X76.302 Y117.67 E.02461
G1 X76.302 Y128.381 E.49691
G1 X76.246 Y129.001 E.02888
G1 X76.047 Y129.567 E.02783
G1 X75.753 Y129.928 E.0216
G1 X75.286 Y130.286 E.0273
G1 X65.691 Y135.83 E.5141
G1 X65.163 Y136.06 E.02672
G1 X64.621 Y136.157 E.02554
G1 X64.161 Y136.082 E.02162
G1 X63.478 Y135.783 E.03459
G1 X54.009 Y130.305 E.50751
G1 X53.558 Y129.977 E.02587
G1 X53.205 Y129.564 E.02521
G1 X53.023 Y129.064 E.02469
G1 X52.953 Y128.38 E.0319
G1 X52.953 Y117.55 E.50243
G1 X53.01 Y116.93 E.02888
G1 X53.208 Y116.363 E.02786
G1 X53.216 Y116.354 E.00056
M204 S1000
G1 E-.16 F2100
;WIPE_START
G1 F9600
G1 X53.254 Y116.308 E-.0124
G1 X53.502 Y116.003 E-.08169
G1 X53.97 Y115.645 E-.12245
G1 X55.734 Y114.626 E-.42346
;WIPE_END
G1 X75.177 Y117.274 Z.593 F12000
G1 Z.25 F720
G1 E.8 F1500
M204 S600
;TYPE:Solid infill
;WIDTH:0.504101
G1 F1200
G1 X74.759 Y116.861 E.02751
G1 X74.463 Y116.657 E.01683
G1 X73.184 Y115.919 E.06914
G1 X75.008 Y117.742 E.12074
G1 X75.008 Y118.379 E.02982
G1 X71.677 Y115.049 E.22052
G1 X70.17 Y114.179 E.08147
G1 X75.008 Y119.016 E.3203
G1 X75.008 Y119.653 E.02982
G1 X68.663 Y113.309 E.42008
G1 X67.156 Y112.439 E.08147
G1 X75.008 Y120.29 E.51986
G1 X75.008 Y120.927 E.02982
G1 X65.649 Y111.569 E.61964
G1 X65.191 Y111.305 E.02475
G1 X64.745 Y111.109 E.02281
G1 X64.602 Y111.09 E.00675
G1 X64.544 Y111.101 E.00276
G1 X75.008 Y121.565 E.69284
G1 X75.008 Y122.202 E.02982
G1 X64.095 Y111.289 E.72257
G1 X63.691 Y111.522 E.02184
G1 X75.008 Y122.839 E.74932
G1 X75.008 Y123.476 E.02982
G1 X71.559 Y120.027 E.22837
G1 X71.784 Y120.619 E.02965
G1 X71.888 Y120.993 E.01817
G1 X75.008 Y124.113 E.20658
G1 X75.008 Y124.75 E.02982
G1 X72.063 Y121.805 E.19499
G1 X72.095 Y121.988 E.0087
G1 X72.141 Y122.52 E.025
G1 X75.008 Y125.387 E.18983
G1 X75.008 Y126.024 E.02982
G1 X72.13 Y123.146 E.19056
G1 X72.105 Y123.758 E.02868
G1 X75.008 Y126.661 E.19221
G1 X75.008 Y127.298 E.02982
G1 X72.021 Y124.311 E.19778
G1 X71.917 Y124.844 E.02543
G1 X75.008 Y127.935 E.20466
G1 X75.008 Y128.323 E.01817
G1 X74.987 Y128.551 E.01072
G1 X71.757 Y125.321 E.21386
G1 X71.592 Y125.793 E.02341
G1 X74.815 Y129.016 E.2134
G1 X74.566 Y129.207 E.01469
G1 X74.441 Y129.279 E.00675
G1 X71.398 Y126.236 E.20148
G1 X71.187 Y126.662 E.02226
G1 X74.037 Y129.512 E.1887
G1 X73.633 Y129.746 E.02186
G1 X70.934 Y127.046 E.17874
G1 X70.667 Y127.416 E.02136
G1 X73.229 Y129.979 E.16967
G1 X72.826 Y130.212 E.02179
G1 X70.399 Y127.786 E.16066
G1 X70.316 Y127.901 E.00664
G1 X70.102 Y128.126 E.01454
G1 X72.422 Y130.445 E.15358
G1 X72.018 Y130.679 E.02186
G1 X69.788 Y128.448 E.14769
G1 X69.45 Y128.747 E.02113
G1 X71.614 Y130.912 E.14332
G1 X71.211 Y131.145 E.02179
G1 X69.087 Y129.022 E.1406
G1 X68.717 Y129.289 E.02136
G1 X70.807 Y131.379 E.13838
G1 X70.403 Y131.612 E.02184
G1 X68.315 Y129.524 E.13825
G1 X67.895 Y129.741 E.02213
G1 X70 Y131.845 E.13934
G1 X69.596 Y132.079 E.02186
G1 X67.457 Y129.94 E.14163
G1 X66.978 Y130.098 E.02361
G1 X69.192 Y132.312 E.14659
G1 X68.788 Y132.545 E.02184
G1 X66.495 Y130.252 E.15182
G1 X66.205 Y130.325 E.014
G1 X65.964 Y130.358 E.01139
G1 X68.385 Y132.778 E.16027
G1 X67.981 Y133.012 E.02186
G1 X65.404 Y130.434 E.17066
G1 X65.103 Y130.475 E.01422
G1 X64.81 Y130.478 E.01372
G1 X67.577 Y133.245 E.18321
G1 X67.173 Y133.478 E.02184
G1 X64.175 Y130.48 E.1985
G1 X63.438 Y130.38 E.03482
G1 X66.77 Y133.712 E.22062
G1 X66.366 Y133.945 E.02184
G1 X62.635 Y130.214 E.24704
G1 X62.107 Y130.064 E.0257
G1 X61.665 Y129.881 E.0224
G1 X66.109 Y134.325 E.29425
M204 S1000
G1 E-.16 F2100
;WIPE_START
G1 F9600
G1 X63.931 Y132.147 E-.64
;WIPE_END
G1 X68.023 Y116.491 Z.532 F12000
G1 Z.25 F720
G1 E.8 F1500
M204 S600
G1 F1200
G1 X63.288 Y111.756 E.31351
G1 X62.884 Y111.989 E.02184
G1 X66.634 Y115.739 E.24829
G1 X65.794 Y115.537 E.04045
G1 X62.48 Y112.222 E.21946
G1 X62.077 Y112.456 E.02182
G1 X65.073 Y115.452 E.19837
G1 X64.424 Y115.44 E.03039
G1 X61.673 Y112.689 E.18215
G1 X61.269 Y112.922 E.02184
G1 X63.829 Y115.483 E.16954
G1 X63.273 Y115.564 E.02631
G1 X60.865 Y113.156 E.15944
G1 X60.462 Y113.389 E.02179
G1 X62.755 Y115.683 E.15186
G1 X62.274 Y115.838 E.02366
G1 X60.058 Y113.622 E.14673
G1 X59.654 Y113.855 E.02184
M73 P2 R34
G1 X61.792 Y115.993 E.14156
G1 X61.503 Y116.12 E.01478
G1 X61.365 Y116.203 E.00754
G1 X59.25 Y114.089 E.14001
G1 X58.847 Y114.322 E.02179
G1 X60.967 Y116.442 E.14037
G1 X60.569 Y116.681 E.02174
G1 X58.443 Y114.555 E.14077
G1 X58.039 Y114.789 E.02186
G1 X60.17 Y116.92 E.1411
G1 X59.801 Y117.188 E.02135
G1 X57.635 Y115.022 E.14342
G1 X57.232 Y115.255 E.02179
G1 X59.463 Y117.486 E.14772
G1 X59.149 Y117.81 E.02112
G1 X56.828 Y115.489 E.15368
G1 X56.424 Y115.722 E.02184
G1 X58.849 Y118.147 E.16056
G1 X58.57 Y118.505 E.02125
M73 P2 R33
G1 X56.021 Y115.955 E.16881
G1 X55.617 Y116.188 E.02184
G1 X58.31 Y118.882 E.17834
G1 X58.066 Y119.275 E.02166
G1 X55.213 Y116.422 E.1889
G1 X54.809 Y116.655 E.02184
G1 X57.855 Y119.7 E.20165
G1 X57.718 Y119.982 E.01468
G1 X57.661 Y120.143 E.008
G1 X54.436 Y116.919 E.2135
G1 X54.409 Y116.939 E.00157
G1 X54.354 Y117.006 E.00406
G1 X54.284 Y117.206 E.00992
G1 X54.268 Y117.388 E.00855
G1 X57.495 Y120.615 E.21367
G1 X57.341 Y121.098 E.02374
G1 X54.248 Y118.005 E.20479
G1 X54.248 Y118.642 E.02982
G1 X57.232 Y121.626 E.19758
G1 X57.171 Y121.923 E.0142
G1 X57.152 Y122.183 E.01221
G1 X54.248 Y119.279 E.19228
G1 X54.248 Y119.916 E.02982
G1 X57.108 Y122.776 E.18937
G1 X57.126 Y123.431 E.03068
G1 X54.248 Y120.553 E.19056
G1 X54.248 Y121.19 E.02982
G1 X57.2 Y124.142 E.19546
G1 X57.26 Y124.528 E.01829
G1 X57.369 Y124.948 E.02032
G1 X54.248 Y121.827 E.20665
G1 X54.248 Y122.464 E.02982
G1 X58.121 Y126.337 E.25644
M204 S1000
G1 E-.16 F2100
;WIPE_START
G1 F9600
G1 X55.943 Y124.159 E-.64
;WIPE_END
G1 X54.047 Y122.9 Z.29 F12000
G1 Z.25 F720
G1 E.8 F1500
M204 S600
G1 F1200
G1 X65.558 Y134.412 E.7622
G1 X65.155 Y134.645 E.02179
G1 X54.248 Y123.738 E.72217
G1 X54.248 Y124.375 E.02982
G1 X64.701 Y134.828 E.69211
G1 X64.61 Y134.844 E.00433
G1 X64.531 Y134.831 E.00375
G1 X64.064 Y134.626 E.02388
G1 X63.586 Y134.35 E.02584
G1 X54.248 Y125.012 E.61829
G1 X54.248 Y125.649 E.02982
G1 X62.079 Y133.48 E.51851
G1 X60.572 Y132.61 E.08147
G1 X54.248 Y126.286 E.41872
G1 X54.248 Y126.923 E.02982
G1 X59.065 Y131.74 E.31894
G1 X57.558 Y130.87 E.08147
G1 X54.248 Y127.56 E.21916
G1 X54.248 Y128.197 E.02982
G1 X56.051 Y130 E.11938
G1 X54.797 Y129.276 E.06779
G1 X54.436 Y129.023 E.02064
G1 X54.082 Y128.669 E.02344
M204 S1000
G1 E-.16 F2100
;WIPE_START
G1 F9600
G1 X54.436 Y129.023 E-.10404
G1 X54.797 Y129.276 E-.09161
G1 X56.051 Y130 E-.30091
G1 X55.563 Y129.512 E-.14344
;WIPE_END
