; generated by PrusaSlicer 2.9.3 on 2025-10-21 at 14:41:16 UTC


;
;

;
;

;
;

;
;

;
;
; 

; external perimeters extrusion width = 0.45mm
; perimeters extrusion width = 0.45mm
; infill extrusion width = 0.45mm
; solid infill extrusion width = 0.45mm
; top infill extrusion width = 0.42mm
; first layer extrusion width = 0.50mm

; external perimeters extrusion width = 0.45mm
; perimeters extrusion width = 0.45mm
; infill extrusion width = 0.45mm
; solid infill extrusion width = 0.45mm
; top infill extrusion width = 0.42mm
; first layer extrusion width = 0.50mm

M73 P0 R68

EXCLUDE_OBJECT_DEFINE NAME='crysknife(21)_stl' CENTER=152.708,106.729 POLYGON=[[194.928,35.254],[220.090,60.417],[207.345,72.252],[195.848,83.116],[183.953,94.511],[171.776,106.329],[159.432,118.455],[147.043,130.772],[134.726,143.161],[122.601,155.504],[110.783,167.681],[99.387,179.576],[88.523,191.074],[78.585,201.751],[77.978,200.448],[78.251,194.610],[80.583,186.821],[84.951,177.155],[91.312,165.708],[99.607,152.588],[109.753,137.922],[121.656,121.852],[135.198,104.530],[150.251,86.126],[166.669,66.816],[184.293,46.786],[194.841,35.167]]
EXCLUDE_OBJECT_DEFINE NAME='crysknife(19)_stl' CENTER=97.292,103.271 POLYGON=[[172.022,9.552],[171.749,15.390],[169.417,23.179],[165.049,32.845],[158.688,44.292],[150.393,57.412],[140.247,72.078],[128.344,88.148],[114.802,105.470],[99.749,123.874],[83.331,143.184],[65.707,163.214],[55.159,174.833],[29.909,149.583],[42.655,137.748],[54.152,126.884],[66.047,115.489],[78.224,103.671],[90.568,91.545],[102.957,79.228],[115.274,66.839],[127.399,54.496],[139.217,42.319],[150.613,30.424],[161.477,18.926],[171.415,8.249]]

;TYPE:Custom
G90 ; use absolute coordinates
M83 ; extruder relative mode
M104 S170 ; preheat hotend to 170
M140 S65 ; set bed temp
M190 S65 ; wait for bed temp
G28 ; home all
;G29 ; mesh bed leveling
BED_MESH_CALIBRATE
G0 X0 Z0.6 Y-3.0 F1000.0 ; go outside print area for intro line
M104 S215 ; set hotend temp
M109 S215 ; wait for hotend temp
;M104 S0 ; Stops PS/SS from sending temp waits separately
;M140 S0
;PRINT_START BED=65 HOTEND=215
G92 E0.0
G1 X60.0 E9.0 F1000.0 ; intro line
G1 X100.0 E12.5 F1000.0 ; intro line
G92 E0.0
SKEW_PROFILE LOAD=CaliFlower
G21 ; set units to millimeters
G90 ; use absolute coordinates
M83 ; use relative distances for extrusion
;M900 K0.05 ; Filament gcode



;M142 S36 ; set heatbreak target temp
M107
;LAYER_CHANGE
;Z:0.2
;HEIGHT:0.2
G1 E-2 F2100
G1 Z.8 F720
EXCLUDE_OBJECT_START NAME='crysknife(21)_stl'
G1 X218.779 Y60.387 F12000
G1 Z.2 F720
G1 E2 F1500
M204 S600
;TYPE:Perimeter
;WIDTH:0.499999
G1 F1200
G1 X217.721 Y61.355 E.0545
G1 X206.727 Y71.588 E.57083
G1 X195.224 Y82.457 E.60148
G1 X183.325 Y93.856 E.62627
G1 X171.143 Y105.679 E.64519
G1 X158.796 Y117.808 E.65781
G1 X146.403 Y130.129 E.66418
G1 X134.082 Y142.522 E.66418
G1 X121.953 Y154.869 E.65781
G1 X110.131 Y167.05 E.64514
G1 X98.731 Y178.949 E.62629
G1 X89.622 Y188.59 E.5041
G1 X89.091 Y189.2 E.03074
G1 X89.132 Y188.74 E.01755
G1 X89.304 Y185.143 E.13686
G1 X91.475 Y177.888 E.28782
G1 X95.595 Y168.771 E.38024
G1 X101.624 Y157.923 E.47169
G1 X109.501 Y145.463 E.56025
G1 X119.148 Y131.522 E.64433
G1 X130.468 Y116.236 E.72292
G1 X143.353 Y99.754 E.79512
G1 X157.68 Y82.239 E.86002
G1 X173.308 Y63.859 E.91694
G1 X190.084 Y44.791 E.96526
G1 X196.317 Y37.926 E.35241
G1 X218.736 Y60.345 E1.205
M204 S1000
G1 X219.44 Y60.402 F12000
M204 S600
;TYPE:External perimeter
G1 F1200
G1 X218.03 Y61.692 E.07263
G1 X207.038 Y71.923 E.57072
G1 X195.538 Y82.789 E.60132
G1 X183.642 Y94.186 E.62613
G1 X171.462 Y106.007 E.64509
G1 X159.117 Y118.134 E.6577
G1 X146.725 Y130.453 E.6641
G1 X134.406 Y142.844 E.66407
G1 X122.279 Y155.189 E.6577
G1 X110.459 Y167.369 E.64506
G1 X99.061 Y179.266 E.62618
G1 X89.955 Y188.904 E.50394
G2 X89.026 Y190.06 I6.527 J6.195 E.05643
G1 X88.538 Y190.466 E.02413
G1 X88.421 Y190.088 E.01504
G2 X88.675 Y188.718 I-6.173 J-1.854 E.05306
G1 X88.85 Y185.065 E.139
G1 X91.046 Y177.728 E.29107
G1 X95.186 Y168.566 E.38211
G1 X101.23 Y157.69 E.4729
G1 X109.119 Y145.211 E.56111
G1 X118.776 Y131.256 E.64499
G1 X130.105 Y115.959 E.72346
G1 X142.996 Y99.469 E.7955
G1 X157.329 Y81.946 E.8604
M73 P1 R68
G1 X172.962 Y63.56 E.91723
G1 X189.743 Y44.486 E.96555
M73 P1 R67
G1 X196.301 Y37.263 E.37079
G1 X219.397 Y60.36 E1.24141
M204 S1000
G1 X218.363 Y60.522 F12000
M204 S600
;TYPE:Solid infill
;WIDTH:0.500554
G1 F1200
G1 X196.33 Y38.489 E1.18569
G1 X196.022 Y38.828 E.01743
G1 X217.882 Y60.688 E1.17638
G1 X217.547 Y61 E.01742
G1 X195.714 Y39.167 E1.17493
G1 X195.406 Y39.507 E.01746
G1 X217.211 Y61.312 E1.17342
G1 X216.876 Y61.623 E.01739
G1 X195.098 Y39.846 E1.17194
G1 X194.79 Y40.185 E.01743
G1 X216.54 Y61.935 E1.17046
G1 X216.205 Y62.247 E.01742
G1 X194.482 Y40.524 E1.16901
G1 X194.174 Y40.863 E.01743
G1 X215.87 Y62.559 E1.16755
G1 X215.534 Y62.87 E.01742
G1 X193.866 Y41.203 E1.16602
G1 X193.558 Y41.542 E.01743
G1 X215.199 Y63.182 E1.16457
G1 X214.863 Y63.494 E.01745
G1 X193.25 Y41.881 E1.16309
G1 X192.942 Y42.22 E.01743
G1 X214.528 Y63.806 E1.16163
G1 X214.192 Y64.118 E.01745
G1 X192.635 Y42.56 E1.1601
G1 X192.327 Y42.899 E.01743
G1 X213.857 Y64.429 E1.15862
G1 X213.522 Y64.741 E.01742
G1 X192.019 Y43.238 E1.15717
G1 X191.711 Y43.577 E.01743
G1 X213.186 Y65.053 E1.15569
G1 X212.851 Y65.365 E.01742
G1 X191.403 Y43.917 E1.15421
G1 X191.095 Y44.256 E.01743
G1 X212.515 Y65.677 E1.15273
G1 X212.18 Y65.988 E.01739
G1 X190.787 Y44.595 E1.15125
G1 X190.479 Y44.934 E.01743
G1 X211.845 Y66.3 E1.1498
G1 X211.509 Y66.612 E.01745
G1 X190.174 Y45.277 E1.14813
G1 X189.871 Y45.621 E.01744
G1 X211.174 Y66.924 E1.1464
G1 X210.838 Y67.235 E.01742
G1 X189.568 Y45.965 E1.14463
G1 X189.265 Y46.31 E.01747
M73 P2 R67
G1 X210.503 Y67.547 E1.14288
G1 X210.168 Y67.859 E.01742
G1 X188.963 Y46.654 E1.14113
G1 X188.66 Y46.998 E.01744
G1 X209.832 Y68.171 E1.13938
G1 X209.497 Y68.483 E.01742
G1 X188.357 Y47.343 E1.13763
G1 X188.054 Y47.687 E.01744
G1 X209.161 Y68.794 E1.13586
G1 X208.826 Y69.106 E.01742
G1 X187.751 Y48.031 E1.13414
G1 X187.448 Y48.375 E.01744
G1 X208.491 Y69.418 E1.13241
G1 X208.155 Y69.73 E.01745
G1 X187.145 Y48.72 E1.13064
G1 X186.842 Y49.064 E.01744
G1 X207.82 Y70.042 E1.12892
G1 X207.484 Y70.353 E.01742
G1 X186.539 Y49.408 E1.12714
G1 X186.236 Y49.752 E.01744
G1 X207.149 Y70.665 E1.12542
G1 X206.814 Y70.977 E.01742
G1 X185.933 Y50.097 E1.12367
G1 X185.631 Y50.441 E.01742
G1 X206.478 Y71.289 E1.12189
G1 X206.145 Y71.603 E.01742
G1 X185.328 Y50.785 E1.12028
G1 X185.025 Y51.13 E.01747
M73 P2 R66
G1 X205.813 Y71.917 E1.11866
G1 X205.48 Y72.232 E.01744
G1 X184.722 Y51.474 E1.11708
G1 X184.419 Y51.818 E.01744
G1 X205.147 Y72.546 E1.11546
G1 X204.814 Y72.861 E.01744
G1 X184.116 Y52.162 E1.11387
G1 X183.813 Y52.507 E.01747
G1 X204.481 Y73.175 E1.11223
G1 X204.149 Y73.49 E.01741
G1 X183.51 Y52.851 E1.11067
G1 X183.207 Y53.195 E.01744
G1 X203.816 Y73.804 E1.10906
G1 X203.483 Y74.118 E.01742
G1 X182.904 Y53.54 E1.10742
G1 X182.601 Y53.884 E.01744
G1 X203.15 Y74.433 E1.10583
G1 X202.818 Y74.747 E.01739
G1 X182.299 Y54.228 E1.10421
G1 X181.996 Y54.572 E.01744
G1 X202.485 Y75.062 E1.10263
G1 X202.152 Y75.376 E.01742
G1 X181.693 Y54.917 E1.10099
G1 X181.39 Y55.261 E.01744
G1 X201.819 Y75.691 E1.0994
G1 X201.487 Y76.005 E.01739
M73 P3 R66
G1 X181.087 Y55.605 E1.09781
G1 X180.784 Y55.95 E.01747
G1 X201.154 Y76.319 E1.09617
G1 X200.821 Y76.634 E.01744
G1 X180.481 Y56.294 E1.09458
G1 X180.178 Y56.638 E.01744
G1 X200.488 Y76.948 E1.09297
G1 X200.156 Y77.263 E.01741
G1 X179.875 Y56.982 E1.09141
G1 X179.572 Y57.327 E.01747
G1 X199.823 Y77.577 E1.08977
G1 X199.49 Y77.892 E.01744
G1 X179.269 Y57.671 E1.08818
G1 X178.966 Y58.015 E.01744
G1 X199.157 Y78.206 E1.08656
G1 X198.824 Y78.52 E.01742
G1 X178.664 Y58.36 E1.0849
G1 X178.361 Y58.704 E.01744
G1 X198.492 Y78.835 E1.08333
G1 X198.159 Y79.149 E.01742
G1 X178.058 Y59.048 E1.08172
G1 X177.755 Y59.392 E.01744
G1 X197.826 Y79.464 E1.08013
G1 X197.493 Y79.778 E.01742
G1 X177.452 Y59.737 E1.07849
G1 X177.149 Y60.081 E.01744
G1 X197.161 Y80.093 E1.07693
G1 X196.828 Y80.407 E.01742
G1 X176.846 Y60.425 E1.07532
G1 X176.543 Y60.77 E.01747
G1 X196.495 Y80.721 E1.07367
G1 X196.162 Y81.036 E.01744
G1 X176.24 Y61.114 E1.07209
G1 X175.937 Y61.458 E.01744
G1 X195.83 Y81.35 E1.0705
G1 X195.497 Y81.665 E.01744
G1 X175.634 Y61.802 E1.06891
G1 X175.332 Y62.147 E.01745
G1 X195.164 Y81.979 E1.06724
G1 X194.832 Y82.294 E.01741
G1 X175.029 Y62.491 E1.06568
G1 X174.726 Y62.835 E.01744
G1 X194.502 Y82.611 E1.06423
G1 X194.171 Y82.928 E.01744
G1 X174.423 Y63.18 E1.06272
G1 X174.12 Y63.524 E.01744
G1 X193.84 Y83.244 E1.06122
G1 X193.51 Y83.561 E.01741
G1 X173.817 Y63.868 E1.05976
G1 X173.516 Y64.214 E.01745
G1 X193.179 Y83.878 E1.05818
G1 X192.849 Y84.194 E.01739
G1 X173.218 Y64.564 E1.0564
G1 X172.921 Y64.914 E.01747
M73 P3 R65
G1 X192.518 Y84.511 E1.0546
G1 X192.188 Y84.828 E.01741
M73 P4 R65
G1 X172.623 Y65.263 E1.05288
G1 X172.326 Y65.613 E.01747
G1 X191.857 Y85.144 E1.05105
G1 X191.527 Y85.461 E.01741
G1 X172.029 Y65.963 E1.04927
G1 X171.731 Y66.313 E.01749
G1 X191.196 Y85.778 E1.04749
G1 X190.866 Y86.094 E.01739
G1 X171.434 Y66.662 E1.04572
G1 X171.136 Y67.012 E.01749
G1 X190.535 Y86.411 E1.04394
G1 X190.205 Y86.728 E.01741
G1 X170.839 Y67.362 E1.04217
G1 X170.542 Y67.712 E.01747
G1 X189.874 Y87.044 E1.04034
G1 X189.544 Y87.361 E.01741
G1 X170.244 Y68.062 E1.03859
G1 X169.947 Y68.411 E.01744
G1 X189.213 Y87.678 E1.03681
G1 X188.883 Y87.994 E.01739
G1 X169.649 Y68.761 E1.03504
G1 X169.352 Y69.111 E.01747
G1 X188.552 Y88.311 E1.03323
G1 X188.221 Y88.628 E.01744
G1 X169.055 Y69.461 E1.03143
G1 X168.757 Y69.81 E.01746
G1 X187.891 Y88.944 E1.02968
G1 X187.56 Y89.261 E.01744
G1 X168.46 Y70.16 E1.02788
G1 X168.162 Y70.51 E.01749
G1 X187.23 Y89.578 E1.02613
G1 X186.899 Y89.894 E.01741
G1 X167.865 Y70.86 E1.0243
G1 X167.567 Y71.21 E.01749
G1 X186.569 Y90.211 E1.02255
G1 X186.238 Y90.528 E.01744
G1 X167.27 Y71.559 E1.02078
G1 X166.973 Y71.909 E.01747
G1 X185.908 Y90.844 E1.01897
G1 X185.577 Y91.161 E.01744
G1 X166.675 Y72.259 E1.0172
G1 X166.378 Y72.609 E.01747
G1 X185.247 Y91.478 E1.01542
G1 X184.916 Y91.794 E.01741
G1 X166.08 Y72.958 E1.01365
G1 X165.783 Y73.308 E.01747
G1 X184.586 Y92.111 E1.01187
G1 X184.255 Y92.427 E.01741
G1 X165.486 Y73.658 E1.01004
G1 X165.188 Y74.008 E.01749
G1 X183.925 Y92.744 E1.00829
G1 X183.594 Y93.061 E.01744
G1 X164.891 Y74.358 E1.00649
G1 X164.593 Y74.707 E.01746
G1 X183.263 Y93.377 E1.00471
G1 X182.934 Y93.695 E.01741
G1 X164.296 Y75.057 E1.00299
G1 X163.999 Y75.407 E.01747
G1 X182.605 Y94.014 E1.00129
G1 X182.277 Y94.332 E.01738
M73 P5 R65
G1 X163.701 Y75.757 E.99963
G1 X163.404 Y76.106 E.01744
G1 X181.948 Y94.651 E.99796
G1 X181.62 Y94.97 E.01741
G1 X163.106 Y76.456 E.99632
G1 X162.809 Y76.806 E.01747
G1 X181.291 Y95.289 E.99462
G1 X180.963 Y95.607 E.01738
G1 X162.511 Y77.156 E.99295
G1 X162.214 Y77.506 E.01747
G1 X180.635 Y95.926 E.99129
G1 X180.306 Y96.245 E.01744
G1 X161.917 Y77.855 E.98962
G1 X161.619 Y78.205 E.01749
G1 X179.978 Y96.564 E.98798
G1 X179.649 Y96.882 E.01741
G1 X161.322 Y78.555 E.98625
G1 X161.024 Y78.905 E.01749
G1 X179.321 Y97.201 E.98461
G1 X178.992 Y97.52 E.01744
G1 X160.727 Y79.255 E.98292
G1 X160.43 Y79.604 E.01744
G1 X178.664 Y97.839 E.98128
G1 X178.336 Y98.157 E.01738
G1 X160.132 Y79.954 E.97961
G1 X159.835 Y80.304 E.01747
M73 P5 R64
G1 X178.007 Y98.476 E.97791
G1 X177.679 Y98.795 E.01741
G1 X159.537 Y80.654 E.97627
G1 X159.24 Y81.003 E.01744
G1 X177.35 Y99.114 E.9746
G1 X177.022 Y99.432 E.01738
G1 X158.943 Y81.353 E.97291
G1 X158.645 Y81.703 E.01749
G1 X176.693 Y99.751 E.97124
G1 X176.365 Y100.07 E.01741
G1 X158.348 Y82.053 E.96957
G1 X158.05 Y82.403 E.01749
G1 X176.036 Y100.389 E.9679
G1 X175.708 Y100.707 E.01738
G1 X157.758 Y82.757 E.96597
G1 X157.466 Y83.113 E.01752
G1 X175.38 Y101.026 E.964
G1 X175.051 Y101.345 E.01744
G1 X157.175 Y83.469 E.96198
G1 X156.884 Y83.825 E.0175
G1 X174.723 Y101.664 E.95999
G1 X174.394 Y101.982 E.01741
G1 X156.593 Y84.181 E.95795
G1 X156.302 Y84.537 E.0175
G1 X174.066 Y102.301 E.95596
G1 X173.737 Y102.62 E.01744
G1 X156.01 Y84.893 E.95397
G1 X155.719 Y85.249 E.0175
G1 X173.409 Y102.939 E.95197
G1 X173.08 Y103.257 E.01741
G1 X155.428 Y85.605 E.94993
G1 X155.137 Y85.961 E.0175
G1 X172.752 Y103.576 E.94794
G1 X172.424 Y103.895 E.01741
G1 X154.846 Y86.317 E.94595
G1 X154.555 Y86.673 E.0175
M73 P6 R64
G1 X172.095 Y104.214 E.94393
G1 X171.767 Y104.532 E.01738
G1 X154.263 Y87.029 E.94194
G1 X153.972 Y87.385 E.0175
G1 X171.438 Y104.851 E.93992
G1 X171.11 Y105.17 E.01741
G1 X153.681 Y87.741 E.93793
G1 X153.39 Y88.097 E.0175
G1 X170.782 Y105.489 E.93594
G1 X170.455 Y105.81 E.01744
G1 X153.099 Y88.453 E.93403
G1 X152.807 Y88.809 E.01752
G1 X170.129 Y106.131 E.93217
G1 X169.803 Y106.451 E.01738
G1 X152.516 Y89.165 E.93026
G1 X152.225 Y89.521 E.0175
G1 X169.476 Y106.772 E.92835
G1 X169.15 Y107.093 E.01741
G1 X151.934 Y89.877 E.92647
G1 X151.643 Y90.233 E.0175
G1 X168.823 Y107.414 E.92456
G1 X168.497 Y107.734 E.01738
G1 X151.352 Y90.589 E.92265
G1 X151.06 Y90.945 E.01752
G1 X168.17 Y108.055 E.92076
G1 X167.844 Y108.376 E.01741
G1 X150.769 Y91.301 E.91888
G1 X150.478 Y91.657 E.0175
G1 X167.517 Y108.696 E.91694
G1 X167.191 Y109.017 E.01741
G1 X150.187 Y92.013 E.91506
G1 X149.896 Y92.369 E.0175
G1 X166.864 Y109.338 E.91315
G1 X166.538 Y109.659 E.01741
G1 X149.604 Y92.725 E.91129
G1 X149.313 Y93.081 E.0175
G1 X166.211 Y109.979 E.90935
G1 X165.885 Y110.3 E.01741
G1 X149.022 Y93.437 E.90747
G1 X148.731 Y93.793 E.0175
G1 X165.558 Y110.621 E.90556
G1 X165.232 Y110.941 E.01738
G1 X148.44 Y94.149 E.90365
G1 X148.148 Y94.505 E.01752
G1 X164.905 Y111.262 E.90177
G1 X164.579 Y111.583 E.01741
G1 X147.857 Y94.861 E.89988
G1 X147.566 Y95.217 E.0175
G1 X164.252 Y111.904 E.89797
G1 X163.926 Y112.224 E.01738
G1 X147.275 Y95.573 E.89606
G1 X146.984 Y95.929 E.0175
G1 X163.599 Y112.545 E.89415
G1 X163.273 Y112.866 E.01741
G1 X146.693 Y96.285 E.89227
G1 X146.401 Y96.641 E.01752
G1 X162.947 Y113.186 E.89038
G1 X162.62 Y113.507 E.01744
G1 X146.11 Y96.997 E.88847
G1 X145.819 Y97.353 E.0175
M73 P6 R63
G1 X162.294 Y113.828 E.88659
G1 X161.967 Y114.149 E.01744
G1 X145.528 Y97.709 E.88468
G1 X145.237 Y98.065 E.0175
G1 X161.641 Y114.469 E.88277
G1 X161.314 Y114.79 E.01744
G1 X144.945 Y98.421 E.88089
G1 X144.654 Y98.777 E.0175
M73 P7 R63
G1 X160.988 Y115.111 E.879
G1 X160.661 Y115.431 E.01741
G1 X144.363 Y99.133 E.87706
G1 X144.072 Y99.489 E.0175
G1 X160.335 Y115.752 E.87518
G1 X160.008 Y116.073 E.01744
G1 X143.781 Y99.845 E.87327
G1 X143.494 Y100.205 E.01752
G1 X159.682 Y116.394 E.87117
G1 X159.355 Y116.714 E.01741
G1 X143.21 Y100.569 E.86883
G1 X142.926 Y100.932 E.01754
G1 X159.029 Y117.035 E.86657
G1 X158.702 Y117.356 E.01744
G1 X142.642 Y101.295 E.86428
G1 X142.358 Y101.658 E.01754
G1 X158.377 Y117.677 E.86205
G1 X158.052 Y118 E.01744
G1 X142.074 Y102.022 E.85984
G1 X141.79 Y102.385 E.01754
G1 X157.728 Y118.323 E.85769
G1 X157.403 Y118.645 E.01741
G1 X141.506 Y102.748 E.85549
G1 X141.222 Y103.111 E.01754
G1 X157.079 Y118.968 E.85333
G1 X156.754 Y119.291 E.01744
G1 X140.938 Y103.475 E.85113
G1 X140.654 Y103.838 E.01754
G1 X156.429 Y119.613 E.84892
G1 X156.105 Y119.936 E.01741
G1 X140.37 Y104.201 E.84677
G1 X140.086 Y104.564 E.01754
G1 X155.78 Y120.259 E.84459
G1 X155.456 Y120.581 E.01738
G1 X139.802 Y104.927 E.84241
G1 X139.518 Y105.291 E.01757
G1 X155.131 Y120.904 E.8402
G1 X154.807 Y121.226 E.01738
G1 X139.234 Y105.654 E.83802
G1 X138.95 Y106.017 E.01754
G1 X154.482 Y121.549 E.83584
G1 X154.158 Y121.872 E.01741
G1 X138.666 Y106.38 E.83369
G1 X138.382 Y106.744 E.01757
G1 X153.833 Y122.194 E.83146
G1 X153.509 Y122.517 E.01741
G1 X138.098 Y107.107 E.8293
G1 X137.814 Y107.47 E.01754
G1 X153.184 Y122.84 E.82712
G1 X152.86 Y123.162 E.01738
G1 X137.53 Y107.833 E.82495
G1 X137.246 Y108.196 E.01754
G1 X152.535 Y123.485 E.82277
G1 X152.21 Y123.808 E.01744
G1 X136.962 Y108.56 E.82056
G1 X136.678 Y108.923 E.01754
G1 X151.886 Y124.13 E.81838
G1 X151.561 Y124.453 E.01744
G1 X136.394 Y109.286 E.8162
G1 X136.111 Y109.649 E.01751
G1 X151.237 Y124.776 E.81402
