; generated by PrusaSlicer 2.9.3 on 2025-10-22 at 16:12:28 UTC


;
;

;
;

;
;

;
;

;
;
; 

; external perimeters extrusion width = 0.45mm
; perimeters extrusion width = 0.45mm
; infill extrusion width = 0.45mm
; solid infill extrusion width = 0.45mm
; top infill extrusion width = 0.42mm
; support material extrusion width = 0.37mm
; first layer extrusion width = 0.50mm

; external perimeters extrusion width = 0.45mm
; perimeters extrusion width = 0.45mm
; infill extrusion width = 0.45mm
; solid infill extrusion width = 0.45mm
; top infill extrusion width = 0.42mm
; support material extrusion width = 0.37mm
; first layer extrusion width = 0.50mm

M73 P0 R78

EXCLUDE_OBJECT_DEFINE NAME='crysknife(28)_stl' CENTER=114.864,88.450 POLYGON=[[162.991,12.918],[188.074,38.001],[172.621,52.050],[161.631,62.278],[150.133,73.141],[138.239,84.536],[126.061,96.355],[113.718,108.481],[101.329,120.798],[89.012,133.186],[76.887,145.529],[65.069,157.706],[53.673,169.601],[43.222,180.663],[33.531,191.068],[32.953,189.634],[33.217,183.992],[35.542,176.228],[39.896,166.593],[46.237,155.182],[54.505,142.104],[64.620,127.485],[76.484,111.466],[89.984,94.201],[104.989,75.855],[121.355,56.606],[138.923,36.640],[157.525,16.149],[161.726,11.654]]
EXCLUDE_OBJECT_DEFINE NAME='crysknife(27)_stl' CENTER=142.077,126.932 POLYGON=[[193.519,64.679],[213.639,84.799],[202.020,95.347],[181.990,112.971],[162.680,129.389],[144.276,144.442],[126.954,157.984],[110.884,169.887],[96.218,180.033],[83.098,188.328],[71.651,194.689],[61.985,199.057],[54.196,201.389],[48.358,201.662],[47.055,201.055],[57.732,191.117],[69.230,180.253],[81.125,168.857],[93.302,157.039],[105.645,144.914],[118.034,132.597],[130.351,120.208],[142.477,107.864],[154.295,95.687],[165.690,83.792],[176.554,72.295],[188.389,59.550]]

;TYPE:Custom
G90 ; use absolute coordinates
M83 ; extruder relative mode
M104 S170 ; preheat hotend to 170
M140 S65 ; set bed temp
M190 S65 ; wait for bed temp
G28 ; home all
;G29 ; mesh bed leveling
BED_MESH_CALIBRATE
G0 X0 Z0.6 Y-3.0 F1000.0 ; go outside print area for intro line
M104 S225 ; set hotend temp
M109 S225 ; wait for hotend temp
;M104 S0 ; Stops PS/SS from sending temp waits separately
;M140 S0
;PRINT_START BED=65 HOTEND=225
G92 E0.0
G1 X60.0 E9.0 F1000.0 ; intro line
G1 X100.0 E12.5 F1000.0 ; intro line
G92 E0.0
SKEW_PROFILE LOAD=CaliFlower
G21 ; set units to millimeters
G90 ; use absolute coordinates
M83 ; use relative distances for extrusion
;M900 K0.05 ; Filament gcode



;M142 S36 ; set heatbreak target temp
M107
;LAYER_CHANGE
;Z:0.2
;HEIGHT:0.2
G1 E-2 F2100
G1 Z.8 F720
EXCLUDE_OBJECT_START NAME='crysknife(27)_stl'
G1 X206.554 Y78.372 F12000
G1 Z.2 F720
G1 E2 F1500
M204 S600
;TYPE:Support material interface
;WIDTH:0.37
G1 F1200
G1 X206.767 Y78.158 E.00821
G1 X194.535 Y65.927 E.47045
G1 X194.206 Y66.256 E.01265
G1 X206.438 Y78.488 E.47047
G1 X206.065 Y78.86 E.01433
G1 X193.833 Y66.629 E.47045
G1 X193.461 Y67.001 E.01431
G1 X205.692 Y79.233 E.47045
G1 X205.32 Y79.606 E.01433
G1 X193.088 Y67.374 E.47047
G1 X192.715 Y67.747 E.01435
G1 X204.947 Y79.979 E.47047
G1 X204.574 Y80.351 E.01433
G1 X192.343 Y68.119 E.47045
G1 X191.97 Y68.492 E.01435
G1 X204.202 Y80.724 E.47047
G1 X203.829 Y81.097 E.01435
G1 X191.597 Y68.865 E.47047
G1 X191.224 Y69.237 E.01433
G1 X203.456 Y81.469 E.47047
G1 X203.084 Y81.842 E.01433
G1 X190.852 Y69.61 E.47047
G1 X190.479 Y69.983 E.01435
G1 X202.711 Y82.215 E.47047
G1 X202.338 Y82.587 E.01433
G1 X190.106 Y70.356 E.47045
G1 X189.734 Y70.728 E.01431
G1 X201.965 Y82.96 E.47045
G1 X201.593 Y83.333 E.01433
G1 X189.361 Y71.101 E.47047
G1 X188.988 Y71.474 E.01435
G1 X201.22 Y83.706 E.47047
G1 X200.847 Y84.078 E.01433
G1 X188.616 Y71.846 E.47045
G1 X188.243 Y72.219 E.01435
G1 X200.475 Y84.451 E.47047
G1 X200.102 Y84.824 E.01435
G1 X187.87 Y72.592 E.47047
G1 X187.497 Y72.965 E.01435
G1 X199.729 Y85.196 E.47045
G1 X199.357 Y85.569 E.01433
G1 X187.125 Y73.337 E.47047
G1 X186.752 Y73.71 E.01435
G1 X198.984 Y85.942 E.47047
G1 X198.611 Y86.314 E.01433
G1 X186.379 Y74.083 E.47045
G1 X186.007 Y74.455 E.01431
G1 X198.238 Y86.687 E.47045
G1 X197.866 Y87.06 E.01433
G1 X185.634 Y74.828 E.47047
G1 X185.261 Y75.201 E.01435
G1 X197.493 Y87.433 E.47047
G1 X197.12 Y87.805 E.01433
G1 X184.889 Y75.573 E.47045
G1 X184.516 Y75.946 E.01435
G1 X196.748 Y88.178 E.47047
G1 X196.375 Y88.551 E.01435
G1 X184.143 Y76.319 E.47047
G1 X183.77 Y76.692 E.01435
G1 X196.002 Y88.923 E.47045
G1 X195.63 Y89.296 E.01433
G1 X183.398 Y77.064 E.47047
G1 X183.025 Y77.437 E.01435
M73 P0 R77
G1 X195.257 Y89.669 E.47047
G1 X194.884 Y90.041 E.01433
G1 X182.652 Y77.81 E.47045
G1 X182.28 Y78.182 E.01431
G1 X194.511 Y90.414 E.47045
G1 X194.139 Y90.787 E.01433
G1 X181.907 Y78.555 E.47047
G1 X181.534 Y78.928 E.01435
G1 X193.766 Y91.16 E.47047
G1 X193.393 Y91.532 E.01433
G1 X181.161 Y79.3 E.47047
G1 X180.789 Y79.673 E.01433
G1 X193.021 Y91.905 E.47047
G1 X192.648 Y92.278 E.01435
G1 X180.416 Y80.046 E.47047
G1 X180.043 Y80.419 E.01435
G1 X192.275 Y92.65 E.47045
G1 X191.903 Y93.023 E.01433
G1 X179.671 Y80.791 E.47047
G1 X179.298 Y81.164 E.01435
G1 X191.53 Y93.396 E.47047
G1 X191.157 Y93.768 E.01433
G1 X178.925 Y81.537 E.47045
G1 X178.553 Y81.909 E.01431
G1 X190.784 Y94.141 E.47045
G1 X190.412 Y94.514 E.01433
G1 X178.18 Y82.282 E.47047
G1 X177.807 Y82.655 E.01435
M73 P1 R77
G1 X190.039 Y94.887 E.47047
G1 X189.666 Y95.259 E.01433
G1 X177.434 Y83.027 E.47047
G1 X177.062 Y83.4 E.01433
G1 X189.294 Y95.632 E.47047
G1 X188.921 Y96.005 E.01435
G1 X176.689 Y83.773 E.47047
G1 X176.316 Y84.146 E.01435
G1 X188.548 Y96.377 E.47045
G1 X188.176 Y96.75 E.01433
G1 X175.944 Y84.518 E.47047
G1 X175.571 Y84.891 E.01435
G1 X187.803 Y97.123 E.47047
G1 X187.43 Y97.495 E.01433
G1 X175.198 Y85.264 E.47045
G1 X174.826 Y85.636 E.01431
G1 X187.057 Y97.868 E.47045
G1 X186.685 Y98.241 E.01433
G1 X174.453 Y86.009 E.47047
G1 X174.08 Y86.382 E.01435
G1 X186.312 Y98.614 E.47047
G1 X185.939 Y98.986 E.01433
G1 X173.707 Y86.754 E.47047
G1 X173.335 Y87.127 E.01433
G1 X185.567 Y99.359 E.47047
G1 X185.194 Y99.732 E.01435
G1 X172.962 Y87.5 E.47047
G1 X172.589 Y87.873 E.01435
G1 X184.821 Y100.104 E.47045
G1 X184.448 Y100.477 E.01435
G1 X172.217 Y88.245 E.47045
G1 X171.844 Y88.618 E.01435
G1 X184.076 Y100.85 E.47047
G1 X183.703 Y101.222 E.01433
G1 X171.471 Y88.991 E.47045
G1 X171.099 Y89.363 E.01431
G1 X183.33 Y101.595 E.47045
G1 X182.958 Y101.968 E.01433
G1 X170.726 Y89.736 E.47047
G1 X170.353 Y90.109 E.01435
G1 X182.585 Y102.341 E.47047
G1 X182.212 Y102.713 E.01433
G1 X169.98 Y90.481 E.47047
G1 X169.608 Y90.854 E.01433
G1 X181.84 Y103.086 E.47047
G1 X181.467 Y103.459 E.01435
G1 X169.235 Y91.227 E.47047
G1 X168.862 Y91.6 E.01435
G1 X181.094 Y103.831 E.47045
G1 X180.721 Y104.204 E.01435
G1 X168.49 Y91.972 E.47045
G1 X168.117 Y92.345 E.01435
G1 X180.349 Y104.577 E.47047
G1 X179.976 Y104.949 E.01433
G1 X167.744 Y92.718 E.47045
G1 X167.372 Y93.09 E.01431
G1 X179.603 Y105.322 E.47045
G1 X179.231 Y105.695 E.01433
G1 X166.999 Y93.463 E.47047
M204 S1000
G1 E-1.6 F2100
;WIPE_START
G1 F9600
G1 X168.36 Y94.824 E-.4
;WIPE_END
G1 X163.316 Y110.993 Z.496 F12000
G1 Z.2 F720
G1 E2 F1500
M204 S600
;TYPE:Support material
;WIDTH:0.5
G1 F1200
G1 X150.033 Y124.276 E.71395
G1 X149.655 Y123.898 E.02032
G1 X162.938 Y110.615 E.71395
G1 X163.267 Y110.945 E.01771
M204 S1000
G1 E-1.6 F2100
;WIPE_START
G1 F9600
G1 X162.938 Y110.615 E-.09684
G1 X161.906 Y111.647 E-.30316
;WIPE_END
G1 X170.35 Y112.724 Z.349 F12000
G1 Z.2 F720
G1 E2 F1500
M204 S600
G1 F1200
G1 X171.802 Y114.176 E.07804
G1 X171.424 Y114.554 E.02032
G1 X158.14 Y101.271 E.71398
G1 X158.518 Y100.892 E.02034
G1 X170.301 Y112.675 E.63333
M204 S1000
G1 E-1.6 F2100
;WIPE_START
G1 F9600
G1 X168.94 Y111.314 E-.4
;WIPE_END
G1 X193.81 Y87.586 Z.8 F12000
G1 X207.096 Y74.91
G1 Z.2 F720
G1 E2 F1500
M204 S600
G1 F1200
G1 X207.92 Y74.92 E.03132
G1 X209.278 Y75.606 E.05782
G1 X210.137 Y76.727 E.05368
G1 X210.598 Y78.379 E.06519
G1 X210.069 Y80.366 E.07815
G1 X208.195 Y78.493 E.1007
G1 X207.69 Y78.493 E.01919
G1 X179.658 Y106.525 E1.50669
G1 X179.322 Y106.189 E.01806
G1 X207.352 Y78.158 E1.50661
G1 X204.887 Y75.694 E.13246
G1 X206.354 Y74.893 E.06353
G1 X207.028 Y74.909 E.02562
M204 S1000
G1 X209.764 Y79.771 F12000
M204 S600
G1 F1200
G1 X209.764 Y76.924 E.1082
G1 X209.193 Y76.172 E.03589
G1 X209.193 Y78.909 E.10402
G1 X208.622 Y78.337 E.03072
G1 X208.622 Y75.735 E.09889
G1 X208.05 Y75.447 E.02434
G1 X208.05 Y78.081 E.10011
G1 X207.857 Y78.081 E.00734
G1 X207.479 Y77.704 E.02029
G1 X207.479 Y75.326 E.09038
G1 X206.908 Y75.317 E.0217
G1 X206.908 Y77.132 E.06898
G1 X206.336 Y76.561 E.03072
G1 X206.336 Y75.365 E.04546
G1 X205.765 Y75.661 E.02444
G1 X205.765 Y76.28 E.02353
M204 S1000
G1 E-1.6 F2100
;WIPE_START
G1 F9600
G1 X205.765 Y75.661 E-.12864
G1 X206.336 Y75.365 E-.13366
G1 X206.336 Y76.028 E-.1377
;WIPE_END
G1 X195.138 Y62.318 Z.509 F12000
G1 Z.2 F720
G1 E2 F1500
M204 S600
G1 F1200
G1 X196.553 Y62.907 E.05825
G1 X197.511 Y64.076 E.05744
G1 X197.866 Y65.554 E.05777
G1 X197.536 Y67.046 E.05808
G1 X196.961 Y67.767 E.03505
G1 X194.535 Y65.342 E.13037
G1 X166.505 Y93.372 E1.50659
G1 X166.169 Y93.036 E.01806
G1 X194.201 Y65.004 E1.50669
G1 X194.201 Y64.498 E.01923
G1 X192.48 Y62.777 E.0925
G1 X192.937 Y62.463 E.02107
G1 X193.645 Y62.268 E.02791
G1 X194.502 Y62.159 E.03283
G1 X195.072 Y62.302 E.02233
M204 S1000
G1 X197.195 Y67.144 F12000
M204 S600
G1 F1200
G1 X197.195 Y64.52 E.09973
G1 X197.133 Y64.263 E.01005
G1 X196.623 Y63.642 E.03054
G1 X196.623 Y66.848 E.12185
G1 X196.052 Y66.277 E.03069
G1 X196.052 Y63.127 E.11972
G1 X195.481 Y62.861 E.02394
G1 X195.481 Y65.705 E.10809
G1 X194.909 Y65.134 E.03072
G1 X194.909 Y62.685 E.09308
G1 X194.338 Y62.594 E.02198
G1 X194.338 Y64.054 E.05549
G1 X193.767 Y63.482 E.03072
G1 X193.767 Y62.667 E.03098
G1 X193.195 Y62.818 E.02248
G1 X193.195 Y63.202 E.01459
M204 S1000
G1 E-1.6 F2100
;WIPE_START
G1 F9600
G1 X193.195 Y62.818 E-.0798
G1 X193.767 Y62.667 E-.12294
G1 X193.767 Y63.482 E-.16937
G1 X193.862 Y63.577 E-.02789
;WIPE_END
G1 X174.479 Y91.965 Z.8 F12000
G1 X162.976 Y108.812
G1 Z.2 F720
M73 P2 R77
G1 E2 F1500
M204 S600
;TYPE:Perimeter
;WIDTH:0.499999
G1 F1200
G1 X162.992 Y108.818 E.00065
;WIDTH:0.45592
G1 X163.142 Y108.875 E.00551
;WIDTH:0.411841
G1 X163.293 Y108.932 E.00495
;WIDTH:0.367761
G1 X163.374 Y109.003 E.00291
;WIDTH:0.36188
G1 X164.928 Y110.557 E.05829
;WIDTH:0.40792
G1 X165.009 Y110.735 E.00594
;WIDTH:0.45396
G1 X165.09 Y110.913 E.00668
;WIDTH:0.499999
G1 X165.17 Y111.09 E.00738
G1 X164.977 Y111.478 E.01647
G1 X150.518 Y125.937 E.77716
G1 X150.267 Y126.097 E.01131
M73 P2 R76
G1 X149.992 Y126.137 E.01056
G1 X149.695 Y126.049 E.01177
G1 X149.548 Y125.937 E.00702
G1 X147.994 Y124.383 E.08353
G1 X147.827 Y124.111 E.01213
G1 X147.796 Y123.83 E.01074
G1 X147.871 Y123.58 E.00992
G1 X147.994 Y123.413 E.00788
G1 X162.453 Y108.954 E.77716
G1 X162.841 Y108.76 E.01649
G1 X162.92 Y108.791 E.00323
M204 S1000
G1 X162.961 Y109.232 F12000
M204 S600
;TYPE:External perimeter
G1 F1200
G1 X163.099 Y109.278 E.00553
G1 X164.653 Y110.832 E.08353
G1 X164.718 Y111.026 E.00778
G1 X164.653 Y111.155 E.00549
G1 X150.194 Y125.614 E.77716
G1 X150.049 Y125.68 E.00605
G1 X149.885 Y125.627 E.00655
G1 X148.317 Y124.06 E.08425
G1 X148.25 Y123.896 E.00673
G1 X148.317 Y123.736 E.00659
G1 X162.776 Y109.278 E.77713
G1 X162.904 Y109.213 E.00546
M204 S1000
G1 E-1.6 F2100
;WIPE_START
G1 F9600
G1 X162.961 Y109.232 E-.01249
G1 X163.099 Y109.278 E-.03023
G1 X164.315 Y110.494 E-.35728
;WIPE_END
G1 X171.414 Y117.32 Z.372 F12000
G1 Z.2 F720
G1 E2 F1500
M204 S600
;TYPE:Perimeter
G1 F1200
G1 X170.979 Y117.267 E.01665
G1 X170.579 Y117.089 E.01664
G1 X170.292 Y116.861 E.01393
G1 X165.589 Y112.158 E.25278
G1 X151.164 Y126.583 E.77533
G1 X150.789 Y126.862 E.01776
G1 X150.362 Y127.018 E.01728
G1 X149.938 Y127.049 E.01616
G1 X149.559 Y126.98 E.01464
G1 X149.114 Y126.762 E.01883
G1 X148.902 Y126.583 E.01055
G1 X147.347 Y125.029 E.08355
G1 X147.098 Y124.707 E.01547
G1 X146.924 Y124.277 E.01763
G1 X146.879 Y123.883 E.01507
G1 X146.944 Y123.447 E.01675
G1 X147.161 Y122.991 E.01919
G1 X147.347 Y122.767 E.01107
G1 X161.773 Y108.342 E.77536
G1 X155.833 Y102.402 E.31927
G1 X155.526 Y101.971 E.02011
G1 X155.414 Y101.667 E.01231
G1 X155.365 Y101.305 E.01388
G1 X155.407 Y100.903 E.01536
G1 X155.641 Y100.372 E.02205
G1 X155.833 Y100.139 E.01147
G1 X157.387 Y98.585 E.08353
G1 X157.731 Y98.324 E.01641
G1 X158.116 Y98.168 E.01579
G1 X158.5 Y98.117 E.01472
G1 X158.85 Y98.151 E.01336
G1 X159.148 Y98.246 E.01189
G1 X159.505 Y98.458 E.01578
G1 X159.649 Y98.585 E.0073
G1 X174.109 Y113.045 E.77721
G1 X174.359 Y113.369 E.01555
G1 X174.493 Y113.663 E.01228
G1 X174.571 Y114.03 E.01426
G1 X174.553 Y114.456 E.01621
G1 X174.403 Y114.903 E.01792
G1 X174.109 Y115.307 E.01899
G1 X172.555 Y116.861 E.08353
G1 X172.05 Y117.202 E.02316
G1 X171.489 Y117.329 E.02186
G1 X171.473 Y117.327 E.00061
M204 S1000
G1 X171.413 Y116.865 F12000
M204 S600
G1 F1200
G1 X171.106 Y116.828 E.01175
G1 X170.82 Y116.701 E.01189
G1 X170.616 Y116.538 E.00992
G1 X165.493 Y111.415 E.27536
G1 X165.3 Y111.801 E.0164
G1 X150.841 Y126.26 E.77716
G1 X150.573 Y126.459 E.01269
G1 X150.268 Y126.57 E.01234
G1 X149.965 Y126.593 E.01155
G1 X149.576 Y126.5 E.0152
G1 X149.225 Y126.26 E.01616
G1 X147.671 Y124.706 E.08353
G1 X147.457 Y124.409 E.01391
G1 X147.351 Y124.08 E.01314
G1 X147.357 Y123.681 E.01517
G1 X147.466 Y123.369 E.01256
G1 X147.671 Y123.09 E.01316
G1 X162.13 Y108.631 E.77716
G1 X162.516 Y108.438 E.0164
G1 X156.156 Y102.079 E.34182
G1 X155.937 Y101.771 E.01436
G1 X155.857 Y101.554 E.00879
G1 X155.822 Y101.295 E.00993
G1 X155.852 Y101.008 E.01097
G1 X156.019 Y100.628 E.01578
G1 X156.156 Y100.463 E.00815
G1 X157.71 Y98.908 E.08355
G1 X157.956 Y98.722 E.01172
G1 X158.231 Y98.611 E.01127
G1 X158.505 Y98.574 E.01051
G1 X158.968 Y98.666 E.01794
G1 X159.326 Y98.908 E.01642
G1 X173.786 Y113.368 E.77721
G1 X173.964 Y113.599 E.01108
G1 X174.06 Y113.81 E.00881
G1 X174.116 Y114.072 E.01018
G1 X174.103 Y114.376 E.01156
G1 X173.996 Y114.695 E.01279
G1 X173.786 Y114.984 E.01358
G1 X172.232 Y116.538 E.08353
G1 X171.871 Y116.782 E.01656
G1 X171.473 Y116.871 E.0155
M204 S1000
G1 X171.413 Y116.411 F12000
M204 S600
G1 F1200
G1 X171.233 Y116.389 E.00689
G1 X170.939 Y116.215 E.01298
G1 X165.653 Y110.929 E.28412
G1 X165.487 Y110.73 E.00985
;WIDTH:0.45396
G1 X165.32 Y110.531 E.00888
;WIDTH:0.40792
G1 X165.153 Y110.332 E.00788
;WIDTH:0.36188
G1 X163.599 Y108.778 E.05829
;WIDTH:0.40792
G1 X163.4 Y108.611 E.00788
;WIDTH:0.45396
G1 X163.201 Y108.444 E.00888
;WIDTH:0.499999
G1 X163.001 Y108.278 E.00988
G1 X156.479 Y101.755 E.35058
G1 X156.348 Y101.571 E.00858
G1 X156.279 Y101.285 E.01118
G1 X156.363 Y100.94 E.0135
G1 X156.479 Y100.786 E.00733
G1 X158.033 Y99.232 E.08353
G1 X158.346 Y99.053 E.0137
G1 X158.66 Y99.046 E.01194
G1 X158.941 Y99.177 E.01178
G1 X159.003 Y99.232 E.00315
G1 X173.463 Y113.691 E.77718
G1 X173.627 Y113.956 E.01184
G1 X173.653 Y114.296 E.01296
G1 X173.505 Y114.614 E.01333
G1 X171.908 Y116.215 E.08594
G1 X171.692 Y116.361 E.00991
G1 X171.472 Y116.411 E.00857
M204 S1000
G1 X171.394 Y115.943 F12000
M204 S600
;TYPE:External perimeter
G1 F1200
G1 X171.262 Y115.892 E.00538
G1 X156.802 Y101.432 E.77721
G1 X156.735 Y101.276 E.00645
G1 X156.802 Y101.109 E.00684
G1 X158.357 Y99.555 E.08355
G1 X158.515 Y99.488 E.00652
G1 X158.68 Y99.555 E.00677
G1 X173.139 Y114.014 E.77716
G1 X173.205 Y114.155 E.00592
G1 X173.154 Y114.322 E.00664
G1 X171.585 Y115.892 E.08436
G1 X171.449 Y115.951 E.00563
M204 S1000
G1 E-1.6 F2100
;WIPE_START
G1 F9600
G1 X171.394 Y115.943 E-.01155
G1 X171.262 Y115.892 E-.02941
G1 X170.04 Y114.67 E-.35904
;WIPE_END
G1 X179.657 Y109.288 Z.392 F12000
G1 Z.2 F720
G1 E2 F1500
M204 S600
;TYPE:Perimeter
G1 F1200
G1 X179.85 Y109.289 E.00734
G1 X180.347 Y109.145 E.01967
G1 X180.491 Y109.067 E.00622
G1 X180.789 Y108.832 E.01442
G1 X207.943 Y81.678 E1.4595
G1 X209.426 Y83.162 E.07974
G1 X210.983 Y84.718 E.08366
G1 X200.836 Y93.929 E.52084
G1 X180.84 Y111.525 E1.01232
G1 X161.566 Y127.912 E.96151
G1 X143.2 Y142.933 E.90175
G1 X125.923 Y156.441 E.83351
