; generated by PrusaSlicer 2.9.3 on 2025-10-24 at 19:57:40 UTC


;
;

;
;

;
;

;
;

;
;
; 

; external perimeters extrusion width = 0.45mm
; perimeters extrusion width = 0.45mm
; infill extrusion width = 0.45mm
; solid infill extrusion width = 0.45mm
; top infill extrusion width = 0.40mm
; support material extrusion width = 0.37mm
; first layer extrusion width = 0.50mm

M73 P0 R5

EXCLUDE_OBJECT_DEFINE NAME='c_led_diffuser_x4_stl' CENTER=124.929,105.013 POLYGON=[[129.848,99.583],[131.899,103.134],[131.899,109.574],[130.455,111.017],[120.169,111.017],[118.101,107.436],[118.101,99.926],[119.045,98.983],[129.502,98.983]]

;TYPE:Custom
G90 ; use absolute coordinates
M83 ; extruder relative mode
M104 S170 ; preheat hotend to 170
M140 S65 ; set bed temp
M190 S65 ; wait for bed temp
G28 ; home all
;G29 ; mesh bed leveling
BED_MESH_CALIBRATE
G0 X0 Z0.6 Y-3.0 F1000.0 ; go outside print area for intro line
M104 S225 ; set hotend temp
M109 S225 ; wait for hotend temp
;M104 S0 ; Stops PS/SS from sending temp waits separately
;M140 S0
;PRINT_START BED=65 HOTEND=225
G92 E0.0
G1 X60.0 E9.0 F1000.0 ; intro line
G1 X100.0 E12.5 F1000.0 ; intro line
M73 P1 R5
G92 E0.0
SKEW_PROFILE LOAD=CaliFlower

; KLIPPER_PLR
G31
save_last_file
SAVE_VARIABLE VARIABLE=was_interrupted VALUE=True
G21 ; set units to millimeters
G90 ; use absolute coordinates
M83 ; use relative distances for extrusion
;M900 K0.05 ; Filament gcode



;M142 S36 ; set heatbreak target temp
M107
;LAYER_CHANGE
;Z:0.2
;HEIGHT:0.2
G1 E-2 F2100
G1 Z.8 F720
EXCLUDE_OBJECT_START NAME='c_led_diffuser_x4_stl'
G1 X130.07 Y105.133 F12000
G1 Z.2 F720
M73 P2 R5
G1 E2 F1500
M204 S600
;TYPE:Support material
;WIDTH:0.5
G1 F1200
G1 X127.535 Y109.523 E.19267
G1 X122.465 Y109.523 E.19269
G1 X119.93 Y105.133 E.19267
G1 X122.272 Y101.077 E.17801
G1 X127.728 Y101.077 E.20736
G1 X130.035 Y105.073 E.17537
M204 S1000
G1 X129.571 Y105.585 F12000
M204 S600
G1 F1200
G1 X129.571 Y105.092 E.01874
G1 X128.999 Y104.102 E.04346
G1 X128.999 Y106.164 E.07837
G1 X128.428 Y107.153 E.0434
G1 X128.428 Y103.112 E.15358
G1 X127.857 Y102.123 E.0434
G1 X127.857 Y108.143 E.2288
G1 X127.285 Y109.112 E.04277
G1 X127.285 Y101.488 E.28976
G1 X126.714 Y101.488 E.0217
M73 P3 R5
G1 X126.714 Y109.112 E.28976
G1 X126.143 Y109.112 E.0217
G1 X126.143 Y101.488 E.28976
G1 X125.571 Y101.488 E.02174
G1 X125.571 Y109.112 E.28976
G1 X125 Y109.112 E.0217
G1 X125 Y101.488 E.28976
G1 X124.429 Y101.488 E.0217
G1 X124.429 Y109.112 E.28976
G1 X123.857 Y109.112 E.02174
G1 X123.857 Y101.488 E.28976
G1 X123.286 Y101.488 E.0217
G1 X123.286 Y109.112 E.28976
G1 X122.715 Y109.112 E.0217
M73 P4 R5
G1 X122.715 Y101.488 E.28976
G1 X122.51 Y101.488 E.00779
G1 X122.143 Y102.123 E.02787
G1 X122.143 Y108.143 E.2288
G1 X121.572 Y107.153 E.04344
G1 X121.572 Y103.112 E.15358
G1 X121.001 Y104.102 E.04344
G1 X121.001 Y106.164 E.07837
G1 X120.429 Y105.174 E.04346
G1 X120.429 Y104.68 E.01878
M204 S1000
G1 E-1.6 F2100
;WIPE_START
G1 F9600
G1 X120.429 Y105.174 E-.10266
G1 X121.001 Y106.164 E-.23761
G1 X121.001 Y105.877 E-.05973
;WIPE_END
G1 X121.809 Y100.274 Z.299 F12000
G1 Z.2 F720
G1 E2 F1500
M204 S600
;TYPE:External perimeter
;WIDTH:0.499999
G1 F1200
G1 X121.908 Y100.217 E.00434
G1 X128.092 Y100.217 E.23503
G1 X128.309 Y100.363 E.00994
G1 X130.267 Y103.756 E.14889
;WIDTH:0.510934
G1 X131.001 Y105.016 E.05675
;WIDTH:0.536011
G1 X131.042 Y105.175 E.00673
G1 X131.005 Y105.252 E.0035
;WIDTH:0.51982
G1 X129.237 Y108.296 E.13959
;WIDTH:0.499999
G1 X128.096 Y110.268 E.08659
;WIDTH:0.496403
G1 X127.998 Y110.304 E.00394
;WIDTH:0.454909
G1 X127.899 Y110.34 E.00361
;WIDTH:0.413414
G1 X122.101 Y110.34 E.17862
;WIDTH:0.456707
G1 X122.002 Y110.304 E.00362
;WIDTH:0.499999
G1 X121.903 Y110.269 E.00399
G1 X119.875 Y106.756 E.15417
;WIDTH:0.51982
G1 X118.995 Y105.252 E.0691
;WIDTH:0.532303
G1 X118.957 Y105.133 E.00508
M73 P5 R5
G1 X118.999 Y105.016 E.00506
;WIDTH:0.510933
G1 X121.07 Y101.438 E.16088
;WIDTH:0.499999
G1 X121.71 Y100.331 E.0486
G1 X121.757 Y100.304 E.00206
M204 S1000
G1 E-1.6 F2100
;WIPE_START
G1 F9600
G1 X121.809 Y100.274 E-.01248
G1 X121.908 Y100.217 E-.02374
G1 X123.659 Y100.217 E-.36378
;WIPE_END
G1 X119.887 Y100.68 Z.266 F12000
G1 Z.2 F720
G1 E2 F1500
M204 S600
;TYPE:Perimeter
;WIDTH:0.564912
G1 F1200
G1 X119.822 Y100.68 E.00282
G1 X119.789 Y100.737 E.00286
G1 X119.822 Y100.793 E.00282
G1 X119.887 Y100.793 E.00282
G1 X119.92 Y100.737 E.00282
M204 S1000
G1 X120.703 Y100.247 F12000
M204 S600
;WIDTH:0.499999
G1 F1200
G1 X119.365 Y102.564 E.10169
G1 X119.365 Y100.45 E.08035
G1 X119.568 Y100.247 E.01091
G1 X120.643 Y100.247 E.04086
M204 S1000
G1 X121.598 Y99.91 F12000
M204 S600
G1 F1200
G1 X121.314 Y100.102 E.01303
G1 X118.908 Y104.269 E.18288
G1 X118.908 Y100.261 E.15233
G1 X119.379 Y99.79 E.02532
G1 X121.791 Y99.78 E.09167
G1 X121.648 Y99.876 E.00655
M204 S1000
G1 E-1.6 F2100
;WIPE_START
G1 F9600
G1 X121.598 Y99.91 E-.01257
G1 X121.314 Y100.102 E-.07124
G1 X120.553 Y101.42 E-.31619
;WIPE_END
G1 X118.947 Y106.14 Z.287 F12000
G1 Z.2 F720
G1 E2 F1500
M204 S600
;WIDTH:0.577232
G1 F1200
G1 X121.274 Y110.171 E.20679
G1 X120.657 Y110.171 E.02741
G1 X118.947 Y107.209 E.15195
G1 X118.947 Y106.2 E.04483
M204 S1000
G1 E-1.6 F2100
;WIPE_START
G1 F9600
G1 X118.947 Y106.14 E-.01247
G1 X119.879 Y107.755 E-.38753
;WIPE_END
G1 X130.587 Y107.882 Z.387 F12000
G1 Z.2 F720
G1 E2 F1500
M204 S600
;WIDTH:0.596537
G1 F1200
G1 X130.587 Y109.03 E.05285
G1 X129.912 Y109.705 E.04394
G1 X129.534 Y109.705 E.0174
G1 X130.557 Y107.934 E.09415
M73 P6 R5
M204 S1000
G1 E-1.6 F2100
;WIPE_START
G1 F9600
G1 X130.587 Y107.882 E-.01248
G1 X130.587 Y109.03 E-.23857
G1 X130.08 Y109.537 E-.14895
;WIPE_END
G1 X131.092 Y105.996 Z.264 F12000
G1 Z.2 F720
G1 E2 F1500
M204 S600
;WIDTH:0.499999
G1 F1200
G1 X131.092 Y109.239 E.12325
G1 X130.121 Y110.21 E.05219
G1 X128.659 Y110.21 E.05557
G1 X131.062 Y106.048 E.18265
M204 S1000
G1 E-1.6 F2100
;WIPE_START
G1 F9600
G1 X131.092 Y105.996 E-.01248
G1 X131.092 Y107.861 E-.38752
;WIPE_END
G1 X128.092 Y99.775 Z.351 F12000
G1 Z.2 F720
G1 E2 F1500
M204 S600
;WIDTH:0.501124
G1 F1200
G1 X129.036 Y99.79 E.03597
G1 X131.061 Y103.298 E.15432
G1 X131.091 Y103.412 E.00449
G1 X131.091 Y104.267 E.03258
G1 X128.687 Y100.102 E.18322
G1 X128.145 Y99.804 E.02357
M204 S1000
G1 E-1.6 F2100
;WIPE_START
G1 F9600
G1 X128.092 Y99.775 E-.01256
G1 X129.036 Y99.79 E-.1962
G1 X129.496 Y100.587 E-.19124
;WIPE_END
G1 X121.791 Y99.78 Z.335 F12000
G1 Z.2 F720
G1 E2 F1500
M204 S600
;WIDTH:0.479916
G1 F1200
G1 X121.908 Y99.775 E.00426
;WIDTH:0.469756
G1 X128.092 Y99.775 E.21948
M204 S1000
G1 X129.3 Y99.333 F12000
M204 S600
;TYPE:External perimeter
;WIDTH:0.499999
G1 F1200
G1 X131.549 Y103.228 E.17094
G1 X131.549 Y103.412 E.00699
;WIDTH:0.510934
G1 X131.544 Y104.871 E.05678
;WIDTH:0.51982
G1 X131.549 Y108.915 E.16036
;WIDTH:0.499999
G1 X131.549 Y109.429 E.01954
M73 P7 R5
G1 X130.31 Y110.667 E.06657
G1 X128.327 Y110.669 E.07537
;WIDTH:0.496403
G1 X128.113 Y110.69 E.00811
;WIDTH:0.454909
G1 X127.899 Y110.71 E.00736
;WIDTH:0.413414
G1 X122.101 Y110.71 E.17862
;WIDTH:0.456707
G1 X121.887 Y110.689 E.0074
;WIDTH:0.499999
G1 X121.673 Y110.667 E.00818
G1 X120.371 Y110.667 E.04948
G1 X118.451 Y107.342 E.14593
G1 X118.451 Y107.137 E.00779
;WIDTH:0.51982
G1 X118.456 Y104.871 E.08986
;WIDTH:0.510933
G1 X118.451 Y100.737 E.16088
;WIDTH:0.499999
G1 X118.451 Y100.071 E.02531
G1 X119.189 Y99.333 E.03967
G1 X129.24 Y99.333 E.382
M204 S1000
M106 S127.5
;LAYER_CHANGE
;Z:0.4
;HEIGHT:0.2
;BEFORE_LAYER_CHANGE
G92 E0.0
;0.4

; KLIPPER_PLR
LOG_Z
G1 E-1.6 F2100
;WIPE_START
G1 F9600
G1 X129.3 Y99.333 E-.01247
G1 X130.232 Y100.948 E-.38753
;WIPE_END
G1 X130.232 Y100.948 Z.2 F12000
G1 X124.959 Y107.933 Z.4
;AFTER_LAYER_CHANGE
;0.4
;@SNAPSHOT
G1 Z.4 F720
G1 E2 F1500
;TYPE:Support material
;WIDTH:0.37
G1 F3000
G1 X124.667 Y107.905 E.00798
G1 X124.526 Y107.82 E.00448
G1 X124.34 Y107.531 E.00935
G1 X124.691 Y107.002 E.01727
G1 X124.944 Y106.885 E.00758
G1 X124.965 Y106.516 E.01005
G1 X125.32 Y106.61 E.00999
G1 X125.62 Y106.908 E.0115
G1 X126.124 Y106.747 E.01439
G1 X126.423 Y106.575 E.00938
G1 X126.684 Y106.553 E.00712
G1 X126.95 Y106.628 E.00752
G1 X127.169 Y106.802 E.00761
G1 X127.302 Y107.024 E.00704
G1 X127.349 Y107.276 E.00697
G1 X127.304 Y107.533 E.0071
G1 X127.173 Y107.755 E.00701
G1 X126.948 Y107.934 E.00782
G1 X126.682 Y108.01 E.00752
G1 X126.42 Y107.987 E.00715
G1 X126.184 Y107.874 E.00712
G1 X125.924 Y107.603 E.01021
G1 X125.463 Y107.948 E.01566
G1 X125.307 Y108.214 E.00839
G1 X125.008 Y108.302 E.00848
G1 X124.749 Y108.308 E.00705
G1 X124.523 Y108.25 E.00635
G1 X124.281 Y108.106 E.00766
G1 X124.076 Y107.859 E.00873
G1 X123.943 Y107.54 E.0094
G1 X124.027 Y107.308 E.00671
G1 X124.426 Y106.735 E.01899
G1 X124.654 Y106.577 E.00754
G1 X124.916 Y106.511 E.00735
G1 X124.01 Y105.869 F12000
G1 F3000
G1 X123.928 Y106.127 E.00736
G1 X123.684 Y106.25 E.00743
G1 X123.446 Y106.18 E.00675
G1 X123.309 Y105.962 E.007
G1 X123.361 Y105.703 E.00718
G1 X123.559 Y105.554 E.00674
G1 X123.697 Y105.54 E.00377
G1 X123.769 Y105.176 E.01009
G1 X123.996 Y105.246 E.00646
G1 X124.212 Y105.417 E.00749
G1 X124.343 Y105.633 E.00687
G1 X124.391 Y105.895 E.00724
G1 X124.344 Y106.151 E.00708
G1 X124.211 Y106.374 E.00706
G1 X123.976 Y106.556 E.00808
G1 X123.712 Y106.625 E.00742
G1 X123.453 Y106.597 E.00709
G1 X123.221 Y106.481 E.00705
G1 X123.044 Y106.29 E.00708
G1 X122.937 Y106.016 E.008
G1 X122.945 Y105.741 E.00748
G1 X123.044 Y105.5 E.00709
G1 X123.221 Y105.31 E.00706
G1 X123.453 Y105.193 E.00707
G1 X123.721 Y105.165 E.00733
G1 E-1.6 F2100
;WIPE_START
G1 F9600
G1 X123.453 Y105.193 E-.056
G1 X123.221 Y105.31 E-.054
G1 X123.044 Y105.5 E-.05396
G1 X122.945 Y105.741 E-.05414
M73 P8 R5
G1 X122.937 Y106.016 E-.05717
G1 X123.044 Y106.29 E-.06113
G1 X123.221 Y106.481 E-.05412
G1 X123.262 Y106.501 E-.00948
;WIPE_END
G1 X122.892 Y103.87 Z.446 F12000
G1 Z.4 F720
G1 E2 F1500
G1 F3000
G1 X122.724 Y103.941 E.00496
G1 X122.507 Y103.876 E.00616
G1 X122.362 Y103.631 E.00774
G1 X122.363 Y103.47 E.00438
G1 X122.57 Y102.915 E.01611
G1 X122.871 Y102.878 E.00825
G1 X122.96 Y102.519 E.01006
G1 X123.162 Y102.572 E.00568
G1 X123.397 Y102.721 E.00757
G1 X123.594 Y102.965 E.00853
G1 X123.712 Y103.245 E.00826
G1 X123.587 Y103.586 E.00988
G1 X123.167 Y104.127 E.01863
G1 X122.957 Y104.259 E.00675
G1 X122.723 Y104.312 E.00653
G1 X122.528 Y104.295 E.00532
G1 X122.284 Y104.18 E.00734
G1 X122.101 Y103.98 E.00737
G1 X121.987 Y103.557 E.01191
G1 X122.025 Y103.299 E.00709
G1 X122.324 Y102.62 E.02018
G1 X122.655 Y102.514 E.00945
G1 X122.913 Y102.506 E.00702
G1 E-1.6 F2100
;WIPE_START
G1 F9600
G1 X122.655 Y102.514 E-.05364
G1 X122.324 Y102.62 E-.07223
G1 X122.025 Y103.299 E-.15418
G1 X121.987 Y103.557 E-.05419
G1 X122.069 Y103.863 E-.06576
;WIPE_END
G1 X125.269 Y103.427 Z.456 F12000
G1 Z.4 F720
G1 E2 F1500
G1 F3000
G1 X125.489 Y103.596 E.00754
G1 X126.29 Y103.455 E.02212
G1 X126.533 Y103.171 E.01017
G1 X126.79 Y103.089 E.00734
G1 X126.841 Y102.722 E.01008
G1 X127.048 Y102.775 E.00581
G1 X127.329 Y102.992 E.00966
G1 X127.454 Y103.23 E.00731
G1 X127.487 Y103.489 E.0071
G1 X127.419 Y103.767 E.00778
G1 X127.279 Y103.971 E.00673
G1 X127.061 Y104.128 E.00731
G1 X126.805 Y104.199 E.00723
G1 X126.561 Y104.176 E.00667
G1 X126.057 Y103.974 E.01477
G1 X125.62 Y104.148 E.01279
G1 X125.342 Y104.364 E.00957
G1 X125.094 Y104.429 E.00697
G1 X124.836 Y104.402 E.00706
M73 P8 R4
G1 X124.591 Y104.275 E.00751
G1 X124.428 Y104.1 E.0065
G1 X124.327 Y103.863 E.00701
G1 X124.318 Y103.57 E.00797
G1 X124.417 Y103.313 E.00749
G1 X124.592 Y103.118 E.00713
G1 X124.824 Y102.997 E.00712
G1 X125.146 Y102.974 E.00878
G1 X125.395 Y103.057 E.00714
G1 X125.586 Y103.203 E.00654
G1 X126.096 Y103.113 E.01408
G1 X126.295 Y102.88 E.00833
G1 X126.527 Y102.752 E.00721
G1 X126.793 Y102.715 E.0073
G1 E-1.6 F2100
;WIPE_START
G1 F9600
G1 X126.527 Y102.752 E-.05581
G1 X126.295 Y102.88 E-.05506
G1 X126.096 Y103.113 E-.06368
G1 X125.586 Y103.203 E-.10762
G1 X125.395 Y103.057 E-.04996
G1 X125.146 Y102.974 E-.05454
G1 X125.082 Y102.979 E-.01333
;WIPE_END
G1 X128.481 Y105.125 Z.47 F12000
G1 Z.4 F720
G1 E2 F1500
G1 F3000
G1 X128.399 Y105.384 E.00739
G1 X128.154 Y105.506 E.00744
G1 X127.917 Y105.437 E.00671
G1 X127.78 Y105.218 E.00703
G1 X127.832 Y104.96 E.00716
G1 X128.03 Y104.811 E.00674
G1 X128.168 Y104.797 E.00377
G1 X128.239 Y104.433 E.01009
G1 X128.467 Y104.502 E.00648
G1 X128.683 Y104.674 E.00751
G1 X128.814 Y104.89 E.00687
G1 X128.862 Y105.152 E.00724
G1 X128.815 Y105.408 E.00708
G1 X128.682 Y105.631 E.00706
G1 X128.446 Y105.813 E.00811
G1 X128.182 Y105.881 E.00741
G1 X127.924 Y105.854 E.00706
G1 X127.691 Y105.738 E.00708
G1 X127.515 Y105.547 E.00706
G1 X127.408 Y105.273 E.008
G1 X127.416 Y104.998 E.00748
G1 X127.515 Y104.757 E.00709
G1 X127.691 Y104.567 E.00704
G1 X127.924 Y104.45 E.00709
G1 X128.191 Y104.422 E.0073
G1 E-1.6 F2100
;WIPE_START
G1 F9600
G1 X127.924 Y104.45 E-.05579
G1 X127.691 Y104.567 E-.05418
G1 X127.515 Y104.757 E-.05382
G1 X127.416 Y104.998 E-.05414
G1 X127.408 Y105.273 E-.05717
G1 X127.515 Y105.547 E-.06113
G1 X127.691 Y105.738 E-.05397
G1 X127.733 Y105.759 E-.0098
;WIPE_END
G1 X121.916 Y100.46 Z.537 F12000
G1 Z.4 F720
G1 E2 F1500
M204 S700
;TYPE:External perimeter
;WIDTH:0.449999
G1 F1352.478
G1 X122.004 Y100.41 E.00343
G1 X122.847 Y100.41 E.02853
G1 X127.995 Y100.41 E.17425
G1 X128.172 Y100.511 E.0069
G1 X130.781 Y105.031 E.17665
G1 F1319.586
G1 X130.805 Y105.168 E.00471
G1 X130.781 Y105.235 E.00241
G1 F1352.479
G1 X130.36 Y105.965 E.02852
G1 X128.4 Y109.359 E.13266
G1 X127.979 Y110.089 E.02852
;WIDTH:0.483713
G1 F1308.464
M73 P9 R4
G1 X127.935 Y110.138 E.00241
;WIDTH:0.517427
G1 F1301.397
G1 X127.891 Y110.188 E.00263
;WIDTH:0.551141
G1 F1318.744
G1 X127.846 Y110.237 E.00281
G1 F1426.287
G1 X127.802 Y110.239 E.00186
;WIDTH:0.547319
G1 F1432.055
G1 X126.814 Y110.239 E.04144
G1 X123.186 Y110.239 E.15216
G1 X122.198 Y110.239 E.04144
G1 F1267.616
G1 X122.109 Y110.164 E.00488
;WIDTH:0.498659
G1 F1274.214
G1 X122.021 Y110.089 E.00438
;WIDTH:0.449999
G1 F1352.477
G1 X119.219 Y105.235 E.18971
G1 F1319.588
G1 X119.195 Y105.168 E.00241
G1 X119.219 Y105.031 E.00471
G1 F1352.481
G1 X119.64 Y104.301 E.02852
G1 X121.407 Y101.241 E.11961
G1 X121.828 Y100.511 E.02852
G1 X121.864 Y100.49 E.00141
M204 S1000
G1 E-1.6 F2100
;WIPE_START
G1 F9600
G1 X121.916 Y100.46 E-.01248
G1 X122.004 Y100.41 E-.02103
G1 X122.847 Y100.41 E-.17519
G1 X123.768 Y100.41 E-.1913
;WIPE_END
G1 X128.884 Y100.054 Z.49 F12000
G1 Z.4 F720
G1 E2 F1500
M204 S900
;TYPE:Perimeter
;WIDTH:0.513752
G1 X128.904 Y100.089 E.00158
;WIDTH:0.512992
G1 X130.828 Y103.421 E.15039
M204 S1000
G1 E-1.6 F2100
;WIPE_START
G1 F9600
G1 X129.866 Y101.754 E-.4
;WIPE_END
G1 X120.351 Y100.495 Z.568 F12000
G1 Z.4 F720
G1 E2 F1500
M204 S900
;WIDTH:0.58258
G1 X119.614 Y101.772 E.06616
G1 X119.614 Y100.594 E.05286
G1 X119.671 Y100.495 E.00513
G1 X120.291 Y100.495 E.02782
M204 S1000
G1 X121.241 Y100.022 F12000
M204 S900
;WIDTH:0.449999
G1 F1500
G1 X121.123 Y100.104 E.00486
G1 X119.14 Y103.539 E.13425
G1 X119.14 Y100.357 E.10771
G1 X119.475 Y100.022 E.01604
G1 X121.181 Y100.022 E.05775
M204 S1000
G1 X121.727 Y100.133 F12000
M204 S900
G1 F1500
G1 X121.476 Y100.308 E.01036
G1 X120.88 Y101.34 E.04034
;WIDTH:0.457179
G1 X118.863 Y104.826 E.13873
;WIDTH:0.501306
G1 X118.759 Y105.133 E.01235
G1 X118.737 Y104.792 E.01302
;WIDTH:0.457179
G1 X118.733 Y100.765 E.13871
;WIDTH:0.449999
G1 X118.733 Y100.188 E.01953
G1 X119.306 Y99.615 E.02743
G1 X121.076 Y99.615 E.05991
G1 X122.004 Y99.61 E.03141
;WIDTH:0.440247
G1 X127.995 Y99.61 E.19793
;WIDTH:0.449999
G1 X129.137 Y99.615 E.03866
G1 X131.267 Y103.304 E.14419
M73 P10 R4
G1 X131.267 Y103.421 E.00396
;WIDTH:0.45718
G1 X131.263 Y104.792 E.04723
;WIDTH:0.501316
G1 X131.241 Y105.133 E.01302
G1 X131.137 Y104.826 E.01235
;WIDTH:0.45718
G1 X130.449 Y103.641 E.0472
;WIDTH:0.449999
G1 X128.512 Y100.288 E.13107
G1 X127.995 Y100.007 E.01992
;WIDTH:0.440247
G1 X122.004 Y100.007 E.19793
;WIDTH:0.446342
G1 X121.899 Y100.013 E.00353
;WIDTH:0.449999
G1 X121.776 Y100.099 E.00508
M204 S1000
G1 E-1.6 F2100
;WIPE_START
G1 F9600
