; generated by PrusaSlicer 2.9.3 on 2025-10-15 at 17:58:37 UTC

; 

; external perimeters extrusion width = 0.45mm
; perimeters extrusion width = 0.45mm
; infill extrusion width = 0.45mm
; solid infill extrusion width = 0.45mm
; top infill extrusion width = 0.42mm
; first layer extrusion width = 0.50mm

M73 P0 R4

EXCLUDE_OBJECT_DEFINE NAME='c_led_diffuser_x4_stl' CENTER=124.929,105.013 POLYGON=[[129.848,99.583],[131.899,103.134],[131.899,109.574],[130.455,111.017],[120.169,111.017],[118.101,107.436],[118.101,99.926],[119.045,98.983],[129.502,98.983]]

;TYPE:Custom
G90 ; use absolute coordinates
M83 ; extruder relative mode
M104 S170 ; preheat hotend to 170
M140 S65 ; set bed temp
M190 S65 ; wait for bed temp
G28 ; home all
;G29 ; mesh bed leveling
BED_MESH_CALIBRATE
G0 X0 Z0.6 Y-3.0 F1000.0 ; go outside print area for intro line
M104 S215 ; set hotend temp
M109 S215 ; wait for hotend temp
;M104 S0 ; Stops PS/SS from sending temp waits separately
;M140 S0
;PRINT_START BED=65 HOTEND=215
G92 E0.0
G1 X60.0 E9.0 F1000.0 ; intro line
G1 X100.0 E12.5 F1000.0 ; intro line
M73 P1 R4
G92 E0.0
SKEW_PROFILE LOAD=CaliFlower
G21 ; set units to millimeters
G90 ; use absolute coordinates
M83 ; use relative distances for extrusion
M900 K0.05 ; Filament gcode



M142 S36 ; set heatbreak target temp
M107
;LAYER_CHANGE
;Z:0.2
;HEIGHT:0.2
G1 E-2 F2100
M73 P2 R4
G1 Z.8 F720
EXCLUDE_OBJECT_START NAME='c_led_diffuser_x4_stl'
G1 X121.692 Y100.072 F12000
G1 Z.2 F720
G1 E2 F1500
M204 S600
;TYPE:External perimeter
;WIDTH:0.513417
G1 F1200
G1 X121.792 Y100.01 E.0046
G1 X128.208 Y100.01 E.25101
G1 X128.406 Y100.131 E.00908
;WIDTH:0.499999
G1 X130.427 Y103.637 E.1538
G1 X130.755 Y104.31 E.02845
M73 P3 R4
G1 X131.051 Y105.057 E.03054
;WIDTH:0.498369
G1 X131.049 Y105.208 E.00572
;WIDTH:0.499999
G1 X130.879 Y105.697 E.01968
G1 X130.44 Y106.606 E.03837
G1 X129.239 Y108.691 E.09145
G1 X128.814 Y109.38 E.03077
G1 X128.514 Y109.794 E.01943
G1 X128.187 Y110.174 E.01905
G1 X128.056 Y110.299 E.00688
;WIDTH:0.473285
G1 X127.976 Y110.319 E.00295
;WIDTH:0.44335
G1 X127.897 Y110.34 E.00272
;WIDTH:0.413414
G1 X122.103 Y110.34 E.17849
;WIDTH:0.455738
G1 X122.003 Y110.305 E.00364
;WIDTH:0.498061
G1 X121.902 Y110.271 E.00403
;WIDTH:0.499999
G1 X121.581 Y109.915 E.01822
G1 X121.006 Y109.107 E.03769
G1 X119.799 Y107.024 E.0915
G1 X119.355 Y106.22 E.03491
G1 X119.127 Y105.713 E.02113
G1 X118.951 Y105.208 E.02033
;WIDTH:0.494198
G1 X118.957 Y105.043 E.0062
;WIDTH:0.499999
G1 X119.125 Y104.56 E.01944
G1 X119.573 Y103.637 E.03899
G1 X121.594 Y100.131 E.1538
;WIDTH:0.513417
G1 X121.64 Y100.103 E.00211
M204 S1000
G1 E-1.6 F2100
;WIPE_START
G1 F9600
G1 X121.692 Y100.072 E-.01258
G1 X121.792 Y100.01 E-.02445
G1 X123.539 Y100.01 E-.36297
;WIPE_END
G1 X130.489 Y108.249 Z.388 F12000
G1 Z.2 F720
G1 E2 F1500
M204 S600
;TYPE:Perimeter
;WIDTH:0.397038
G1 F1200
G1 X130.487 Y108.988 E.02176
G1 X129.886 Y109.588 E.02501
G1 X129.683 Y109.614 E.00603
G1 X130.458 Y108.301 E.04489
M204 S1000
G1 E-1.6 F2100
;WIPE_START
G1 F9600
G1 X130.489 Y108.249 E-.01258
G1 X130.487 Y108.988 E-.15357
G1 X129.886 Y109.588 E-.17648
G1 X129.683 Y109.614 E-.04253
G1 X129.719 Y109.553 E-.01484
;WIPE_END
G1 X130.898 Y106.711 Z.254 F12000
G1 Z.2 F720
G1 E2 F1500
M204 S600
;WIDTH:0.499999
G1 F1200
G1 X130.893 Y109.156 E.09293
G1 X130.034 Y110.015 E.04617
M73 P4 R4
G1 X129.432 Y110.024 E.02288
G1 X128.877 Y110.079 E.0212
G1 X129.203 Y109.62 E.0214
G1 X129.635 Y108.92 E.03126
G1 X130.868 Y106.763 E.09443
M204 S1000
G1 E-1.6 F2100
;WIPE_START
G1 F9600
G1 X130.898 Y106.711 E-.01248
G1 X130.894 Y108.576 E-.38752
;WIPE_END
G1 X128.903 Y100.02 Z.353 F12000
G1 Z.2 F720
G1 E2 F1500
M204 S600
;WIDTH:0.562256
G1 F1200
G1 X130.85 Y103.393 E.16818
;WIDTH:0.563308
G1 X130.869 Y103.427 E.00169
M204 S1000
G1 E-1.6 F2100
;WIPE_START
G1 F9600
G1 X130.85 Y103.393 E-.00809
G1 X129.907 Y101.76 E-.39191
;WIPE_END
G1 X120.304 Y100.478 Z.369 F12000
G1 Z.2 F720
G1 E2 F1500
M204 S600
;WIDTH:0.561623
G1 F1200
M73 P4 R3
G1 X119.594 Y101.708 E.06125
G1 X119.595 Y100.594 E.04805
G1 X119.664 Y100.478 E.00582
G1 X120.244 Y100.478 E.02502
M204 S1000
G1 X121.148 Y99.99 F12000
M204 S600
;WIDTH:0.499999
G1 F1200
G1 X119.101 Y103.562 E.15647
G1 X119.108 Y100.344 E.1223
G1 X119.462 Y99.99 E.01903
G1 X121.088 Y99.99 E.0618
M204 S1000
G1 E-1.6 F2100
;WIPE_START
G1 F9600
G1 X121.148 Y99.99 E-.01247
G1 X120.221 Y101.608 E-.38753
;WIPE_END
G1 X119.032 Y106.455 Z.287 F12000
G1 Z.2 F720
M73 P5 R3
G1 E2 F1500
M204 S600
;WIDTH:0.379383
G1 F1200
G1 X119.456 Y107.223 E.02454
;WIDTH:0.380631
G1 X120.662 Y109.306 E.06759
;WIDTH:0.382491
G1 X120.693 Y109.356 E.00166
;WIDTH:0.40876
G1 X121.259 Y110.17 E.03016
G1 X120.745 Y110.085 E.01585
G1 X120.37 Y109.475 E.02178
;WIDTH:0.380631
G1 X119.167 Y107.391 E.06757
;WIDTH:0.379383
G1 X119.044 Y107.177 E.00691
G1 X119.033 Y106.515 E.01852
M204 S1000
G1 E-1.6 F2100
;WIPE_START
G1 F9600
G1 X119.032 Y106.455 E-.01247
G1 X119.456 Y107.223 E-.18231
G1 X119.951 Y108.078 E-.20522
;WIPE_END
G1 X129.185 Y99.533 Z.42 F12000
G1 Z.2 F720
G1 E2 F1500
M204 S600
;TYPE:External perimeter
;WIDTH:0.499999
G1 F1200
G1 X131.352 Y103.287 E.16474
G1 X131.421 Y104.429 E.04348
G1 X131.512 Y105.151 E.02766
;WIDTH:0.495612
G1 X131.49 Y105.314 E.00619
;WIDTH:0.499999
G1 X131.387 Y106.085 E.02956
G1 X131.355 Y106.591 E.01927
G1 X131.349 Y109.346 E.10471
G1 X130.226 Y110.469 E.06036
G1 X129.417 Y110.482 E.03075
G1 X128.9 Y110.543 E.01979
G1 X128.408 Y110.658 E.0192
G1 X128.152 Y110.684 E.00978
;WIDTH:0.456707
G1 X127.897 Y110.71 E.00882
;WIDTH:0.413414
G1 X122.103 Y110.71 E.17849
;WIDTH:0.455738
G1 X121.894 Y110.687 E.00722
;WIDTH:0.498061
G1 X121.684 Y110.664 E.008
;WIDTH:0.499999
G1 X121.166 Y110.572 E.02
G1 X120.492 Y110.484 E.02583
G1 X118.65 Y107.286 E.14026
G1 X118.628 Y106.351 E.03555
G1 X118.505 Y105.419 E.03573
;WIDTH:0.495878
G1 X118.493 Y104.968 E.01699
;WIDTH:0.499999
G1 X118.575 Y104.46 E.01956
G1 X118.629 Y103.946 E.01964
G1 X118.648 Y103.441 E.01921
M73 P6 R3
G1 X118.651 Y100.154 E.12493
G1 X119.272 Y99.533 E.03338
G1 X121.248 Y99.533 E.0751
;WIDTH:0.513417
G1 X129.125 Y99.533 E.30816
M204 S1000
M106 S127.5
;LAYER_CHANGE
;Z:0.4
;HEIGHT:0.2
;BEFORE_LAYER_CHANGE
G92 E0.0
;0.4


G1 E-1.6 F2100
;WIPE_START
G1 F9600
G1 X129.185 Y99.533 E-.01247
G1 X130.117 Y101.148 E-.38753
;WIPE_END
G1 X130.117 Y101.148 Z.2 F12000
G1 X121.916 Y100.46 Z.4
;AFTER_LAYER_CHANGE
;0.4
;@SNAPSHOT
M104 S225 ; set temperature
G1 Z.4 F720
G1 E2 F1500
M204 S800
;WIDTH:0.449999
G1 F1565.943
G1 X122.004 Y100.41 E.00343
G1 X127.996 Y100.41 E.20282
G1 X128.172 Y100.511 E.00687
G1 X128.593 Y101.241 E.02852
G1 X130.36 Y104.301 E.11961
G1 X130.781 Y105.031 E.02852
G1 F1487.007
G1 X130.805 Y105.168 E.00471
G1 X130.781 Y105.235 E.00241
G1 F1565.953
G1 X130.36 Y105.965 E.02852
G1 X128.4 Y109.359 E.13266
G1 X127.979 Y110.089 E.02852
;WIDTH:0.483713
G1 F1460.313
G1 X127.935 Y110.138 E.00241
;WIDTH:0.517427
G1 F1443.352
G1 X127.891 Y110.188 E.00263
;WIDTH:0.551141
G1 F1484.984
G1 X127.846 Y110.237 E.00281
G1 F1743.088
G1 X127.802 Y110.239 E.00186
;WIDTH:0.547319
G1 F1756.931
G1 X126.814 Y110.239 E.04144
G1 X123.186 Y110.239 E.15216
G1 X122.198 Y110.239 E.04144
G1 F1362.279
G1 X122.109 Y110.164 E.00488
;WIDTH:0.498659
G1 F1378.114
G1 X122.021 Y110.089 E.00438
;WIDTH:0.449999
G1 F1565.946
G1 X121.6 Y109.359 E.02852
G1 X119.64 Y105.965 E.13266
G1 X119.219 Y105.235 E.02852
G1 F1487.012
G1 X119.195 Y105.168 E.00241
G1 X119.219 Y105.031 E.00471
G1 F1565.953
G1 X119.64 Y104.301 E.02852
G1 X121.407 Y101.241 E.11961
G1 X121.828 Y100.511 E.02852
G1 X121.864 Y100.49 E.00141
M204 S1000
G1 E-1.6 F2100
;WIPE_START
G1 F9600
M73 P7 R3
G1 X121.916 Y100.46 E-.01248
G1 X122.004 Y100.41 E-.02103
G1 X123.767 Y100.41 E-.36649
;WIPE_END
G1 X128.884 Y100.054 Z.49 F12000
G1 Z.4 F720
G1 E2 F1500
;TYPE:Perimeter
;WIDTH:0.513756
G1 F2013.507
G1 X128.904 Y100.089 E.00158
;WIDTH:0.512994
G1 F2015.077
G1 X130.828 Y103.421 E.15039
G1 E-1.6 F2100
;WIPE_START
G1 F9600
G1 X129.866 Y101.754 E-.4
;WIPE_END
G1 X120.351 Y100.495 Z.568 F12000
G1 Z.4 F720
G1 E2 F1500
;WIDTH:0.58258
G1 F2042.115
G1 X119.614 Y101.772 E.06616
G1 F2033.073
G1 X119.614 Y100.594 E.05286
G1 F2024.589
G1 X119.671 Y100.495 E.00513
G1 F2026.149
G1 X120.291 Y100.495 E.02782
G1 X121.241 Y100.022 F12000
;WIDTH:0.449999
G1 F2020.166
G1 X121.123 Y100.104 E.00486
G1 F2061.52
G1 X119.14 Y103.539 E.13425
G1 F2027.989
G1 X119.14 Y100.357 E.10771
G1 F2016.099
G1 X119.475 Y100.022 E.01604
G1 F2018.354
G1 X121.181 Y100.022 E.05775
G1 X121.727 Y100.133 F12000
G1 F2024.381
G1 X121.476 Y100.308 E.01036
G1 F2050.022
G1 X120.88 Y101.34 E.04034
;WIDTH:0.457179
G1 F2052.961
G1 X118.863 Y104.826 E.13873
;WIDTH:0.501306
G1 F2012.424
G1 X118.759 Y105.133 E.01235
G1 F2009.962
G1 X118.737 Y104.792 E.01302
;WIDTH:0.457179
G1 F2011.004
G1 X118.733 Y100.765 E.13871
;WIDTH:0.449999
G1 F1999.217
G1 X118.733 Y100.188 E.01953
G1 F1996.543
G1 X119.306 Y99.615 E.02743
G1 F1999.324
G1 X121.076 Y99.615 E.05991
G1 X122.004 Y99.61 E.03141
;WIDTH:0.440247
G1 X127.996 Y99.61 E.19796
;WIDTH:0.449999
G1 X129.137 Y99.615 E.03862
G1 X131.267 Y103.304 E.14419
G1 F2001.622
G1 X131.267 Y103.421 E.00396
;WIDTH:0.45718
G1 F2009.837
G1 X131.263 Y104.792 E.04723
;WIDTH:0.501316
G1 F2008.782
G1 X131.241 Y105.133 E.01302
G1 F2011.276
G1 X131.137 Y104.826 E.01235
;WIDTH:0.45718
G1 F2029.14
G1 X130.449 Y103.641 E.0472
;WIDTH:0.449999
G1 F2037.822
G1 X128.524 Y100.308 E.13028
G1 F2030.115
M73 P8 R3
G1 X128.512 Y100.288 E.00079
G1 F2023.823
G1 X127.996 Y100.007 E.01989
;WIDTH:0.440247
G1 F2018.491
G1 X122.004 Y100.007 E.19796
;WIDTH:0.446342
G1 X121.899 Y100.013 E.00353
;WIDTH:0.449999
G1 F2024.381
G1 X121.776 Y100.099 E.00508
G1 E-1.6 F2100
;WIPE_START
G1 F9600
G1 X121.727 Y100.133 E-.01239
G1 X121.476 Y100.308 E-.06359
G1 X120.88 Y101.34 E-.24766
G1 X120.696 Y101.658 E-.07636
;WIPE_END
G1 X130.467 Y108.194 Z.605 F12000
G1 Z.4 F720
G1 E2 F1500
;WIDTH:0.422174
G1 F2041.975
G1 X130.467 Y108.98 E.02479
G1 F2036.228
G1 X129.889 Y109.558 E.02578
G1 F2039.162
G1 X129.664 Y109.585 E.00715
G1 F2050.108
G1 X130.437 Y108.246 E.04876
G1 E-1.6 F2100
;WIPE_START
G1 F9600
G1 X130.467 Y108.194 E-.01248
G1 X130.467 Y108.98 E-.16334
G1 X129.889 Y109.558 E-.16987
G1 X129.664 Y109.585 E-.04709
G1 X129.681 Y109.555 E-.00722
;WIPE_END
G1 X130.86 Y106.727 Z.453 F12000
G1 Z.4 F720
G1 E2 F1500
;WIDTH:0.449999
G1 F2027.046
G1 X130.86 Y109.143 E.08178
G1 F2016.082
G1 X130.025 Y109.978 E.03997
G1 F2024.291
G1 X128.983 Y109.978 E.03527
G1 F2059.441
G1 X130.83 Y106.779 E.12503
G1 E-1.6 F2100
;WIPE_START
G1 F9600
G1 X130.86 Y106.727 E-.01248
G1 X130.86 Y108.592 E-.38752
;WIPE_END
G1 X131.236 Y105.244 Z.459 F12000
G1 Z.4 F720
G1 E2 F1500
;WIDTH:0.510958
G1 F2008.737
G1 X131.254 Y105.474 E.00898
;WIDTH:0.475326
G1 F2009.35
G1 X131.267 Y108.902 E.12325
;WIDTH:0.449999
G1 F1998.197
G1 X131.267 Y109.312 E.01388
G1 F1996.522
G1 X130.194 Y110.385 E.05136
G1 F2006.644
G1 X128.199 Y110.385 E.06753
G1 F2009.453
G1 X128.331 Y110.292 E.00547
G1 F2047.907
G1 X129.42 Y108.407 E.07369
;WIDTH:0.475326
G1 F2045.613
G1 X131.145 Y105.444 E.12327
;WIDTH:0.510958
G1 F2010.859
G1 X131.212 Y105.298 E.00625
G1 E-1.6 F2100
;WIPE_START
G1 F9600
G1 X131.236 Y105.244 E-.01228
G1 X131.254 Y105.474 E-.04794
M73 P9 R3
G1 X131.26 Y107.109 E-.33978
;WIPE_END
G1 X119.092 Y106.548 Z.613 F12000
G1 Z.4 F720
G1 E2 F1500
;WIDTH:0.35406
G1 F2040.093
G1 X121.1 Y110.026 E.1039
G1 F2032.287
G1 X120.741 Y110.026 E.00929
G1 F2024.003
G1 X119.092 Y107.17 E.08532
G1 F2027.502
G1 X119.092 Y106.608 E.01454
G1 X118.764 Y105.244 F12000
;WIDTH:0.510948
G1 F2012.012
G1 X118.855 Y105.444 E.00855
;WIDTH:0.475322
G1 F2031.222
G1 X119.694 Y106.871 E.05952
;WIDTH:0.449999
G1 F2042.637
G1 X121.669 Y110.292 E.13371
G1 F2029.691
G1 X121.83 Y110.385 E.00629
G1 F2023.937
G1 X120.534 Y110.385 E.04387
G1 F1997.612
G1 X118.733 Y107.266 E.12191
G1 F1999.33
G1 X118.733 Y107.128 E.00467
;WIDTH:0.475322
G1 F2010.522
G1 X118.746 Y105.474 E.05947
;WIDTH:0.510948
G1 F2009.917
G1 X118.759 Y105.303 E.00667
G1 E-1.6 F2100
;WIPE_START
G1 F9600
G1 X118.764 Y105.244 E-.0123
G1 X118.855 Y105.444 E-.04566
G1 X119.689 Y106.863 E-.34204
;WIPE_END
G1 X129.372 Y99.208 Z.615 F12000
G1 Z.4 F720
G1 E2 F1500
M204 S800
;TYPE:External perimeter
;WIDTH:0.449999
G1 F1973.347
G1 X129.76 Y99.879 E.02624
G1 X131.674 Y103.195 E.1296
G1 X131.674 Y103.97 E.02623
G1 X131.674 Y108.705 E.16027
G1 X131.674 Y109.48 E.02623
G1 X130.362 Y110.792 E.0628
G1 X128.385 Y110.792 E.06692
;WIDTH:0.498659
G1 F1921.325
G1 X128.094 Y110.768 E.01106
;WIDTH:0.547319
G1 F1963.882
G1 X127.802 Y110.743 E.01229
G1 F2049.232
G1 X126.882 Y110.743 E.03859
G1 X123.118 Y110.743 E.15787
G1 X122.198 Y110.743 E.03859
G1 F1963.882
G1 X121.906 Y110.768 E.01229
;WIDTH:0.498659
G1 F1921.325
G1 X121.615 Y110.792 E.01106
;WIDTH:0.449999
G1 F1973.351
G1 X120.299 Y110.792 E.04454
G1 X118.326 Y107.375 E.13356
G1 X118.326 Y106.6 E.02623
M73 P10 R3
G1 X118.326 Y100.795 E.19649
G1 X118.326 Y100.02 E.02623
G1 X119.138 Y99.208 E.03887
G1 X119.913 Y99.208 E.02623
G1 X129.312 Y99.208 E.31814
M204 S1000
M106 S255
;LAYER_CHANGE
;Z:0.6
;HEIGHT:0.2
;BEFORE_LAYER_CHANGE
G92 E0.0
;0.6


G1 E-1.6 F2100
;WIPE_START
G1 F9600
G1 X129.372 Y99.208 E-.01247
G1 X129.76 Y99.879 E-.16108
G1 X130.305 Y100.823 E-.22645
;WIPE_END
G1 X130.305 Y100.823 Z.4 F12000
G1 X122.013 Y100.628 Z.6
;AFTER_LAYER_CHANGE
;0.6
;@SNAPSHOT
G1 Z.6 F720
G1 E2 F1500
M204 S800
G1 F1565.946
G1 X122.101 Y100.577 E.00344
G1 X127.899 Y100.577 E.19626
G1 X128.075 Y100.679 E.00689
G1 X130.166 Y104.301 E.14156
G1 X130.587 Y105.031 E.02852
G1 F1487.007
G1 X130.612 Y105.168 E.00471
G1 X130.587 Y105.235 E.00242
G1 F1565.947
G1 X130.166 Y105.965 E.02852
G1 X128.303 Y109.191 E.1261
G1 X127.882 Y109.921 E.02852
G1 X127.706 Y110.023 E.00689
G1 X126.863 Y110.023 E.02853
G1 X123.137 Y110.023 E.12612
G1 X122.294 Y110.023 E.02853
G1 X122.118 Y109.921 E.00689
G1 X119.834 Y105.965 E.15462
G1 X119.413 Y105.235 E.02852
G1 F1487.001
G1 X119.388 Y105.168 E.00242
G1 X119.413 Y105.031 E.00471
G1 F1565.957
G1 X119.834 Y104.301 E.02852
G1 X121.504 Y101.409 E.11304
G1 X121.925 Y100.679 E.02852
G1 X121.961 Y100.658 E.00141
M204 S1000
G1 E-1.6 F2100
;WIPE_START
G1 F9600
G1 X122.013 Y100.628 E-.01248
G1 X122.101 Y100.577 E-.02114
G1 X123.864 Y100.577 E-.36638
;WIPE_END
G1 X127.808 Y110.403 Z.785 F12000
M73 P11 R3
G1 Z.6 F720
G1 E2 F1500
;TYPE:Perimeter
;WIDTH:0.414294
G1 F2090.571
G1 X127.706 Y110.407 E.00315
;WIDTH:0.405378
G1 F2100
G1 X122.294 Y110.407 E.16311
G1 E-1.6
;WIPE_START
G1 F9600
G1 X124.219 Y110.407 E-.4
;WIPE_END
G1 X130.426 Y108.01 Z.716 F12000
G1 Z.6 F720
G1 E2 F1500
;WIDTH:0.503124
G1 F2066.65
G1 X130.426 Y108.964 E.03651
G1 F2059.802
G1 X129.845 Y109.544 E.03141
G1 F2062.063
G1 X129.54 Y109.544 E.01167
G1 F2068.707
G1 X130.396 Y108.062 E.06549
G1 E-1.6 F2100
;WIPE_START
G1 F9600
G1 X130.426 Y108.01 E-.01248
G1 X130.426 Y108.964 E-.19825
G1 X129.845 Y109.544 E-.1706
G1 X129.755 Y109.544 E-.01867
;WIPE_END
G1 X130.86 Y106.391 Z.658 F12000
G1 Z.6 F720
G1 E2 F1500
;WIDTH:0.449999
G1 F2063.273
G1 X130.86 Y109.143 E.09315
G1 F2052.31
G1 X130.025 Y109.978 E.03997
G1 F2063.039
G1 X128.789 Y109.978 E.04184
G1 F2081.01
G1 X130.83 Y106.443 E.13817
G1 E-1.6 F2100
;WIPE_START
G1 F9600
G1 X130.86 Y106.391 E-.01248
G1 X130.86 Y108.256 E-.38752
;WIPE_END
G1 X128.226 Y99.979 Z.752 F12000
G1 Z.6 F720
G1 E2 F1500
;WIDTH:0.363567
G1 F2057.968
G1 X128.927 Y99.979 E.01869
G1 X129.018 Y100.135 E.00482
;WIDTH:0.361867
G1 F2058.013
G1 X130.883 Y103.364 E.09889
G1 X130.904 Y103.444 E.00219
G1 F2061.323
G1 X130.904 Y104.039 E.01578
G1 F2066.889
G1 X128.742 Y100.294 E.11468
;WIDTH:0.363567
G1 F2065.867
M73 P12 R3
G1 X128.702 Y100.23 E.00201
G1 F2061.57
G1 X128.279 Y100.007 E.01275
G1 E-1.6 F2100
;WIPE_START
G1 F9600
G1 X128.226 Y99.979 E-.01246
G1 X128.927 Y99.979 E-.14568
G1 X129.018 Y100.135 E-.03753
G1 X129.51 Y100.986 E-.20433
;WIPE_END
G1 X120.659 Y100.429 Z.755 F12000
G1 Z.6 F720
G1 E2 F1500
;WIDTH:0.449999
G1 F2080.474
G1 X119.547 Y102.355 E.07528
G1 F2071.685
G1 X119.547 Y100.525 E.06194
G1 F2062.276
