; generated by PrusaSlicer 2.9.3 on 2025-10-24 at 20:38:15 UTC


;
;

;
;

;
;

;
;

;
;
; 

; external perimeters extrusion width = 0.45mm
; perimeters extrusion width = 0.45mm
; infill extrusion width = 0.45mm
; solid infill extrusion width = 0.45mm
; top infill extrusion width = 0.40mm
; support material extrusion width = 0.37mm
; first layer extrusion width = 0.50mm

M73 P0 R16

EXCLUDE_OBJECT_DEFINE NAME='c_led_diffuser_x4_stl_(Instance_1)' CENTER=240.078,17.068 POLYGON=[[246.906,14.645],[246.906,22.155],[245.962,23.098],[235.505,23.098],[233.108,18.947],[233.108,12.507],[234.551,11.064],[244.838,11.064]]
EXCLUDE_OBJECT_DEFINE NAME='c_led_diffuser_x4_stl_(Instance_2)' CENTER=16.279,13.096 POLYGON=[[23.107,10.673],[23.107,18.183],[22.164,19.126],[11.706,19.126],[9.309,14.974],[9.309,8.535],[10.753,7.092],[21.039,7.092]]
EXCLUDE_OBJECT_DEFINE NAME='c_led_diffuser_x4_stl_(Instance_3)' CENTER=231.474,192.383 POLYGON=[[238.301,189.960],[238.301,197.469],[237.358,198.412],[226.900,198.412],[224.503,194.261],[224.503,187.822],[225.947,186.378],[236.234,186.378]]

;TYPE:Custom
G90 ; use absolute coordinates
M83 ; extruder relative mode
M104 S170 ; preheat hotend to 170
M140 S65 ; set bed temp
M190 S65 ; wait for bed temp
G28 ; home all
;G29 ; mesh bed leveling
BED_MESH_CALIBRATE
G0 X0 Z0.6 Y-3.0 F1000.0 ; go outside print area for intro line
M104 S225 ; set hotend temp
M109 S225 ; wait for hotend temp
;M104 S0 ; Stops PS/SS from sending temp waits separately
;M140 S0
;PRINT_START BED=65 HOTEND=225
G92 E0.0
G1 X60.0 E9.0 F1000.0 ; intro line
G1 X100.0 E12.5 F1000.0 ; intro line
G92 E0.0
SKEW_PROFILE LOAD=CaliFlower

; KLIPPER_PLR
G31
save_last_file
SAVE_VARIABLE VARIABLE=was_interrupted VALUE=True
G21 ; set units to millimeters
G90 ; use absolute coordinates
M83 ; use relative distances for extrusion
;M900 K0.05 ; Filament gcode



;M142 S36 ; set heatbreak target temp
M107
;LAYER_CHANGE
;Z:0.2
;HEIGHT:0.2
G1 E-2 F2100
G1 Z.8 F720
EXCLUDE_OBJECT_START NAME='c_led_diffuser_x4_stl_(Instance_2)'
G1 X21.278 Y12.976 F12000
G1 Z.2 F720
G1 E2 F1500
M204 S600
;TYPE:Support material
;WIDTH:0.5
G1 F1200
G1 X18.936 Y17.032 E.17801
G1 X13.48 Y17.032 E.20736
G1 X11.138 Y12.976 E.17801
G1 X13.673 Y8.586 E.19267
G1 X18.743 Y8.586 E.19269
G1 X21.243 Y12.917 E.19006
M204 S1000
G1 X20.779 Y13.429 F12000
M204 S600
G1 F1200
G1 X20.779 Y12.935 E.01878
G1 X20.208 Y11.945 E.04344
G1 X20.208 Y14.007 E.07837
G1 X19.636 Y14.996 E.04342
G1 X19.636 Y10.956 E.15355
G1 X19.065 Y9.966 E.04344
G1 X19.065 Y15.986 E.2288
G1 X18.698 Y16.621 E.02787
G1 X18.493 Y16.621 E.00779
G1 X18.493 Y8.997 E.28976
G1 X17.922 Y8.997 E.0217
G1 X17.922 Y16.621 E.28976
G1 X17.351 Y16.621 E.0217
M73 P1 R16
G1 X17.351 Y8.997 E.28976
G1 X16.779 Y8.997 E.02174
G1 X16.779 Y16.621 E.28976
G1 X16.208 Y16.621 E.0217
G1 X16.208 Y8.997 E.28976
G1 X15.637 Y8.997 E.0217
G1 X15.637 Y16.621 E.28976
G1 X15.065 Y16.621 E.02174
G1 X15.065 Y8.997 E.28976
G1 X14.494 Y8.997 E.0217
G1 X14.494 Y16.621 E.28976
G1 X13.923 Y16.621 E.0217
G1 X13.923 Y8.997 E.28976
G1 X13.351 Y9.966 E.04277
G1 X13.351 Y15.986 E.2288
G1 X12.78 Y14.996 E.04344
G1 X12.78 Y10.956 E.15355
G1 X12.209 Y11.945 E.0434
G1 X12.209 Y14.007 E.07837
G1 X11.637 Y13.017 E.04346
G1 X11.637 Y12.523 E.01878
M204 S1000
G1 E-1.6 F2100
;WIPE_START
G1 F9600
G1 X11.637 Y13.017 E-.10266
G1 X12.209 Y14.007 E-.23761
G1 X12.209 Y13.72 E-.05973
;WIPE_END
G1 X19.399 Y17.835 Z.345 F12000
G1 Z.2 F720
G1 E2 F1500
M204 S600
;TYPE:External perimeter
;WIDTH:0.499999
G1 F1200
G1 X19.3 Y17.892 E.00434
G1 X13.116 Y17.892 E.23503
G1 X12.899 Y17.746 E.00994
G1 X10.941 Y14.353 E.14889
;WIDTH:0.519821
G1 X10.203 Y13.095 E.05784
;WIDTH:0.532304
G1 X10.165 Y12.976 E.00508
G1 X10.207 Y12.859 E.00506
;WIDTH:0.510933
G1 X11.972 Y9.813 E.137
;WIDTH:0.499999
G1 X13.112 Y7.841 E.08657
;WIDTH:0.496403
G1 X13.211 Y7.805 E.00397
;WIDTH:0.454909
G1 X13.309 Y7.769 E.00358
;WIDTH:0.413414
G1 X19.107 Y7.769 E.17862
;WIDTH:0.456707
G1 X19.206 Y7.804 E.00361
;WIDTH:0.499999
G1 X19.305 Y7.84 E.004
G1 X21.334 Y11.353 E.15419
;WIDTH:0.510933
G1 X22.21 Y12.859 E.0678
;WIDTH:0.53601
G1 X22.25 Y13.019 E.00676
G1 X22.213 Y13.095 E.00347
;WIDTH:0.51982
G1 X20.138 Y16.671 E.16395
;WIDTH:0.499999
G1 X19.498 Y17.778 E.0486
G1 X19.451 Y17.805 E.00206
M204 S1000
G1 E-1.6 F2100
;WIPE_START
G1 F9600
G1 X19.399 Y17.835 E-.01248
G1 X19.3 Y17.892 E-.02374
G1 X17.549 Y17.892 E-.36378
;WIPE_END
G1 X21.386 Y17.316 Z.268 F12000
G1 Z.2 F720
G1 E2 F1500
M204 S600
;TYPE:Perimeter
;WIDTH:0.564914
G1 F1200
G1 X21.321 Y17.316 E.00282
G1 X21.288 Y17.372 E.00282
G1 X21.321 Y17.429 E.00286
G1 X21.386 Y17.429 E.00282
G1 X21.419 Y17.372 E.00286
M204 S1000
G1 X20.505 Y17.862 F12000
M204 S600
;WIDTH:0.499999
G1 F1200
G1 X21.843 Y15.545 E.10169
G1 X21.843 Y17.659 E.08035
G1 X21.64 Y17.862 E.01091
G1 X20.565 Y17.862 E.04086
M204 S1000
G1 X19.61 Y18.199 F12000
M204 S600
G1 F1200
G1 X19.894 Y18.006 E.01305
G1 X22.3 Y13.84 E.18284
G1 X22.3 Y17.848 E.15233
G1 X21.829 Y18.319 E.02532
G1 X19.417 Y18.329 E.09167
G1 X19.56 Y18.232 E.00657
M204 S1000
G1 E-1.6 F2100
;WIPE_START
G1 F9600
G1 X19.61 Y18.199 E-.01245
G1 X19.894 Y18.006 E-.07136
G1 X20.655 Y16.688 E-.31619
;WIPE_END
G1 X22.261 Y11.968 Z.287 F12000
G1 Z.2 F720
G1 E2 F1500
M204 S600
;WIDTH:0.577232
G1 F1200
G1 X19.934 Y7.937 E.20679
G1 X20.551 Y7.937 E.02741
G1 X22.226 Y10.838 E.14883
G1 X22.261 Y10.971 E.00611
G1 X22.261 Y11.908 E.04163
M204 S1000
G1 E-1.6 F2100
;WIPE_START
G1 F9600
G1 X22.261 Y11.968 E-.01247
G1 X21.329 Y10.353 E-.38753
;WIPE_END
G1 X10.622 Y10.227 Z.387 F12000
G1 Z.2 F720
G1 E2 F1500
M204 S600
;WIDTH:0.596537
G1 F1200
G1 X10.622 Y9.079 E.05285
G1 X11.296 Y8.404 E.04391
G1 X11.674 Y8.404 E.0174
G1 X10.652 Y10.175 E.09413
M204 S1000
G1 E-1.6 F2100
;WIPE_START
G1 F9600
G1 X10.622 Y10.227 E-.01248
G1 X10.622 Y9.079 E-.23857
G1 X11.129 Y8.572 E-.14895
;WIPE_END
G1 X10.116 Y12.113 Z.264 F12000
G1 Z.2 F720
G1 E2 F1500
M204 S600
;WIDTH:0.499999
G1 F1200
G1 X10.116 Y8.87 E.12325
G1 X11.087 Y7.899 E.05219
M73 P2 R16
G1 X12.549 Y7.899 E.05557
G1 X10.146 Y12.061 E.18265
M204 S1000
G1 E-1.6 F2100
;WIPE_START
G1 F9600
G1 X10.116 Y12.113 E-.01248
G1 X10.116 Y10.248 E-.38752
;WIPE_END
G1 X13.116 Y18.334 Z.351 F12000
G1 Z.2 F720
G1 E2 F1500
M204 S600
;WIDTH:0.501123
G1 F1200
G1 X12.172 Y18.318 E.03597
G1 X10.117 Y14.758 E.15661
G1 X10.117 Y13.842 E.0349
G1 X12.521 Y18.007 E.18322
G1 X13.063 Y18.305 E.02357
M204 S1000
G1 E-1.6 F2100
;WIPE_START
G1 F9600
G1 X13.116 Y18.334 E-.01256
G1 X12.172 Y18.318 E-.1962
G1 X11.712 Y17.521 E-.19124
;WIPE_END
G1 X19.417 Y18.329 Z.335 F12000
G1 Z.2 F720
G1 E2 F1500
M204 S600
;WIDTH:0.479916
G1 F1200
G1 X19.3 Y18.334 E.00426
;WIDTH:0.469756
G1 X13.116 Y18.334 E.21948
M204 S1000
G1 X11.908 Y18.776 F12000
M204 S600
;TYPE:External perimeter
;WIDTH:0.499999
G1 F1200
G1 X9.659 Y14.881 E.17094
G1 X9.659 Y14.697 E.00699
;WIDTH:0.519821
G1 X9.665 Y12.714 E.07864
;WIDTH:0.510933
G1 X9.659 Y9.194 E.13698
;WIDTH:0.499999
G1 X9.659 Y8.68 E.01954
G1 X10.898 Y7.442 E.06657
G1 X12.881 Y7.44 E.07537
;WIDTH:0.496403
G1 X13.095 Y7.419 E.00811
;WIDTH:0.454909
G1 X13.309 Y7.398 E.00737
;WIDTH:0.413414
G1 X19.107 Y7.398 E.17862
;WIDTH:0.456707
G1 X19.321 Y7.42 E.0074
;WIDTH:0.499999
G1 X19.535 Y7.442 E.00818
G1 X20.837 Y7.442 E.04948
G1 X22.757 Y10.767 E.14593
G1 X22.757 Y10.971 E.00775
;WIDTH:0.510933
G1 X22.752 Y12.714 E.06783
;WIDTH:0.51982
G1 X22.757 Y17.372 E.18471
;WIDTH:0.499999
G1 X22.757 Y18.038 E.02531
G1 X22.019 Y18.776 E.03967
G1 X11.968 Y18.776 E.382
M204 S1000
G1 E-1.6 F2100
;WIPE_START
G1 F9600
G1 X11.908 Y18.776 E-.01247
G1 X10.976 Y17.161 E-.38753
;WIPE_END
G1 X45.35 Y17.13 Z.8 F12000
EXCLUDE_OBJECT_END NAME='c_led_diffuser_x4_stl_(Instance_2)'
EXCLUDE_OBJECT_START NAME='c_led_diffuser_x4_stl_(Instance_1)'
G1 X245.076 Y16.948
G1 Z.2 F720
G1 E2 F1500
M204 S600
;TYPE:Support material
;WIDTH:0.5
G1 F1200
G1 X242.735 Y21.004 E.17799
G1 X237.279 Y21.004 E.20736
G1 X234.937 Y16.948 E.17801
G1 X237.472 Y12.558 E.19267
G1 X242.542 Y12.558 E.19269
G1 X245.042 Y16.889 E.19006
M204 S1000
G1 X244.578 Y17.401 F12000
M204 S600
G1 F1200
G1 X244.578 Y16.907 E.01878
G1 X244.006 Y15.917 E.04346
G1 X244.006 Y17.979 E.07837
G1 X243.435 Y18.969 E.04344
G1 X243.435 Y14.928 E.15358
G1 X242.864 Y13.938 E.04344
G1 X242.864 Y19.958 E.2288
G1 X242.497 Y20.593 E.02787
G1 X242.292 Y20.593 E.00779
G1 X242.292 Y12.969 E.28976
G1 X241.721 Y12.969 E.0217
G1 X241.721 Y20.593 E.28976
G1 X241.15 Y20.593 E.0217
G1 X241.15 Y12.969 E.28976
G1 X240.578 Y12.969 E.02174
M73 P3 R16
G1 X240.578 Y20.593 E.28976
G1 X240.007 Y20.593 E.0217
G1 X240.007 Y12.969 E.28976
G1 X239.435 Y12.969 E.02174
G1 X239.435 Y20.593 E.28976
G1 X238.864 Y20.593 E.0217
G1 X238.864 Y12.969 E.28976
G1 X238.293 Y12.969 E.0217
G1 X238.293 Y20.593 E.28976
G1 X237.721 Y20.593 E.02174
G1 X237.721 Y12.969 E.28976
G1 X237.15 Y13.938 E.04275
G1 X237.15 Y19.958 E.2288
G1 X236.579 Y18.969 E.0434
G1 X236.579 Y14.928 E.15358
G1 X236.007 Y15.917 E.04342
G1 X236.007 Y17.979 E.07837
G1 X235.436 Y16.989 E.04344
G1 X235.436 Y16.496 E.01874
M204 S1000
G1 E-1.6 F2100
;WIPE_START
G1 F9600
G1 X235.436 Y16.989 E-.10245
G1 X236.007 Y17.979 E-.2375
G1 X236.007 Y17.69 E-.06005
;WIPE_END
G1 X243.198 Y21.807 Z.345 F12000
G1 Z.2 F720
G1 E2 F1500
M204 S600
;TYPE:External perimeter
;WIDTH:0.499999
G1 F1200
G1 X243.099 Y21.864 E.00434
G1 X236.914 Y21.864 E.23507
G1 X236.698 Y21.718 E.00991
G1 X234.739 Y18.325 E.14891
;WIDTH:0.519821
G1 X234.002 Y17.067 E.05782
;WIDTH:0.532304
G1 X233.963 Y16.948 E.0051
G1 X234.005 Y16.831 E.00506
;WIDTH:0.510933
G1 X235.77 Y13.785 E.137
;WIDTH:0.499999
G1 X236.911 Y11.813 E.08659
;WIDTH:0.496403
G1 X237.009 Y11.777 E.00394
;WIDTH:0.454909
G1 X237.107 Y11.741 E.00358
;WIDTH:0.413414
G1 X242.906 Y11.741 E.17865
;WIDTH:0.456707
G1 X243.005 Y11.777 E.00362
;WIDTH:0.499999
G1 X243.104 Y11.812 E.00399
G1 X245.132 Y15.325 E.15417
;WIDTH:0.510933
G1 X246.008 Y16.831 E.0678
;WIDTH:0.53601
G1 X246.048 Y16.991 E.00676
G1 X246.012 Y17.067 E.00345
;WIDTH:0.51982
G1 X243.937 Y20.643 E.16395
;WIDTH:0.499999
G1 X243.297 Y21.75 E.0486
G1 X243.25 Y21.777 E.00206
M204 S1000
G1 E-1.6 F2100
;WIPE_START
G1 F9600
G1 X243.198 Y21.807 E-.01248
G1 X243.099 Y21.864 E-.02374
G1 X241.349 Y21.864 E-.36378
;WIPE_END
G1 X245.185 Y21.288 Z.268 F12000
G1 Z.2 F720
G1 E2 F1500
M204 S600
;TYPE:Perimeter
;WIDTH:0.564914
G1 F1200
G1 X245.12 Y21.288 E.00282
G1 X245.087 Y21.345 E.00286
G1 X245.12 Y21.401 E.00282
G1 X245.185 Y21.401 E.00282
G1 X245.217 Y21.345 E.0028
M204 S1000
G1 X244.304 Y21.834 F12000
M204 S600
;WIDTH:0.499999
G1 F1200
G1 X245.642 Y19.518 E.10166
G1 X245.642 Y21.631 E.08031
G1 X245.439 Y21.834 E.01091
G1 X244.364 Y21.834 E.04086
M204 S1000
G1 X243.408 Y22.171 F12000
M204 S600
G1 F1200
G1 X243.693 Y21.979 E.01306
G1 X246.099 Y17.812 E.18288
G1 X246.099 Y21.82 E.15233
G1 X245.628 Y22.291 E.02532
G1 X243.216 Y22.301 E.09167
G1 X243.359 Y22.205 E.00655
M204 S1000
G1 E-1.6 F2100
;WIPE_START
G1 F9600
G1 X243.408 Y22.171 E-.01239
G1 X243.693 Y21.979 E-.07141
G1 X244.454 Y20.661 E-.3162
;WIPE_END
G1 X246.06 Y15.941 Z.287 F12000
G1 Z.2 F720
G1 E2 F1500
M204 S600
;WIDTH:0.577232
G1 F1200
G1 X243.733 Y11.91 E.20679
G1 X244.35 Y11.91 E.02741
G1 X246.024 Y14.81 E.14877
G1 X246.06 Y14.944 E.00616
G1 X246.06 Y15.881 E.04163
M204 S1000
G1 E-1.6 F2100
;WIPE_START
G1 F9600
G1 X246.06 Y15.941 E-.01247
G1 X245.128 Y14.326 E-.38753
;WIPE_END
G1 X234.42 Y14.199 Z.387 F12000
G1 Z.2 F720
G1 E2 F1500
M204 S600
;WIDTH:0.596537
G1 F1200
G1 X234.42 Y13.051 E.05285
G1 X235.095 Y12.376 E.04394
G1 X235.472 Y12.376 E.01735
G1 X234.45 Y14.147 E.09413
M204 S1000
G1 E-1.6 F2100
;WIPE_START
G1 F9600
G1 X234.42 Y14.199 E-.01248
G1 X234.42 Y13.051 E-.23857
G1 X234.927 Y12.544 E-.14895
;WIPE_END
G1 X233.915 Y16.085 Z.264 F12000
G1 Z.2 F720
G1 E2 F1500
M204 S600
;WIDTH:0.499999
G1 F1200
G1 X233.915 Y12.842 E.12325
G1 X234.886 Y11.871 E.05219
G1 X236.348 Y11.871 E.05557
G1 X233.945 Y16.033 E.18265
M204 S1000
G1 E-1.6 F2100
;WIPE_START
G1 F9600
G1 X233.915 Y16.085 E-.01248
G1 X233.915 Y14.22 E-.38752
;WIPE_END
G1 X236.914 Y22.306 Z.351 F12000
G1 Z.2 F720
M73 P4 R16
G1 E2 F1500
M204 S600
;WIDTH:0.501123
G1 F1200
G1 X235.971 Y22.291 E.03593
G1 X233.916 Y18.73 E.15664
G1 X233.916 Y17.814 E.0349
G1 X236.32 Y21.979 E.18322
G1 X236.862 Y22.277 E.02357
M204 S1000
G1 E-1.6 F2100
;WIPE_START
G1 F9600
G1 X236.914 Y22.306 E-.01237
G1 X235.971 Y22.291 E-.19599
G1 X235.51 Y21.492 E-.19164
;WIPE_END
G1 X243.216 Y22.301 Z.335 F12000
G1 Z.2 F720
G1 E2 F1500
M204 S600
;WIDTH:0.479916
G1 F1200
G1 X243.099 Y22.306 E.00426
;WIDTH:0.469756
G1 X236.914 Y22.306 E.21952
M204 S1000
G1 X235.707 Y22.748 F12000
M204 S600
;TYPE:External perimeter
;WIDTH:0.499999
G1 F1200
G1 X233.458 Y18.853 E.17094
G1 X233.458 Y18.669 E.00699
;WIDTH:0.519821
G1 X233.463 Y16.686 E.07864
;WIDTH:0.510933
G1 X233.458 Y13.166 E.13698
;WIDTH:0.499999
G1 X233.458 Y12.652 E.01954
G1 X234.696 Y11.414 E.06654
G1 X236.68 Y11.412 E.0754
;WIDTH:0.496403
G1 X236.894 Y11.391 E.00811
;WIDTH:0.454909
G1 X237.107 Y11.371 E.00733
;WIDTH:0.413414
G1 X242.906 Y11.371 E.17865
;WIDTH:0.456707
G1 X243.12 Y11.392 E.0074
;WIDTH:0.499999
G1 X243.334 Y11.414 E.00818
G1 X244.636 Y11.414 E.04948
G1 X246.556 Y14.739 E.14593
G1 X246.556 Y14.944 E.00779
;WIDTH:0.510933
G1 X246.55 Y16.686 E.06779
;WIDTH:0.51982
G1 X246.556 Y21.345 E.18475
;WIDTH:0.499999
G1 X246.556 Y22.01 E.02527
G1 X245.817 Y22.748 E.03969
G1 X235.767 Y22.748 E.38196
M204 S1000
G1 E-1.6 F2100
;WIPE_START
G1 F9600
G1 X235.707 Y22.748 E-.01247
G1 X234.774 Y21.133 E-.38753
;WIPE_END
G1 X235.115 Y55.505 Z.8 F12000
EXCLUDE_OBJECT_END NAME='c_led_diffuser_x4_stl_(Instance_1)'
EXCLUDE_OBJECT_START NAME='c_led_diffuser_x4_stl_(Instance_3)'
G1 X236.472 Y192.262
G1 Z.2 F720
M73 P4 R15
G1 E2 F1500
M204 S600
;TYPE:Support material
;WIDTH:0.5
G1 F1200
G1 X234.13 Y196.319 E.17804
G1 X228.675 Y196.319 E.20732
G1 X226.333 Y192.262 E.17804
G1 X228.868 Y187.872 E.19267
G1 X233.937 Y187.872 E.19265
G1 X236.438 Y192.203 E.19008
M204 S1000
G1 X235.973 Y192.715 F12000
M204 S600
G1 F1200
G1 X235.973 Y192.221 E.01878
G1 X235.402 Y191.232 E.0434
G1 X235.402 Y193.293 E.07833
G1 X234.831 Y194.283 E.04344
G1 X234.831 Y190.242 E.15358
G1 X234.259 Y189.252 E.04346
G1 X234.259 Y195.272 E.2288
G1 X233.893 Y195.907 E.02786
G1 X233.688 Y195.907 E.00779
G1 X233.688 Y188.283 E.28976
G1 X233.116 Y188.283 E.02174
G1 X233.116 Y195.907 E.28976
G1 X232.545 Y195.907 E.0217
G1 X232.545 Y188.283 E.28976
G1 X231.974 Y188.283 E.0217
G1 X231.974 Y195.907 E.28976
G1 X231.402 Y195.907 E.02174
G1 X231.402 Y188.283 E.28976
G1 X230.831 Y188.283 E.0217
G1 X230.831 Y195.907 E.28976
G1 X230.26 Y195.907 E.0217
M73 P5 R15
G1 X230.26 Y188.283 E.28976
G1 X229.688 Y188.283 E.02174
G1 X229.688 Y195.907 E.28976
G1 X229.117 Y195.907 E.0217
G1 X229.117 Y188.283 E.28976
G1 X228.546 Y189.252 E.04275
G1 X228.546 Y195.272 E.2288
G1 X227.974 Y194.283 E.04342
G1 X227.974 Y190.242 E.15358
G1 X227.403 Y191.232 E.04344
G1 X227.403 Y193.293 E.07833
G1 X226.832 Y192.304 E.0434
G1 X226.832 Y191.81 E.01878
M204 S1000
G1 E-1.6 F2100
;WIPE_START
G1 F9600
G1 X226.832 Y192.304 E-.10266
G1 X227.403 Y193.293 E-.23732
G1 X227.403 Y193.004 E-.06002
;WIPE_END
G1 X234.594 Y197.121 Z.345 F12000
G1 Z.2 F720
G1 E2 F1500
M204 S600
;TYPE:External perimeter
;WIDTH:0.499999
G1 F1200
G1 X234.495 Y197.179 E.00436
G1 X228.31 Y197.179 E.23507
G1 X228.094 Y197.032 E.00993
G1 X226.135 Y193.64 E.14887
;WIDTH:0.519821
G1 X225.397 Y192.382 E.05784
;WIDTH:0.532304
G1 X225.359 Y192.262 E.00512
G1 X225.401 Y192.145 E.00506
;WIDTH:0.510933
G1 X227.166 Y189.099 E.137
;WIDTH:0.499999
G1 X228.307 Y187.127 E.08659
;WIDTH:0.496403
G1 X228.405 Y187.091 E.00394
;WIDTH:0.454909
G1 X228.503 Y187.055 E.00358
;WIDTH:0.413414
G1 X234.302 Y187.055 E.17865
;WIDTH:0.456707
G1 X234.401 Y187.091 E.00362
;WIDTH:0.499999
G1 X234.5 Y187.126 E.00399
G1 X236.528 Y190.639 E.15417
;WIDTH:0.510933
G1 X237.404 Y192.145 E.0678
;WIDTH:0.53601
G1 X237.444 Y192.305 E.00676
G1 X237.408 Y192.382 E.00349
;WIDTH:0.51982
G1 X235.332 Y195.957 E.16393
;WIDTH:0.499999
