; generated by PrusaSlicer 2.9.3 on 2025-10-22 at 16:07:48 UTC


;
;

;
;

;
;

;
;

;
;
; 

; external perimeters extrusion width = 0.45mm
; perimeters extrusion width = 0.45mm
; infill extrusion width = 0.45mm
; solid infill extrusion width = 0.45mm
; top infill extrusion width = 0.42mm
; first layer extrusion width = 0.50mm

M73 P0 R77

EXCLUDE_OBJECT_DEFINE NAME='crysknife(26)_stl' CENTER=125.943,104.226 POLYGON=[[26.088,20.204],[40.371,5.920],[73.717,28.794],[105.592,57.136],[226.793,178.338],[208.300,205.334],[208.230,205.373],[84.766,92.888],[76.097,83.865],[56.578,62.978],[48.467,54.044]]

;TYPE:Custom
G90 ; use absolute coordinates
M83 ; extruder relative mode
M104 S170 ; preheat hotend to 170
M140 S65 ; set bed temp
M190 S65 ; wait for bed temp
G28 ; home all
;G29 ; mesh bed leveling
BED_MESH_CALIBRATE
G0 X0 Z0.6 Y-3.0 F1000.0 ; go outside print area for intro line
M104 S225 ; set hotend temp
M109 S225 ; wait for hotend temp
;M104 S0 ; Stops PS/SS from sending temp waits separately
;M140 S0
;PRINT_START BED=65 HOTEND=225
G92 E0.0
G1 X60.0 E9.0 F1000.0 ; intro line
G1 X100.0 E12.5 F1000.0 ; intro line
G92 E0.0
SKEW_PROFILE LOAD=CaliFlower
G21 ; set units to millimeters
G90 ; use absolute coordinates
M83 ; use relative distances for extrusion
;M900 K0.05 ; Filament gcode



;M142 S36 ; set heatbreak target temp
M107
;LAYER_CHANGE
;Z:0.2
;HEIGHT:0.2
G1 E-2 F2100
M73 P0 R76
G1 Z.8 F720
EXCLUDE_OBJECT_START NAME='crysknife(26)_stl'
G1 X104.934 Y69.625 F12000
G1 Z.2 F720
G1 E2 F1500
M204 S600
;TYPE:Perimeter
;WIDTH:0.499999
G1 F1200
G3 X104.742 Y70.116 I-.759 J-.015 E.02046
G1 X90.283 Y84.575 E.77716
G3 X89.802 Y84.776 I-.542 J-.621 E.02016
G1 X89.46 Y84.687 E.01343
G1 X89.313 Y84.575 E.00702
G1 X87.762 Y83.024 E.08336
G3 X87.562 Y82.507 I.636 J-.544 E.02147
G3 X87.762 Y82.054 I.823 J.093 E.01911
G1 X93.047 Y76.769 E.28406
G1 X93.246 Y76.601 E.0099
;WIDTH:0.454793
G1 X93.446 Y76.434 E.00892
;WIDTH:0.409586
G1 X93.645 Y76.266 E.00794
;WIDTH:0.364379
G1 X95.196 Y74.716 E.05861
;WIDTH:0.409586
G1 X95.363 Y74.516 E.00794
;WIDTH:0.454793
G1 X95.531 Y74.317 E.00892
;WIDTH:0.499999
G1 X95.698 Y74.117 E.0099
G1 X102.221 Y67.595 E.35058
G3 X102.623 Y67.399 I.565 J.649 E.0172
G3 X103.191 Y67.595 I.034 J.822 E.02338
G1 X104.742 Y69.146 E.08336
G1 X104.913 Y69.431 E.01263
G3 X104.933 Y69.565 I-.738 J.179 E.00516
M204 S1000
G1 X104.472 Y69.599 F12000
M204 S600
;TYPE:External perimeter
G1 F1200
G3 X104.419 Y69.792 I-.265 J.032 E.0078
G1 X89.959 Y84.252 E.77721
G3 X89.636 Y84.252 I-.161 J-.212 E.01319
G1 X88.085 Y82.701 E.08336
G3 X88.085 Y82.377 I.201 J-.162 E.01332
G1 X102.544 Y67.918 E.77716
G1 X102.678 Y67.853 E.00566
G3 X102.868 Y67.918 I-.039 J.421 E.00771
G1 X104.419 Y69.469 E.08336
G3 X104.458 Y69.54 I-.212 J.162 E.00309
M204 S1000
G1 E-1.6 F2100
;WIPE_START
G1 F9600
G1 X104.472 Y69.599 E-.0126
G3 X104.419 Y69.792 I-.265 J.031 E-.04264
G1 X103.246 Y70.965 E-.34476
;WIPE_END
G1 X77.847 Y61.156 Z.675 F12000
G1 Z.2 F720
G1 E2 F1500
M204 S600
;TYPE:Perimeter
G1 F1200
G3 X77.924 Y60.811 I.731 J-.02 E.01357
G3 X79.681 Y59.031 I31.259 J29.109 E.09507
G3 X80.558 Y59.109 I.388 J.609 E.03598
G1 X95.017 Y73.567 E.77713
G1 X95.21 Y73.955 E.01647
G1 X95.154 Y74.106 E.00612
;WIDTH:0.45676
G1 X95.097 Y74.257 E.00555
;WIDTH:0.41352
G1 X95.04 Y74.408 E.00497
;WIDTH:0.37028
G1 X94.969 Y74.489 E.00293
;WIDTH:0.364379
G1 X93.418 Y76.039 E.05861
;WIDTH:0.409586
G1 X93.24 Y76.12 E.00596
;WIDTH:0.454793
G1 X93.062 Y76.2 E.00668
;WIDTH:0.499999
G1 X92.884 Y76.281 E.00743
G1 X92.496 Y76.087 E.01649
G1 X78.038 Y61.629 E.7771
G3 X77.851 Y61.215 I.54 J-.493 E.01756
M204 S1000
G1 X78.309 Y61.176 F12000
M204 S600
;TYPE:External perimeter
G1 F1200
G3 X78.361 Y60.983 I.264 J-.032 E.00779
G1 X79.943 Y59.406 E.0849
G3 X80.235 Y59.432 I.126 J.239 E.01177
G1 X94.693 Y73.89 E.7771
G1 X94.758 Y74.019 E.00549
G1 X94.693 Y74.213 E.00778
G1 X93.143 Y75.764 E.08334
G1 X92.949 Y75.829 E.00778
G1 X92.82 Y75.764 E.00549
G1 X78.361 Y61.306 E.77713
G3 X78.322 Y61.234 I.212 J-.162 E.00312
M204 S1000
G1 E-1.6 F2100
;WIPE_START
G1 F9600
G1 X78.309 Y61.176 E-.01235
G3 X78.361 Y60.983 I.265 J-.032 E-.04258
G1 X79.537 Y59.811 E-.34507
;WIPE_END
G1 X68.419 Y35.09 Z.673 F12000
G1 Z.2 F720
G1 E2 F1500
M204 S600
;TYPE:Perimeter
G1 F1200
G2 X68.894 Y34.899 I-.01 J-.713 E.0199
G1 X73.744 Y30.049 E.26068
G1 X81.726 Y37.351 E.41116
G1 X91.395 Y46.026 E.49371
G1 X100.252 Y53.785 E.44752
G1 X104.976 Y57.803 E.2357
G1 X161.885 Y114.719 E3.05899
G1 X166.99 Y120.555 E.29469
G1 X185.657 Y139.978 E1.02385
G1 X205.061 Y158.625 E1.0228
G1 X210.896 Y163.731 E.29469
G1 X225.257 Y178.092 E.77189
G1 X223.82 Y178.803 E.06093
G1 X220.143 Y181.263 E.16814
G1 X216.949 Y184.065 E.16148
G1 X214.085 Y187.321 E.16481
G1 X211.67 Y190.92 E.16473
G1 X209.938 Y194.409 E.14804
G1 X209.709 Y194.885 E.02008
G1 X208.315 Y198.989 E.16473
G2 X207.553 Y202.873 I158.007 J33.026 E.15043
G1 X207.48 Y203.392 E.01992
G1 X207.141 Y203.003 E.01961
G1 X205.113 Y200.966 E.10925
G1 X200.825 Y195.173 E.27392
G1 X185.769 Y177.963 E.86906
G1 X167.1 Y158.535 E1.02404
G1 X147.653 Y139.847 E1.02506
G1 X130.399 Y124.755 E.87122
G1 X127.882 Y122.894 E.11897
G1 X127.661 Y121.85 E.04056
G1 X126.534 Y117.721 E.16267
G1 X125.189 Y113.719 E.16046
G1 X123.622 Y109.844 E.15886
G1 X121.855 Y106.158 E.15536
G1 X119.905 Y102.696 E.15101
G1 X117.788 Y99.489 E.14605
G1 X115.525 Y96.57 E.14038
G1 X113.134 Y93.963 E.13444
G1 X110.636 Y91.697 E.12818
G1 X108.053 Y89.791 E.122
G1 X105.329 Y88.23 E.11932
G1 X102.72 Y87.144 E.10741
G1 X100.016 Y86.435 E.10624
G1 X97.324 Y86.152 E.10288
G1 X94.559 Y86.319 E.10528
G1 X91.983 Y86.925 E.10058
G1 X89.522 Y87.957 E.10142
G1 X87.198 Y89.4 E.10397
G1 X85.105 Y91.168 E.10413
G1 X84.761 Y91.54 E.01926
G1 X76.794 Y83.248 E.43704
G1 X57.294 Y62.383 E1.08541
G1 X49.736 Y54.057 E.42737
G1 X55.067 Y48.727 E.28651
G2 X55.231 Y48.02 I-.557 J-.502 E.02879
G1 X55.067 Y47.757 E.01178
G1 X27.442 Y20.132 E1.48482
G1 X40.3 Y7.275 E.69108
G1 X67.924 Y34.899 E1.48476
G2 X68.359 Y35.088 I.485 J-.522 E.01838
M73 P1 R76
M204 S1000
G1 X68.441 Y34.629 F12000
M204 S600
;TYPE:External perimeter
G1 F1200
G2 X68.571 Y34.576 I-.032 J-.265 E.0054
G1 X73.73 Y29.417 E.27729
G1 X82.029 Y37.01 E.42751
G1 X91.694 Y45.68 E.49347
G1 X100.553 Y53.441 E.44763
G1 X105.286 Y57.467 E.23616
G1 X162.219 Y114.407 E3.06028
G1 X167.32 Y120.238 E.29445
G1 X185.974 Y139.649 E1.02318
G1 X205.378 Y158.296 E1.0228
G1 X211.208 Y163.397 E.29442
G1 X226.031 Y178.219 E.79669
G1 X224.023 Y179.212 E.08514
G1 X220.444 Y181.607 E.16367
G1 X217.251 Y184.408 E.16143
G1 X214.429 Y187.622 E.16256
G1 X212.05 Y191.174 E.16248
G1 X210.573 Y194.157 E.12651
G1 X210.142 Y195.033 E.03711
G1 X208.764 Y199.079 E.16245
G2 X207.95 Y203.321 I92.379 J19.913 E.16418
G1 X208.067 Y204.146 E.03167
G1 X208.022 Y204.805 E.0251
G3 X207.15 Y203.709 I6.347 J-5.949 E.05329
G1 X206.817 Y203.325 E.01932
G1 X204.765 Y201.264 E.11054
G1 X200.481 Y195.474 E.27374
G1 X185.425 Y178.264 E.86906
G1 X166.771 Y158.852 E1.02321
G1 X147.352 Y140.191 E1.02358
G1 X130.127 Y125.122 E.86982
M73 P1 R75
G1 X127.471 Y123.158 E.12555
G1 X127.22 Y121.97 E.04615
G1 X126.101 Y117.866 E.16167
G1 X124.756 Y113.865 E.16043
G1 X123.198 Y110.016 E.15782
G1 X121.443 Y106.356 E.15427
G1 X119.507 Y102.92 E.14989
G1 X117.407 Y99.741 E.1448
G1 X115.164 Y96.85 E.13907
G1 X112.797 Y94.272 E.13302
G1 X110.33 Y92.035 E.12657
G1 X107.782 Y90.159 E.12026
G1 X105.154 Y88.652 E.11514
G1 X102.544 Y87.566 E.10744
G1 X99.901 Y86.877 E.10381
G1 X97.278 Y86.607 E.10022
G1 X94.662 Y86.765 E.09961
G1 X92.159 Y87.348 E.09768
G1 X89.762 Y88.346 E.09868
G1 X87.493 Y89.749 E.10139
G1 X85.4 Y91.518 E.10415
G1 X84.771 Y92.211 E.03557
G1 X76.462 Y83.563 E.4558
G1 X56.958 Y62.692 E1.08568
G1 X49.105 Y54.042 E.44403
G1 X54.744 Y48.403 E.30309
G2 X54.744 Y48.08 I-.212 J-.161 E.01319
G1 X26.796 Y20.132 E1.50218
G1 X40.3 Y6.628 E.72583
G1 X68.248 Y34.576 E1.50218
G2 X68.381 Y34.629 I.161 J-.212 E.00551
M204 S1000
G1 E-1.6 F2100
;WIPE_START
G1 F9600
G1 X68.441 Y34.629 E-.01247
G2 X68.571 Y34.576 I-.032 J-.265 E-.02952
G1 X69.789 Y33.358 E-.35801
;WIPE_END
G1 X95.446 Y56.233 Z.8 F12000
G1 X163.757 Y117.137
G1 Z.2 F720
G1 E2 F1500
M204 S600
;TYPE:Solid infill
;WIDTH:0.50422
G1 F1200
G1 X104.692 Y58.072 E3.204
G1 X100.324 Y54.356 E.21997
G1 X172.018 Y126.051 E3.88909
M204 S1000
G1 E-1.6 F2100
;WIPE_START
G1 F9600
G1 X170.657 Y124.69 E-.4
;WIPE_END
G1 X194.963 Y148.996 Z.8 F12000
G1 X199.565 Y153.597
G1 Z.2 F720
G1 E2 F1500
M204 S600
G1 F1200
G1 X224.169 Y178.201 E1.33465
G1 X223.734 Y178.419 E.01866
G1 X95.127 Y49.811 E6.97636
G3 X89.604 Y44.941 I292.44 J-337.175 E.28244
M73 P2 R75
G1 X223.324 Y178.661 E7.25369
G1 X222.933 Y178.923 E.01805
G1 X83.264 Y39.253 E7.57642
G3 X75.971 Y32.613 I515.795 J-573.795 E.37832
G1 X222.543 Y179.185 E7.95085
G1 X222.153 Y179.447 E.01802
M73 P2 R74
G1 X73.524 Y30.818 E8.06243
G1 X73.198 Y31.144 E.01768
M73 P3 R74
G1 X221.763 Y179.709 E8.05896
G1 X221.372 Y179.971 E.01805
G1 X72.871 Y31.47 E8.05549
G1 X72.545 Y31.796 E.01768
G1 X220.982 Y180.234 E8.05204
G1 X220.592 Y180.496 E.01802
G1 X72.219 Y32.122 E8.04857
G1 X71.892 Y32.448 E.01771
G1 X220.202 Y180.758 E8.04513
G1 X219.821 Y181.029 E.01793
M73 P4 R73
G1 X71.566 Y32.774 E8.04214
G1 X71.239 Y33.1 E.01771
G1 X219.473 Y181.334 E8.041
G1 X219.126 Y181.639 E.01772
G1 X70.913 Y33.426 E8.03987
G1 X70.587 Y33.752 E.01768
G1 X218.779 Y181.944 E8.03873
G1 X218.431 Y182.249 E.01775
M73 P5 R73
G1 X70.26 Y34.078 E8.03759
G1 X69.934 Y34.404 E.01768
M73 P5 R72
G1 X102.554 Y67.024 E1.76948
G3 X103.334 Y67.206 I.159 J1.082 E.03145
G1 X105.022 Y68.876 E.09108
G3 X105.312 Y69.783 I-.768 J.746 E.03785
G1 X218.084 Y182.554 E6.11733
G1 X217.737 Y182.859 E.01772
G1 X105.125 Y70.248 E6.10865
G3 X104.816 Y70.591 I-1.697 J-1.22 E.01774
G1 X217.389 Y183.164 E6.10656
G1 X217.042 Y183.469 E.01772
G1 X104.49 Y70.917 E6.10542
G1 X104.164 Y71.243 E.01768
M73 P6 R72
G1 X216.695 Y183.774 E6.10428
G1 X216.383 Y184.116 E.01776
G1 X103.837 Y71.57 E6.1051
G1 X103.511 Y71.896 E.01768
G1 X216.079 Y184.464 E6.10629
G1 X215.775 Y184.811 E.0177
M73 P6 R71
G1 X103.185 Y72.222 E6.10746
G1 X102.859 Y72.548 E.01768
G1 X215.47 Y185.159 E6.10862
G1 X215.166 Y185.507 E.01772
G1 X102.533 Y72.874 E6.10982
G1 X102.207 Y73.201 E.01771
M73 P7 R71
G1 X214.861 Y185.855 E6.11096
G1 X214.557 Y186.203 E.01772
G1 X101.88 Y73.527 E6.11218
G1 X101.554 Y73.853 E.01768
G1 X214.252 Y186.551 E6.11334
G1 X213.948 Y186.899 E.01772
G1 X101.228 Y74.179 E6.11454
G1 X100.902 Y74.505 E.01768
G1 X213.653 Y187.257 E6.11624
G1 X213.392 Y187.648 E.01803
M73 P7 R70
G1 X100.576 Y74.832 E6.11974
G1 X100.249 Y75.158 E.01771
M73 P8 R70
G1 X213.13 Y188.039 E6.12327
G1 X212.869 Y188.43 E.01803
G1 X99.923 Y75.484 E6.12679
G1 X99.597 Y75.81 E.01768
G1 X212.607 Y188.82 E6.13027
G1 X212.346 Y189.211 E.01803
G1 X99.271 Y76.136 E6.13379
G1 X98.945 Y76.462 E.01768
G1 X212.084 Y189.602 E6.13729
G1 X211.823 Y189.993 E.01803
M73 P9 R70
G1 X98.618 Y76.789 E6.14082
G1 X98.292 Y77.115 E.01768
M73 P9 R69
G1 X211.561 Y190.384 E6.14432
G1 X211.307 Y190.782 E.01811
G1 X97.966 Y77.441 E6.14822
G1 X97.64 Y77.767 E.01768
G1 X211.09 Y191.218 E6.15416
G1 X210.874 Y191.654 E.01866
G1 X116.796 Y97.576 E5.10329
G1 X115.828 Y96.326 E.06064
G1 X113.355 Y93.636 E.14016
G1 X110.891 Y91.403 E.12755
G1 X109.869 Y90.648 E.04874
G1 X97.314 Y78.093 E.68105
G1 X96.988 Y78.42 E.01771
G1 X107.722 Y89.154 E.58227
G1 X106.186 Y88.27 E.06798
G1 X96.661 Y78.746 E.51666
G1 X96.335 Y79.072 E.01768
G1 X104.896 Y87.632 E.46437
G1 X103.783 Y87.173 E.04618
G1 X96.009 Y79.398 E.42173
G1 X95.683 Y79.724 E.01768
G1 X102.685 Y86.726 E.37983
G1 X101.804 Y86.498 E.03491
G1 X95.357 Y80.051 E.34972
G1 X95.03 Y80.377 E.01771
G1 X100.922 Y86.269 E.31961
G1 X100.052 Y86.05 E.03441
G1 X94.704 Y80.703 E.29008
G1 X94.378 Y81.029 E.01768
G1 X99.322 Y85.973 E.26819
G1 X98.592 Y85.896 E.02816
G1 X94.052 Y81.355 E.2463
G1 X93.726 Y81.682 E.01771
G1 X97.862 Y85.818 E.22436
G2 X97.166 Y85.774 I-.546 J3.122 E.0268
M73 P10 R69
G1 X93.399 Y82.008 E.20432
G1 X93.073 Y82.334 E.01768
G1 X96.548 Y85.809 E.1885
G1 X95.931 Y85.844 E.0237
G1 X92.747 Y82.66 E.17272
G1 X92.421 Y82.986 E.01768
G1 X95.313 Y85.878 E.15688
G1 X94.695 Y85.913 E.02374
G1 X92.095 Y83.312 E.14107
G1 X91.769 Y83.639 E.01771
G1 X94.147 Y86.018 E.12902
G1 X93.62 Y86.142 E.02077
G1 X91.442 Y83.965 E.11812
G1 X91.116 Y84.291 E.01768
G1 X93.092 Y86.267 E.10719
G1 X92.565 Y86.392 E.02078
G1 X90.79 Y84.617 E.09629
G1 X90.454 Y84.934 E.01772
G1 X92.037 Y86.517 E.08587
G2 X91.552 Y86.684 I.409 J1.972 E.01973
G1 X89.824 Y84.956 E.09374
M204 S1000
G1 E-1.6 F2100
;WIPE_START
G1 F9600
G1 X91.185 Y86.317 E-.4
;WIPE_END
G1 X102.236 Y67.359 Z.583 F12000
G1 Z.2 F720
G1 E2 F1500
M204 S600
G1 F1200
G1 X69.608 Y34.73 E1.76994
G1 X69.281 Y35.056 E.01771
G1 X101.746 Y67.521 E1.76108
G1 X101.419 Y67.847 E.01771
G1 X68.927 Y35.354 E1.76257
G3 X68.443 Y35.49 I-.599 J-1.202 E.0194
G1 X68.406 Y35.486 E.00143
G1 X101.093 Y68.173 E1.77312
G1 X100.767 Y68.499 E.01768
G1 X40.196 Y7.928 E3.28569
G1 X39.87 Y8.254 E.01768
G1 X100.441 Y68.825 E3.28569
G1 X100.115 Y69.152 E.01771
G1 X39.543 Y8.58 E3.28575
G1 X39.217 Y8.907 E.01771
M73 P10 R68
G1 X99.789 Y69.478 E3.28572
G1 X99.462 Y69.804 E.01771
G1 X38.891 Y9.233 E3.28569
G1 X38.565 Y9.559 E.01768
G1 X99.136 Y70.13 E3.28569
G1 X98.81 Y70.456 E.01768
G1 X38.239 Y9.885 E3.28569
G1 X37.912 Y10.211 E.01771
G1 X98.484 Y70.783 E3.28575
G1 X98.158 Y71.109 E.01768
M73 P11 R68
G1 X37.586 Y10.537 E3.28575
G1 X37.26 Y10.864 E.01771
G1 X97.831 Y71.435 E3.28569
G1 X97.505 Y71.761 E.01768
G1 X36.934 Y11.19 E3.28569
G1 X36.608 Y11.516 E.01768
G1 X97.179 Y72.087 E3.28569
G1 X96.853 Y72.414 E.01771
G1 X36.282 Y11.842 E3.28572
G1 X35.955 Y12.168 E.01771
G1 X96.527 Y72.74 E3.28575
G1 X96.2 Y73.066 E.01771
G1 X35.629 Y12.495 E3.28569
G1 X35.303 Y12.821 E.01768
G1 X95.874 Y73.392 E3.28569
G1 X95.548 Y73.718 E.01768
G1 X34.977 Y13.147 E3.28569
G1 X34.651 Y13.473 E.01768
M73 P11 R67
G1 X79.755 Y58.578 E2.44671
G2 X79.339 Y58.814 I.237 J.903 E.01855
G1 X34.324 Y13.799 E2.44185
G1 X33.998 Y14.126 E.01771
G1 X79.014 Y59.141 E2.44188
G1 X78.689 Y59.469 E.01771
M73 P12 R67
G1 X33.672 Y14.452 E2.44196
G1 X33.346 Y14.778 E.01768
G1 X78.364 Y59.796 E2.44202
G1 X78.039 Y60.123 E.01768
G1 X33.02 Y15.104 E2.44207
G1 X32.693 Y15.43 E.01771
G1 X77.714 Y60.451 E2.44218
G2 X77.487 Y60.876 I.698 J.646 E.01868
G1 X32.367 Y15.756 E2.44755
G1 X32.041 Y16.083 E.01771
G1 X92.612 Y76.654 E3.28569
G1 X92.286 Y76.98 E.01768
G1 X31.715 Y16.409 E3.28569
G1 X31.389 Y16.735 E.01768
G1 X91.96 Y77.306 E3.28569
G1 X91.634 Y77.633 E.01771
G1 X31.062 Y17.061 E3.28575
G1 X30.736 Y17.387 E.01768
G1 X91.308 Y77.959 E3.28575
G1 X90.981 Y78.285 E.01771
G1 X30.41 Y17.714 E3.28569
G1 X30.084 Y18.04 E.01768
G1 X90.655 Y78.611 E3.28569
G1 X90.329 Y78.937 E.01768
M73 P13 R66
G1 X29.758 Y18.366 E3.28569
G1 X29.432 Y18.692 E.01768
G1 X90.003 Y79.263 E3.28569
G1 X89.677 Y79.59 E.01771
G1 X29.105 Y19.018 E3.28575
G1 X28.779 Y19.345 E.01771
G1 X89.351 Y79.916 E3.28572
G1 X89.024 Y80.242 E.01771
G1 X28.453 Y19.671 E3.28569
G1 X28.127 Y19.997 E.01768
G1 X88.698 Y80.568 E3.28569
G1 X88.372 Y80.894 E.01768
G1 X55.652 Y48.174 E1.77491
G3 X55.541 Y48.716 I-1.078 J.062 E.02146
G1 X88.046 Y81.221 E1.76324
G1 X87.72 Y81.547 E.01768
G1 X55.256 Y49.083 E1.76102
G1 X54.93 Y49.409 E.01768
G1 X87.403 Y81.883 E1.76154
G2 X87.201 Y82.333 I.676 J.574 E.01917
G1 X54.604 Y49.736 E1.76824
G1 X54.278 Y50.062 E.01768
G1 X91.091 Y86.875 E1.99693
G1 X90.63 Y87.067 E.01916
G1 X53.952 Y50.388 E1.98964
G1 X53.626 Y50.715 E.01771
G1 X90.169 Y87.258 E1.98229
G1 X89.708 Y87.45 E.01916
M73 P14 R66
G1 X53.299 Y51.041 E1.97502
G1 X52.973 Y51.367 E.01768
G1 X89.273 Y87.667 E1.96911
G1 X88.868 Y87.914 E.0182
G1 X52.647 Y51.694 E1.96479
G1 X52.321 Y52.02 E.01768
G1 X88.463 Y88.162 E1.96054
G1 X88.059 Y88.41 E.01818
G1 X51.995 Y52.346 E1.9563
G1 X51.669 Y52.673 E.01771
G1 X87.654 Y88.657 E1.95199
G1 X87.249 Y88.905 E.01822
M73 P14 R65
G1 X51.343 Y52.999 E1.94773
G1 X51.017 Y53.325 E.01768
G1 X86.869 Y89.177 E1.9448
