; generated by PrusaSlicer 2.9.3 on 2025-10-21 at 14:42:05 UTC


;
;

;
;

;
;

;
;

;
;
; 

; external perimeters extrusion width = 0.45mm
; perimeters extrusion width = 0.45mm
; infill extrusion width = 0.45mm
; solid infill extrusion width = 0.45mm
; top infill extrusion width = 0.42mm
; first layer extrusion width = 0.50mm

M73 P0 R69

EXCLUDE_OBJECT_DEFINE NAME='crysknife(23)_stl' CENTER=127.454,101.542 POLYGON=[[74.773,25.801],[80.078,31.866],[98.719,51.264],[118.116,69.904],[124.181,75.210],[180.920,131.949],[184.955,136.692],[195.650,148.822],[189.766,154.706],[217.781,182.722],[203.497,197.006],[175.482,168.990],[169.193,175.279],[154.151,161.221],[145.266,152.685],[146.206,151.838],[147.954,149.769],[149.319,147.557],[150.287,145.225],[150.849,142.794],[151.001,140.290],[150.741,137.734],[150.070,135.154],[148.995,132.572],[147.527,130.014],[145.681,127.504],[143.473,125.067],[140.924,122.726],[138.061,120.504],[134.909,118.421],[131.500,116.500],[127.866,114.755],[124.043,113.209],[115.976,110.756],[114.662,110.479],[112.590,107.677],[97.543,90.478],[78.902,71.080],[59.505,52.439],[42.305,37.392],[36.399,33.023],[32.685,29.309],[34.238,28.659],[36.150,27.601],[37.538,27.001],[40.953,25.065],[43.162,23.608],[44.421,22.885],[45.809,21.869],[47.902,20.516],[49.716,19.096],[51.328,17.991],[54.619,15.328],[56.169,13.875],[57.500,12.863],[58.779,11.543],[59.216,11.212],[59.621,10.758],[59.719,10.748]]

;TYPE:Custom
G90 ; use absolute coordinates
M83 ; extruder relative mode
M104 S170 ; preheat hotend to 170
M140 S65 ; set bed temp
M190 S65 ; wait for bed temp
G28 ; home all
;G29 ; mesh bed leveling
BED_MESH_CALIBRATE
G0 X0 Z0.6 Y-3.0 F1000.0 ; go outside print area for intro line
M104 S215 ; set hotend temp
M109 S215 ; wait for hotend temp
;M104 S0 ; Stops PS/SS from sending temp waits separately
;M140 S0
;PRINT_START BED=65 HOTEND=215
G92 E0.0
G1 X60.0 E9.0 F1000.0 ; intro line
G1 X100.0 E12.5 F1000.0 ; intro line
G92 E0.0
SKEW_PROFILE LOAD=CaliFlower
G21 ; set units to millimeters
G90 ; use absolute coordinates
M83 ; use relative distances for extrusion
;M900 K0.05 ; Filament gcode



;M142 S36 ; set heatbreak target temp
M107
;LAYER_CHANGE
;Z:0.2
;HEIGHT:0.2
G1 E-2 F2100
G1 Z.8 F720
EXCLUDE_OBJECT_START NAME='crysknife(23)_stl'
G1 X168.498 Y132.567 F12000
G1 Z.2 F720
G1 E2 F1500
M204 S600
;TYPE:Perimeter
;WIDTH:0.499999
G1 F1200
G3 X168.963 Y132.758 I-.02 J.709 E.01953
G1 X170.514 Y134.309 E.08336
G1 X170.684 Y134.588 E.01242
G3 X170.597 Y135.179 I-.802 J.184 E.02323
G1 X163.992 Y141.802 E.3555
G1 X163.792 Y141.969 E.0099
;WIDTH:0.454793
G1 X163.593 Y142.137 E.00892
;WIDTH:0.409587
G1 X163.393 Y142.304 E.00794
;WIDTH:0.364381
G1 X161.843 Y143.855 E.05861
;WIDTH:0.409587
G1 X161.675 Y144.054 E.00794
;WIDTH:0.454793
G1 X161.508 Y144.254 E.00892
;WIDTH:0.499999
G1 X161.34 Y144.453 E.0099
G1 X156.056 Y149.738 E.28404
G3 X155.086 Y149.738 I-.485 J-.519 E.04058
G1 X153.535 Y148.186 E.08339
G3 X153.334 Y147.707 I.622 J-.542 E.02008
G3 X153.567 Y147.184 I.833 J.058 E.02221
G1 X155.618 Y145.133 E.11024
G1 X167.994 Y132.758 E.66517
G3 X168.438 Y132.568 I.484 J.518 E.01873
M204 S1000
G1 X168.51 Y133.029 F12000
M204 S600
;TYPE:External perimeter
G1 F1200
G3 X168.64 Y133.081 I-.032 J.264 E.00538
G1 X170.191 Y134.633 E.08339
G3 X170.191 Y134.956 I-.212 J.161 E.01319
G1 X155.732 Y149.415 E.77716
G3 X155.409 Y149.415 I-.161 J-.212 E.01319
G1 X153.858 Y147.863 E.08339
G3 X153.858 Y147.54 I.212 J-.161 E.01319
G1 X155.942 Y145.456 E.11201
G1 X168.317 Y133.081 E.66514
G3 X168.451 Y133.028 I.161 J.212 E.00555
M204 S1000
G1 E-1.6 F2100
;WIPE_START
G1 F9600
G1 X168.51 Y133.029 E-.01226
G3 X168.64 Y133.081 I-.03 J.265 E-.02944
G1 X169.859 Y134.3 E-.3583
;WIPE_END
G1 X176.979 Y159.653 Z.66 F12000
G1 Z.2 F720
G1 E2 F1500
M204 S600
;TYPE:Perimeter
G1 F1200
G3 X176.48 Y159.462 I-.014 J-.708 E.02082
G1 X162.022 Y145.004 E.7771
G1 X161.828 Y144.616 E.01649
G1 X161.885 Y144.465 E.00613
;WIDTH:0.45676
G1 X161.942 Y144.314 E.00555
;WIDTH:0.413521
G1 X161.999 Y144.162 E.005
;WIDTH:0.370281
G1 X162.07 Y144.082 E.00291
;WIDTH:0.364381
G1 X163.621 Y142.532 E.05861
;WIDTH:0.409587
G1 X163.799 Y142.451 E.00596
;WIDTH:0.454793
G1 X163.977 Y142.37 E.0067
;WIDTH:0.499999
G1 X164.154 Y142.29 E.00738
G1 X164.542 Y142.484 E.01649
G1 X170.211 Y148.153 E.3047
G1 X179 Y156.942 E.4724
G1 X179.165 Y157.207 E.01186
G3 X179.11 Y157.767 I-.802 J.205 E.02182
G3 X177.45 Y159.462 I-29.204 J-26.96 E.09018
G3 X177.039 Y159.65 I-.485 J-.517 E.01748
M204 S1000
G1 X176.933 Y159.191 F12000
M204 S600
;TYPE:External perimeter
G1 F1200
G3 X176.803 Y159.139 I.032 J-.264 E.00538
G1 X162.345 Y144.681 E.7771
G1 X162.281 Y144.551 E.00551
G1 X162.345 Y144.357 E.00776
G1 X163.896 Y142.807 E.08334
G1 X164.09 Y142.742 E.00778
G1 X164.219 Y142.807 E.00549
G1 X169.888 Y148.476 E.3047
G1 X178.677 Y157.265 E.4724
G1 X178.743 Y157.406 E.00592
G3 X178.52 Y157.745 I-.528 J-.105 E.01581
G1 X177.127 Y159.139 E.0749
G3 X176.993 Y159.192 I-.162 J-.212 E.00555
M204 S1000
G1 E-1.6 F2100
;WIPE_START
G1 F9600
G1 X176.933 Y159.191 E-.01247
G3 X176.803 Y159.139 I.03 J-.265 E-.02944
G1 X175.585 Y157.921 E-.35809
;WIPE_END
G1 X175.54 Y167.929 Z.375 F12000
G1 Z.2 F720
G1 E2 F1500
M204 S600
;TYPE:Perimeter
G1 F1200
G2 X175.069 Y168.121 I.014 J.709 E.01977
G1 X169.246 Y173.944 E.31298
G1 X154.742 Y160.389 E.7545
G1 X146.673 Y152.637 E.42527
G1 X146.889 Y152.434 E.01127
G1 X148.657 Y150.341 E.10413
G1 X150.149 Y147.921 E.10805
G1 X151.167 Y145.447 E.10168
G1 X151.737 Y142.981 E.09619
G1 X151.905 Y140.216 E.10528
G1 X151.623 Y137.522 E.10295
G1 X150.943 Y134.911 E.10254
G1 X149.788 Y132.132 E.11438
G1 X148.266 Y129.487 E.11598
G1 X146.404 Y126.957 E.11939
G1 X144.094 Y124.406 E.1308
G1 X141.487 Y122.015 E.13444
G1 X138.568 Y119.751 E.1404
G1 X135.361 Y117.635 E.14603
G1 X131.899 Y115.685 E.15101
G1 X128.213 Y113.917 E.15537
G1 X124.374 Y112.364 E.15739
G1 X116.282 Y109.9 E.32149
G1 X115.208 Y109.668 E.04176
G1 X113.289 Y107.076 E.12257
G1 X98.233 Y89.866 E.86906
G1 X79.544 Y70.419 E1.02509
G1 X60.116 Y51.75 E1.02404
G1 X42.906 Y36.693 E.86909
G1 X36.95 Y32.285 E.28162
G2 X34.666 Y30.059 I-51.672 J50.757 E.12122
G1 X35.094 Y30.002 E.01641
G2 X39.068 Y29.225 I-27.092 J-149.034 E.1539
G1 X43.172 Y27.831 E.16473
G1 X47.06 Y25.916 E.16472
G1 X50.737 Y23.455 E.16816
G1 X53.929 Y20.655 E.16138
G1 X56.794 Y17.399 E.16483
G1 X59.21 Y13.798 E.16481
G1 X59.965 Y12.284 E.0643
G1 X74.006 Y26.325 E.75469
G1 X79.41 Y32.501 E.3119
G1 X98.057 Y51.906 E1.02283
G1 X117.481 Y70.572 E1.02385
G1 X123.658 Y75.977 E.31195
G1 X180.253 Y132.564 E3.04171
G1 X184.271 Y137.289 E.23573
G1 X192.03 Y146.145 E.44749
G1 X194.401 Y148.788 E.13495
G1 X188.896 Y154.293 E.29589
G2 X188.731 Y154.998 I.54 J.498 E.02878
G1 X188.896 Y155.263 E.01186
G1 X216.427 Y182.794 E1.47976
G1 X209.998 Y189.222 E.34553
M73 P1 R68
G1 X203.569 Y195.651 E.34555
G1 X176.038 Y168.121 E1.47974
G2 X175.6 Y167.93 I-.484 J.517 E.01852
M204 S1000
G1 X175.586 Y168.391 F12000
M204 S600
;TYPE:External perimeter
G1 F1200
G2 X175.392 Y168.444 I-.032 J.265 E.00784
G1 X169.256 Y174.579 E.32978
G1 X154.427 Y160.72 E.77142
G1 X146.003 Y152.627 E.44398
G1 X146.54 Y152.139 E.02758
G1 X148.308 Y150.046 E.10413
G1 X149.727 Y147.746 E.10271
G1 X150.722 Y145.344 E.09881
G1 X151.292 Y142.878 E.09619
G1 X151.45 Y140.262 E.09961
G1 X151.18 Y137.637 E.10029
G1 X150.501 Y135.026 E.10253
G1 X149.392 Y132.36 E.10974
G1 X147.897 Y129.758 E.11405
G1 X146.022 Y127.21 E.12023
G1 X143.8 Y124.758 E.12576
G1 X141.207 Y122.376 E.13382
G1 X138.316 Y120.133 E.13907
G1 X135.137 Y118.033 E.1448
G1 X131.701 Y116.097 E.14989
G1 X128.042 Y114.341 E.15425
G1 X124.203 Y112.788 E.15739
G1 X116.149 Y110.337 E.31996
G1 X114.944 Y110.079 E.04684
G1 X112.945 Y107.377 E.12774
G1 X97.889 Y90.167 E.86906
G1 X79.227 Y70.748 E1.02361
G1 X59.815 Y52.094 E1.02321
G1 X42.605 Y37.037 E.86909
G1 X36.652 Y32.632 E.28146
G1 X34.667 Y30.659 E.10637
G2 X33.528 Y29.789 I-8.116 J9.444 E.0545
G1 X33.254 Y29.517 E.01467
G1 X33.912 Y29.473 E.02506
G1 X34.738 Y29.589 E.0317
G1 X35.016 Y29.552 E.01066
G2 X38.978 Y28.777 I-27.077 J-148.906 E.15344
G1 X43.025 Y27.399 E.16248
G1 X46.857 Y25.506 E.16244
G1 X50.436 Y23.111 E.16367
G1 X53.627 Y20.311 E.16135
G1 X56.45 Y17.097 E.16258
G1 X58.83 Y13.544 E.16253
G1 X59.838 Y11.51 E.08628
G1 X74.34 Y26.012 E.77947
G1 X79.74 Y32.185 E.31171
G1 X98.393 Y51.595 E1.02313
G1 X117.798 Y70.243 E1.02286
G1 X123.97 Y75.643 E.31168
G1 X180.589 Y132.254 E3.043
G1 X184.613 Y136.985 E.23605
G1 X192.374 Y145.844 E.44763
G1 X195.03 Y148.805 E.15118
G1 X189.219 Y154.616 E.31234
G2 X189.219 Y154.94 I.201 J.162 E.01331
G1 X217.073 Y182.794 E1.49712
G1 X210.321 Y189.546 E.36291
G1 X203.569 Y196.298 E.36291
G1 X175.715 Y168.444 E1.49712
G2 X175.644 Y168.405 I-.161 J.212 E.00309
M204 S1000
G1 E-1.6 F2100
;WIPE_START
G1 F9600
G1 X175.586 Y168.391 E-.0124
G2 X175.392 Y168.444 I-.032 J.265 E-.04285
G1 X174.219 Y169.617 E-.34475
;WIPE_END
G1 X157.548 Y139.557 Z.8 F12000
G1 X121.255 Y74.117
G1 Z.2 F720
G1 E2 F1500
M204 S600
;TYPE:Solid infill
;WIDTH:0.501633
G1 F1200
G1 X179.974 Y132.836 E3.16737
G1 X183.669 Y137.18 E.21752
G1 X113.224 Y66.735 E3.79988
M204 S1000
G1 E-1.6 F2100
M73 P2 R68
;WIPE_START
G1 F9600
G1 X114.585 Y68.096 E-.4
;WIPE_END
G1 X90.279 Y43.79 Z.8 F12000
G1 X83.248 Y36.759
G1 Z.2 F720
G1 E2 F1500
M204 S600
G1 F1200
G1 X59.858 Y13.369 E1.26168
G1 X59.641 Y13.801 E.01844
G1 X188.179 Y142.339 E6.93349
G2 X193.004 Y147.812 I347.152 J-301.141 E.2783
G1 X59.402 Y14.21 E7.20664
G1 X59.142 Y14.599 E.01785
M73 P2 R67
G1 X193.592 Y149.049 E7.25239
G1 X193.268 Y149.374 E.0175
G1 X58.881 Y14.987 E7.24899
G1 X58.621 Y15.376 E.01785
G1 X192.944 Y149.698 E7.24551
G1 X192.62 Y150.023 E.0175
M73 P3 R67
G1 X58.361 Y15.765 E7.24206
G1 X58.101 Y16.153 E.01781
G1 X192.296 Y150.348 E7.23863
G1 X191.971 Y150.672 E.0175
G1 X57.841 Y16.542 E7.23512
G1 X57.581 Y16.931 E.01785
M73 P3 R66
G1 X191.647 Y150.997 E7.23167
G1 X191.323 Y151.322 E.0175
M73 P4 R66
G1 X57.321 Y17.319 E7.22825
G3 X57.044 Y17.691 I-1.931 J-1.151 E.01772
G1 X190.999 Y151.646 E7.22568
G1 X190.675 Y151.971 E.0175
G1 X56.741 Y18.037 E7.22455
G1 X56.438 Y18.383 E.01754
G1 X190.351 Y152.296 E7.22342
G1 X190.027 Y152.62 E.01748
M73 P5 R66
G1 X56.136 Y18.729 E7.22223
G1 X55.833 Y19.075 E.01754
G1 X189.703 Y152.945 E7.2211
G1 X189.379 Y153.27 E.0175
M73 P5 R65
G1 X171.086 Y134.977 E.98675
G2 X170.798 Y134.043 I-1.1 J-.171 E.03859
G1 X169.103 Y132.366 E.09095
G2 X168.295 Y132.186 I-.633 J.935 E.03233
G1 X55.53 Y19.421 E6.08267
G1 X55.227 Y19.767 E.01754
G1 X167.846 Y132.386 E6.0748
G2 X167.507 Y132.695 I1.278 J1.741 E.01753
G1 X54.925 Y20.113 E6.0728
G1 X54.622 Y20.459 E.01754
M73 P6 R65
G1 X167.183 Y133.019 E6.07164
G1 X166.858 Y133.344 E.01753
G1 X54.319 Y20.805 E6.07048
G1 X53.985 Y21.12 E.01751
G1 X166.534 Y133.668 E6.07099
G1 X166.21 Y133.992 E.01748
G1 X53.64 Y21.423 E6.07213
G1 X53.294 Y21.726 E.01754
M73 P6 R64
G1 X165.885 Y134.317 E6.07329
G1 X165.561 Y134.641 E.01748
M73 P7 R64
G1 X52.949 Y22.029 E6.07442
G1 X52.603 Y22.332 E.01754
G1 X165.237 Y134.966 E6.07561
G1 X164.912 Y135.29 E.0175
G1 X52.258 Y22.635 E6.07671
G1 X51.912 Y22.939 E.01757
G1 X164.588 Y135.614 E6.07784
G1 X164.263 Y135.939 E.01753
G1 X51.567 Y23.242 E6.07898
G1 X51.221 Y23.545 E.01754
G1 X163.939 Y136.263 E6.08014
G1 X163.615 Y136.587 E.01748
M73 P8 R63
G1 X50.867 Y23.84 E6.08173
G1 X50.479 Y24.1 E.01781
G1 X163.29 Y136.912 E6.08518
G1 X162.966 Y137.236 E.01748
G1 X50.09 Y24.36 E6.08866
G1 X49.702 Y24.621 E.01784
G1 X162.642 Y137.56 E6.09208
G1 X162.317 Y137.885 E.01753
G1 X49.313 Y24.881 E6.09556
G1 X48.925 Y25.141 E.01781
M73 P9 R63
G1 X161.993 Y138.209 E6.09902
G1 X161.669 Y138.533 E.01748
G1 X48.536 Y25.401 E6.1025
G1 X48.148 Y25.661 E.01781
G1 X161.344 Y138.858 E6.10595
G1 X161.02 Y139.182 E.01748
M73 P9 R62
G1 X47.759 Y25.922 E6.1094
G1 X47.371 Y26.182 E.01781
G1 X160.696 Y139.507 E6.11288
G1 X160.371 Y139.831 E.0175
M73 P10 R62
G1 X46.94 Y26.4 E6.1186
G1 X46.506 Y26.614 E.01846
G1 X141.166 Y121.274 E5.10607
G1 X141.731 Y121.712 E.02727
G1 X144.39 Y124.152 E.13765
G1 X146.654 Y126.648 E.12853
G1 X146.974 Y127.083 E.0206
G1 X160.047 Y140.155 E.70515
G1 X159.722 Y140.48 E.01753
G1 X148.689 Y129.446 E.59516
G1 X149.568 Y130.974 E.06724
G1 X159.398 Y140.804 E.53024
G1 X159.074 Y141.128 E.01748
G1 X150.308 Y132.363 E.47282
G1 X150.765 Y133.469 E.04564
G1 X158.749 Y141.453 E.43067
G1 X158.425 Y141.777 E.01748
G1 X151.223 Y134.575 E.38848
G3 X151.498 Y135.499 I-4.874 J1.954 E.03682
G1 X158.101 Y142.101 E.35615
G1 X157.776 Y142.426 E.01753
G1 X151.726 Y136.375 E.32637
G1 X151.954 Y137.252 E.03456
G1 X157.452 Y142.75 E.29657
G1 X157.128 Y143.075 E.0175
G1 X152.062 Y138.009 E.27327
G1 X152.139 Y138.735 E.02785
G1 X156.803 Y143.399 E.25158
G1 X156.479 Y143.723 E.01748
G1 X152.216 Y139.46 E.22995
G1 X152.293 Y140.186 E.02785
G1 X156.154 Y144.048 E.20829
G1 X155.83 Y144.372 E.01748
G1 X152.259 Y140.8 E.19265
G1 X152.224 Y141.415 E.0235
G1 X155.506 Y144.696 E.17701
G1 X155.181 Y145.021 E.01753
G1 X152.19 Y142.029 E.16136
G1 X152.155 Y142.643 E.02346
G1 X154.857 Y145.345 E.14575
G1 X154.533 Y145.669 E.01748
G1 X152.081 Y143.217 E.13226
G1 X151.957 Y143.742 E.02058
G1 X154.208 Y145.994 E.12145
G1 X153.884 Y146.318 E.01748
G1 X151.833 Y144.267 E.11063
G1 X151.709 Y144.792 E.02058
G1 X153.56 Y146.642 E.09982
G1 X153.237 Y146.969 E.01753
G1 X151.585 Y145.316 E.08914
G3 X151.442 Y145.822 I-2.333 J-.386 E.0201
G1 X153.168 Y147.549 E.09313
M204 S1000
G1 E-1.6 F2100
;WIPE_START
G1 F9600
G1 X151.807 Y146.188 E-.4
;WIPE_END
G1 X170.739 Y135.279 Z.581 F12000
G1 Z.2 F720
G1 E2 F1500
M204 S600
G1 F1200
G1 X189.055 Y153.594 E.98796
G1 X188.731 Y153.919 E.0175
G1 X170.577 Y135.765 E.97925
G1 X170.253 Y136.09 E.0175
G1 X188.437 Y154.274 E.98087
G2 X188.314 Y154.799 I.815 J.468 E.02086
G1 X169.929 Y136.414 E.99171
G1 X169.604 Y136.739 E.01753
G1 X215.768 Y182.903 E2.49014
G1 X215.444 Y183.227 E.01748
G1 X169.28 Y137.063 E2.49014
G1 X168.956 Y137.387 E.01748
G1 X215.12 Y183.551 E2.49014
G1 X214.795 Y183.876 E.01753
M73 P11 R61
G1 X168.631 Y137.712 E2.49014
G1 X168.307 Y138.036 E.01748
G1 X214.471 Y184.2 E2.49014
G1 X214.147 Y184.524 E.01748
G1 X167.983 Y138.36 E2.49014
G1 X167.658 Y138.685 E.01753
G1 X213.822 Y184.849 E2.49014
G1 X213.498 Y185.173 E.01748
G1 X167.334 Y139.009 E2.49014
G1 X167.01 Y139.333 E.01748
G1 X213.174 Y185.497 E2.49014
G1 X212.849 Y185.822 E.01753
G1 X166.685 Y139.658 E2.49014
G1 X166.361 Y139.982 E.01748
G1 X212.525 Y186.146 E2.49014
G1 X212.2 Y186.47 E.0175
G1 X166.036 Y140.306 E2.49014
G1 X165.712 Y140.631 E.0175
G1 X211.876 Y186.795 E2.49014
G1 X211.552 Y187.119 E.01748
G1 X165.388 Y140.955 E2.49014
G1 X165.063 Y141.28 E.01753
G1 X211.227 Y187.444 E2.49014
G1 X210.903 Y187.768 E.01748
M73 P12 R61
G1 X164.739 Y141.604 E2.49014
G1 X164.415 Y141.928 E.01748
G1 X210.579 Y188.092 E2.49014
G1 X210.254 Y188.417 E.01753
G1 X179.548 Y157.711 E1.65632
G3 X179.316 Y158.127 I-.907 J-.233 E.01837
G1 X209.93 Y188.741 E1.65135
G1 X209.606 Y189.065 E.01748
G1 X178.994 Y158.453 E1.65125
G1 X178.671 Y158.78 E.01753
G1 X209.281 Y189.39 E1.65114
G1 X208.957 Y189.714 E.01748
G1 X178.349 Y159.106 E1.65103
G1 X178.026 Y159.432 E.0175
G1 X208.633 Y190.038 E1.65095
G1 X208.308 Y190.363 E.01753
M73 P12 R60
G1 X177.701 Y159.756 E1.65098
G3 X177.294 Y159.997 I-.778 J-.853 E.01817
G1 X207.984 Y190.687 E1.65545
G1 X207.659 Y191.012 E.01753
G1 X161.495 Y144.847 E2.49017
G1 X161.171 Y145.172 E.0175
G1 X207.335 Y191.336 E2.49014
G1 X207.011 Y191.66 E.01748
G1 X160.847 Y145.496 E2.49014
G1 X160.522 Y145.821 E.01753
G1 X206.686 Y191.985 E2.49014
G1 X206.362 Y192.309 E.01748
G1 X160.198 Y146.145 E2.49014
G1 X159.874 Y146.469 E.01748
G1 X206.038 Y192.633 E2.49014
G1 X205.713 Y192.958 E.01753
M73 P13 R60
G1 X159.549 Y146.794 E2.49014
G1 X159.225 Y147.118 E.01748
G1 X205.389 Y193.282 E2.49014
G1 X205.065 Y193.606 E.01748
G1 X158.901 Y147.442 E2.49014
G1 X158.576 Y147.767 E.01753
G1 X204.74 Y193.931 E2.49014
G1 X204.416 Y194.255 E.01748
G1 X158.252 Y148.091 E2.49014
G1 X157.927 Y148.415 E.0175
