; generated by PrusaSlicer 2.9.3 on 2025-10-21 at 14:40:42 UTC


;
;

;
;

;
;

;
;

;
;
; 

; external perimeters extrusion width = 0.45mm
; perimeters extrusion width = 0.45mm
; infill extrusion width = 0.45mm
; solid infill extrusion width = 0.45mm
; top infill extrusion width = 0.42mm
; first layer extrusion width = 0.50mm

M73 P0 R76

EXCLUDE_OBJECT_DEFINE NAME='crysknife(20)_stl' CENTER=138.606,106.570 POLYGON=[[38.751,22.547],[53.035,8.264],[86.380,31.138],[118.255,59.480],[239.457,180.681],[220.963,207.677],[220.894,207.717],[97.429,95.231],[88.760,86.208],[69.241,65.322],[61.130,56.387]]

;TYPE:Custom
G90 ; use absolute coordinates
M83 ; extruder relative mode
M104 S170 ; preheat hotend to 170
M140 S65 ; set bed temp
M190 S65 ; wait for bed temp
G28 ; home all
;G29 ; mesh bed leveling
BED_MESH_CALIBRATE
G0 X0 Z0.6 Y-3.0 F1000.0 ; go outside print area for intro line
M104 S215 ; set hotend temp
M109 S215 ; wait for hotend temp
;M104 S0 ; Stops PS/SS from sending temp waits separately
;M140 S0
;PRINT_START BED=65 HOTEND=215
G92 E0.0
G1 X60.0 E9.0 F1000.0 ; intro line
G1 X100.0 E12.5 F1000.0 ; intro line
G92 E0.0
SKEW_PROFILE LOAD=CaliFlower
G21 ; set units to millimeters
G90 ; use absolute coordinates
M83 ; use relative distances for extrusion
;M900 K0.05 ; Filament gcode



;M142 S36 ; set heatbreak target temp
M107
;LAYER_CHANGE
;Z:0.2
;HEIGHT:0.2
G1 E-2 F2100
G1 Z.8 F720
EXCLUDE_OBJECT_START NAME='crysknife(20)_stl'
G1 X110.527 Y64.897 F12000
G1 Z.2 F720
G1 E2 F1500
M204 S600
;TYPE:Perimeter
;WIDTH:0.499999
G1 F1200
G3 X110.335 Y65.388 I-.76 J-.014 E.02046
G1 X95.875 Y79.848 E.77721
G3 X94.905 Y79.848 I-.485 J-.515 E.04063
G1 X93.351 Y78.294 E.08353
G3 X93.151 Y77.786 I.637 J-.545 E.02114
G3 X93.351 Y77.324 I.822 J.082 E.01944
G1 X98.637 Y72.038 E.28412
G1 X98.836 Y71.872 E.00985
;WIDTH:0.45396
G1 X99.035 Y71.705 E.00888
;WIDTH:0.40792
G1 X99.234 Y71.538 E.00788
;WIDTH:0.361882
G1 X100.789 Y69.984 E.05831
;WIDTH:0.407921
G1 X100.955 Y69.785 E.00787
;WIDTH:0.45396
G1 X101.122 Y69.586 E.00888
;WIDTH:0.499999
G1 X101.288 Y69.387 E.00985
G1 X107.811 Y62.864 E.3506
G1 X108.07 Y62.702 E.01161
G3 X108.78 Y62.864 I.21 J.714 E.02892
G1 X110.335 Y64.419 E.08358
G1 X110.503 Y64.695 E.01228
G3 X110.525 Y64.837 I-.736 J.188 E.00547
M204 S1000
G1 X110.064 Y64.935 F12000
M204 S600
;TYPE:External perimeter
G1 F1200
G3 X110.011 Y65.065 I-.264 J-.032 E.0054
G1 X95.552 Y79.525 E.77718
G3 X95.229 Y79.525 I-.162 J-.213 E.01319
G1 X93.674 Y77.97 E.08358
G3 X93.674 Y77.647 I.213 J-.161 E.01319
G1 X108.134 Y63.188 E.77718
G3 X108.457 Y63.188 I.162 J.205 E.01324
G1 X110.011 Y64.742 E.08353
G3 X110.064 Y64.875 I-.211 J.161 E.00551
M204 S1000
G1 E-1.6 F2100
;WIPE_START
G1 F9600
G1 X110.064 Y64.935 E-.01247
G3 X110.011 Y65.065 I-.265 J-.032 E-.02952
G1 X108.793 Y66.283 E-.35801
;WIPE_END
G1 X100.754 Y69.362 Z.35 F12000
G1 Z.2 F720
G1 E2 F1500
M204 S600
;TYPE:Perimeter
G1 F1200
G1 X100.749 Y69.377 E.0006
;WIDTH:0.45592
G1 X100.691 Y69.528 E.00555
;WIDTH:0.411841
G1 X100.634 Y69.679 E.00495
;WIDTH:0.367762
G1 X100.563 Y69.759 E.00289
;WIDTH:0.361882
G1 X99.009 Y71.313 E.05829
;WIDTH:0.40792
G1 X98.831 Y71.394 E.00594
;WIDTH:0.45396
G1 X98.654 Y71.475 E.00665
;WIDTH:0.499999
G1 X98.476 Y71.556 E.00743
G1 X98.088 Y71.362 E.01649
G1 X83.629 Y56.903 E.77716
G3 X83.532 Y56.056 I.542 J-.492 E.03459
G1 X85.183 Y54.379 E.08944
G3 X86.153 Y54.379 I.485 J.523 E.04055
G1 X92.419 Y60.646 E.33682
G1 X100.612 Y68.838 E.44034
G1 X100.806 Y69.226 E.01649
G1 X100.776 Y69.305 E.00321
M204 S1000
G1 X100.335 Y69.346 F12000
M204 S600
;TYPE:External perimeter
G1 F1200
G1 X100.289 Y69.484 E.00553
G1 X98.734 Y71.039 E.08358
G1 X98.541 Y71.103 E.00773
G1 X98.411 Y71.039 E.00551
G1 X83.952 Y56.58 E.77716
G3 X83.952 Y56.256 I.212 J-.162 E.01324
G1 X85.507 Y54.702 E.08355
G3 X85.83 Y54.702 I.161 J.212 E.01319
G1 X92.096 Y60.969 E.33682
G1 X100.289 Y69.161 E.44034
G1 X100.353 Y69.289 E.00544
M204 S1000
G1 E-1.6 F2100
;WIPE_START
G1 F9600
G1 X100.335 Y69.346 E-.01242
G1 X100.289 Y69.484 E-.03023
G1 X99.073 Y70.7 E-.35735
;WIPE_END
G1 X82.721 Y40.465 Z.8 F12000
G1 X81.082 Y37.436
G1 Z.2 F720
G1 E2 F1500
M204 S600
;TYPE:Perimeter
G1 F1200
G2 X81.299 Y37.405 I.006 J-.746 E.00836
G1 X81.558 Y37.243 E.01161
G1 X86.408 Y32.393 E.26068
G1 X94.389 Y39.695 E.41113
G1 X104.053 Y48.364 E.49342
G1 X112.923 Y56.135 E.44819
G1 X117.64 Y60.147 E.23535
G1 X174.548 Y117.063 E3.05896
G1 X179.654 Y122.898 E.29469
G1 X198.32 Y142.322 E1.02385
G1 X217.725 Y160.969 E1.02283
G1 X223.56 Y166.074 E.29466
G1 X237.921 Y180.436 E.77192
G1 X236.484 Y181.146 E.06092
G1 X232.806 Y183.607 E.16819
G1 X229.613 Y186.408 E.16143
G1 X226.749 Y189.664 E.16481
G1 X224.334 Y193.263 E.16473
G1 X222.602 Y196.752 E.14804
G1 X222.373 Y197.229 E.02011
G1 X220.979 Y201.333 E.16473
G2 X220.217 Y205.217 I157.991 J33.023 E.15043
G1 X220.144 Y205.736 E.01992
G1 X219.804 Y205.347 E.01964
G1 X217.776 Y203.309 E.10927
G1 X213.489 Y197.517 E.27387
G1 X198.433 Y180.307 E.86906
G1 X179.764 Y160.878 E1.02407
G1 X160.316 Y142.19 E1.02509
G1 X143.062 Y127.099 E.8712
G1 X140.546 Y125.237 E.11896
G1 X140.324 Y124.194 E.04053
G1 X139.198 Y120.064 E.1627
G1 X137.853 Y116.063 E.16043
G1 X136.285 Y112.188 E.15887
G1 X134.518 Y108.501 E.15539
G1 X132.569 Y105.039 E.151
G1 X130.452 Y101.833 E.14602
G1 X128.188 Y98.913 E.14043
G1 X125.797 Y96.306 E.13444
G1 X123.246 Y93.996 E.1308
G1 X120.717 Y92.135 E.11934
G1 X118.071 Y90.612 E.11603
G1 X115.292 Y89.457 E.11438
G1 X112.577 Y88.76 E.10653
G1 X109.988 Y88.495 E.09891
G1 X107.222 Y88.663 E.10532
G1 X104.755 Y89.234 E.09624
G1 X102.713 Y90.072 E.08389
G1 X102.185 Y90.301 E.02187
G1 X99.944 Y91.684 E.10009
G1 X97.768 Y93.512 E.10801
G1 X97.424 Y93.884 E.01926
G1 X89.457 Y85.592 E.43704
G1 X69.958 Y64.726 E1.08541
G1 X62.4 Y56.401 E.42734
G1 X67.73 Y51.07 E.28651
G2 X67.73 Y50.101 I-.517 J-.485 E.04055
G1 X40.106 Y22.476 E1.48479
G1 X52.963 Y9.618 E.69108
G1 X80.588 Y37.243 E1.48482
M73 P0 R75
G2 X81.022 Y37.433 I.5 J-.553 E.01832
M73 P1 R75
M204 S1000
G1 X81.104 Y36.973 F12000
M204 S600
;TYPE:External perimeter
G1 F1200
G2 X81.234 Y36.92 I-.031 J-.265 E.0054
G1 X86.394 Y31.76 E.27734
G1 X94.693 Y39.353 E.42751
G1 X104.358 Y48.024 E.49349
G1 X113.217 Y55.785 E.44763
G1 X117.95 Y59.811 E.23616
G1 X174.882 Y116.751 E3.06025
G1 X179.983 Y122.581 E.29442
G1 X198.637 Y141.992 E1.02318
G1 X218.041 Y160.639 E1.0228
G1 X223.872 Y165.74 E.29445
G1 X238.694 Y180.563 E.79669
G1 X236.686 Y181.556 E.08514
G1 X233.107 Y183.951 E.16367
G1 X229.914 Y186.752 E.16143
G1 X227.092 Y189.966 E.16256
G1 X224.713 Y193.518 E.16248
G1 X223.236 Y196.501 E.12651
G1 X222.805 Y197.376 E.03707
G1 X221.427 Y201.423 E.16248
G2 X220.614 Y205.664 I92.378 J19.912 E.16413
G1 X220.73 Y206.489 E.03166
G1 X220.686 Y207.148 E.0251
G3 X219.814 Y206.053 I6.347 J-5.948 E.05326
G1 X219.48 Y205.669 E.01934
G1 X217.429 Y203.608 E.11051
G1 X213.145 Y197.818 E.27374
G1 X198.089 Y180.608 E.86906
G1 X179.434 Y161.195 E1.02326
G1 X160.015 Y142.534 E1.02358
G1 X142.79 Y127.466 E.86979
G1 X140.135 Y125.502 E.12551
G1 X139.883 Y124.314 E.04616
G1 X138.765 Y120.21 E.16166
G1 X137.419 Y116.208 E.16047
G1 X135.862 Y112.359 E.1578
G1 X134.106 Y108.699 E.15428
G1 X132.17 Y105.263 E.14989
G1 X130.071 Y102.085 E.14475
G1 X127.827 Y99.193 E.13912
G1 X125.461 Y96.616 E.13296
G1 X122.975 Y94.364 E.12749
G1 X120.446 Y92.503 E.11934
G1 X117.843 Y91.008 E.11409
G1 X115.177 Y89.899 E.10974
G1 X112.531 Y89.215 E.10387
G1 X109.941 Y88.95 E.09895
G1 X107.325 Y89.108 E.09961
G1 X104.822 Y89.691 E.09768
G1 X102.425 Y90.69 E.0987
G1 X100.156 Y92.093 E.10139
G1 X98.063 Y93.861 E.10413
G1 X97.435 Y94.554 E.03554
G1 X89.125 Y85.906 E.45583
G1 X69.621 Y65.036 E1.08565
G1 X61.769 Y56.386 E.444
G1 X67.407 Y50.747 E.30306
G2 X67.407 Y50.424 I-.212 J-.162 E.01319
G1 X39.459 Y22.476 E1.50218
G1 X52.963 Y8.972 E.72583
G1 X80.911 Y36.92 E1.50218
G2 X81.044 Y36.973 I.162 J-.212 E.00551
M204 S1000
G1 E-1.6 F2100
;WIPE_START
G1 F9600
G1 X81.104 Y36.973 E-.01247
G2 X81.234 Y36.92 I-.032 J-.265 E-.02952
G1 X82.452 Y35.702 E-.35801
;WIPE_END
G1 X108.109 Y58.577 Z.8 F12000
G1 X176.421 Y119.48
G1 Z.2 F720
G1 E2 F1500
M204 S600
;TYPE:Solid infill
;WIDTH:0.50422
G1 F1200
G1 X117.355 Y60.415 E3.20403
G1 X112.987 Y56.7 E.21995
G1 X184.682 Y128.394 E3.88909
M204 S1000
G1 E-1.6 F2100
;WIPE_START
G1 F9600
G1 X183.321 Y127.033 E-.4
;WIPE_END
G1 X207.627 Y151.339 Z.8 F12000
G1 X212.229 Y155.941
G1 Z.2 F720
G1 E2 F1500
M204 S600
G1 F1200
G1 X236.832 Y180.545 E1.33463
G1 X236.398 Y180.762 E.01861
G1 X107.79 Y52.155 E6.97636
G3 X102.267 Y47.284 I292.448 J-337.184 E.28247
M73 P2 R75
G1 X235.987 Y181.004 E7.25369
G1 X235.597 Y181.266 E.01802
M73 P2 R74
G1 X95.927 Y41.597 E7.57642
G3 X88.635 Y34.957 I515.806 J-573.807 E.37829
G1 X235.207 Y181.529 E7.95085
G1 X234.816 Y181.791 E.01805
G1 X86.188 Y33.162 E8.0624
G1 X85.861 Y33.488 E.01771
M73 P3 R74
G1 X234.426 Y182.053 E8.05896
G1 X234.036 Y182.315 E.01802
G1 X85.535 Y33.814 E8.05549
G1 X85.208 Y34.14 E.01771
G1 X233.646 Y182.577 E8.05204
G1 X233.256 Y182.839 E.01802
M73 P3 R73
G1 X84.882 Y34.466 E8.04857
G1 X84.555 Y34.792 E.01771
G1 X232.865 Y183.101 E8.0451
G1 X232.484 Y183.373 E.01796
M73 P4 R73
G1 X84.229 Y35.118 E8.04214
G1 X83.903 Y35.443 E.01766
G1 X232.137 Y183.678 E8.04103
G1 X231.789 Y183.983 E.01775
G1 X83.576 Y35.769 E8.03989
G1 X83.25 Y36.095 E.01768
G1 X231.442 Y184.288 E8.03875
M73 P4 R72
G1 X231.095 Y184.593 E.01772
M73 P5 R72
G1 X82.923 Y36.421 E8.03764
G1 X82.597 Y36.747 E.01768
G1 X108.141 Y62.292 E1.38567
G3 X108.925 Y62.477 I.163 J1.061 E.03167
G1 X110.614 Y64.148 E.09113
G3 X110.905 Y65.055 I-.768 J.747 E.03786
G1 X230.747 Y184.898 E6.5009
G1 X230.4 Y185.203 E.01772
G1 X110.718 Y65.52 E6.49222
G3 X110.409 Y65.864 I-1.682 J-1.204 E.01777
G1 X230.053 Y185.508 E6.49013
G1 X229.705 Y185.813 E.01775
G1 X110.082 Y66.19 E6.48899
G1 X109.756 Y66.516 E.01768
M73 P6 R72
G1 X229.358 Y186.118 E6.48785
G1 X229.047 Y186.459 E.0177
M73 P6 R71
G1 X109.43 Y66.842 E6.48867
G1 X109.104 Y67.168 E.01768
G1 X228.743 Y186.807 E6.48986
G1 X228.438 Y187.155 E.01775
G1 X108.778 Y67.495 E6.491
G1 X108.451 Y67.821 E.01771
G1 X228.134 Y187.503 E6.49222
G1 X227.829 Y187.851 E.01775
M73 P7 R71
G1 X108.125 Y68.147 E6.49338
G1 X107.799 Y68.473 E.01768
G1 X227.525 Y188.199 E6.49458
G1 X227.22 Y188.547 E.01775
G1 X107.473 Y68.799 E6.49574
G1 X107.147 Y69.126 E.01771
M73 P7 R70
G1 X226.916 Y188.895 E6.49691
G1 X226.611 Y189.243 E.01775
G1 X106.82 Y69.452 E6.4981
G1 X106.494 Y69.778 E.01768
G1 X226.317 Y189.601 E6.49984
G1 X226.055 Y189.991 E.01802
M73 P8 R70
G1 X106.168 Y70.104 E6.50331
G1 X105.842 Y70.43 E.01768
G1 X225.794 Y190.382 E6.50684
G1 X225.532 Y190.773 E.01805
G1 X105.516 Y70.756 E6.51034
G1 X105.19 Y71.083 E.01771
G1 X225.271 Y191.164 E6.51384
G1 X225.009 Y191.555 E.01805
M73 P8 R69
G1 X104.863 Y71.409 E6.51736
G1 X104.537 Y71.735 E.01768
M73 P9 R69
G1 X224.748 Y191.946 E6.52089
G1 X224.486 Y192.337 E.01805
G1 X104.211 Y72.061 E6.52439
G1 X103.885 Y72.387 E.01768
G1 X224.225 Y192.727 E6.52788
G1 X223.97 Y193.125 E.01813
G1 X103.559 Y72.714 E6.53174
G1 X103.232 Y73.04 E.01771
G1 X223.754 Y193.561 E6.53773
G1 X223.537 Y193.997 E.01868
M73 P10 R69
G1 X129.46 Y99.92 E5.10324
G1 X128.491 Y98.67 E.06067
M73 P10 R68
G1 X126.019 Y95.979 E.14016
G1 X123.555 Y93.747 E.12752
G1 X122.532 Y92.992 E.04877
G1 X102.906 Y73.366 E1.06462
G1 X102.58 Y73.692 E.01768
G1 X120.386 Y91.498 E.96589
G1 X118.849 Y90.614 E.06801
G1 X102.254 Y74.018 E.90023
G1 X101.928 Y74.345 E.01771
G1 X117.559 Y89.976 E.84791
G1 X116.447 Y89.516 E.04616
G1 X101.601 Y74.671 E.8053
G1 X101.275 Y74.997 E.01768
G1 X115.348 Y89.07 E.76339
G1 X114.468 Y88.842 E.03487
G1 X100.949 Y75.323 E.73334
G1 X100.623 Y75.649 E.01768
G1 X113.588 Y88.615 E.70332
G1 X112.708 Y88.387 E.03487
G1 X100.297 Y75.975 E.67327
G1 X99.97 Y76.302 E.01774
G1 X111.979 Y88.31 E.65141
G1 X111.252 Y88.235 E.02803
G1 X99.644 Y76.628 E.62965
G1 X99.318 Y76.954 E.01768
G1 X110.524 Y88.16 E.60787
G2 X109.83 Y88.118 I-.541 J3.17 E.02672
G1 X98.992 Y77.28 E.58791
G1 X98.666 Y77.606 E.01768
G1 X109.212 Y88.153 E.5721
G1 X108.594 Y88.187 E.02374
G1 X98.34 Y77.933 E.55623
G1 X98.013 Y78.259 E.01771
G1 X107.976 Y88.222 E.54045
G1 X107.358 Y88.256 E.02374
G1 X97.687 Y78.585 E.52461
G1 X97.361 Y78.911 E.01768
G1 X106.81 Y88.36 E.51256
G1 X106.281 Y88.483 E.02083
G1 X97.035 Y79.237 E.50155
G1 X96.709 Y79.564 E.01771
G1 X105.752 Y88.607 E.49054
G1 X105.222 Y88.73 E.02087
G1 X96.382 Y79.89 E.47953
G1 X96.046 Y80.206 E.01769
G1 X104.693 Y88.853 E.46906
G2 X104.218 Y89.03 I.635 J2.438 E.01948
G1 X95.409 Y80.221 E.47785
M204 S1000
G1 E-1.6 F2100
;WIPE_START
G1 F9600
G1 X96.77 Y81.582 E-.4
;WIPE_END
G1 X107.828 Y62.631 Z.583 F12000
G1 Z.2 F720
G1 E2 F1500
M204 S600
G1 F1200
G1 X82.27 Y37.073 E1.3864
G1 X81.944 Y37.399 E.01768
G1 X107.335 Y62.79 E1.37734
G1 X107.009 Y63.117 E.01771
G1 X81.583 Y37.691 E1.37924
G3 X81.07 Y37.83 I-.501 J-.831 E.02065
G1 X106.683 Y63.443 E1.38939
G1 X106.357 Y63.769 E.01768
G1 X52.859 Y10.272 E2.90199
G1 X52.533 Y10.598 E.01768
G1 X106.031 Y64.095 E2.90199
G1 X105.704 Y64.421 E.01771
G1 X52.207 Y10.924 E2.90196
G1 X51.881 Y11.25 E.01768
M73 P11 R68
G1 X105.378 Y64.748 E2.90199
G1 X105.052 Y65.074 E.01768
G1 X51.555 Y11.576 E2.90199
G1 X51.228 Y11.902 E.01771
G1 X104.726 Y65.4 E2.90202
G1 X104.4 Y65.726 E.01768
G1 X50.902 Y12.229 E2.90199
G1 X50.576 Y12.555 E.01768
G1 X104.073 Y66.052 E2.90196
G1 X103.747 Y66.378 E.01768
M73 P11 R67
G1 X50.25 Y12.881 E2.90196
G1 X49.924 Y13.207 E.01768
G1 X103.421 Y66.705 E2.90199
G1 X103.095 Y67.031 E.01768
G1 X49.597 Y13.533 E2.90202
G1 X49.271 Y13.86 E.01771
G1 X102.769 Y67.357 E2.90199
G1 X102.442 Y67.683 E.01771
G1 X48.945 Y14.186 E2.90196
G1 X48.619 Y14.512 E.01768
G1 X102.116 Y68.009 E2.90196
G1 X101.79 Y68.336 E.01771
G1 X48.293 Y14.838 E2.90199
G1 X47.966 Y15.164 E.01771
M73 P12 R67
G1 X101.464 Y68.662 E2.90202
G1 X101.138 Y68.988 E.01768
G1 X47.64 Y15.491 E2.90199
G1 X47.314 Y15.817 E.01768
G1 X85.344 Y53.847 E2.06295
G2 X84.93 Y54.085 I.255 J.92 E.01851
G1 X46.988 Y16.143 E2.05818
G1 X46.662 Y16.469 E.01768
G1 X84.605 Y54.413 E2.05826
G1 X84.28 Y54.74 E.01768
G1 X46.336 Y16.795 E2.05831
G1 X46.009 Y17.121 E.01771
G1 X83.955 Y55.067 E2.05839
G1 X83.63 Y55.395 E.01771
G1 X45.683 Y17.448 E2.05845
G1 X45.357 Y17.774 E.01768
G1 X83.305 Y55.722 E2.0585
G2 X83.079 Y56.149 I.631 J.607 E.01877
G1 X45.031 Y18.1 E2.06395
G1 X44.705 Y18.426 E.01768
G1 X98.202 Y71.924 E2.90199
G1 X97.876 Y72.25 E.01768
M73 P12 R66
G1 X44.378 Y18.752 E2.90202
G1 X44.052 Y19.079 E.01771
G1 X97.55 Y72.576 E2.90199
G1 X97.223 Y72.902 E.01771
G1 X43.726 Y19.405 E2.90196
G1 X43.4 Y19.731 E.01768
G1 X96.897 Y73.228 E2.90196
G1 X96.571 Y73.555 E.01771
M73 P13 R66
G1 X43.074 Y20.057 E2.90199
G1 X42.747 Y20.383 E.01771
G1 X96.245 Y73.881 E2.90202
G1 X95.919 Y74.207 E.01768
G1 X42.421 Y20.71 E2.90199
G1 X42.095 Y21.036 E.01768
G1 X95.593 Y74.533 E2.90199
G1 X95.266 Y74.859 E.01771
G1 X41.769 Y21.362 E2.90196
G1 X41.443 Y21.688 E.01768
G1 X94.94 Y75.186 E2.90199
G1 X94.614 Y75.512 E.01768
G1 X41.117 Y22.014 E2.90199
G1 X40.79 Y22.34 E.01771
G1 X94.288 Y75.838 E2.90202
G1 X93.962 Y76.164 E.01768
G1 X68.315 Y50.518 E1.3912
G3 X68.201 Y51.056 I-.917 J.085 E.02142
G1 X93.635 Y76.49 E1.37968
G1 X93.309 Y76.817 E.01771
G1 X67.919 Y51.426 E1.37732
G1 X67.593 Y51.752 E.01768
G1 X92.993 Y77.153 E1.37786
G2 X92.79 Y77.602 I.665 J.571 E.01916
G1 X67.267 Y52.079 E1.3845
G1 X66.941 Y52.405 E.01768
G1 X103.756 Y89.221 E1.99707
G1 X103.295 Y89.412 E.01914
G1 X66.615 Y52.731 E1.98975
G1 X66.289 Y53.058 E.01771
M73 P14 R65
G1 X102.833 Y89.602 E1.98234
G1 X102.372 Y89.793 E.01914
G1 X65.963 Y53.384 E1.97502
G1 X65.637 Y53.71 E.01768
G1 X101.937 Y90.011 E1.96913
G1 X101.533 Y90.26 E.0182
G1 X65.311 Y54.037 E1.9649
G1 X64.985 Y54.363 E.01768
G1 X101.13 Y90.508 E1.9607
G1 X100.726 Y90.757 E.0182
G1 X64.658 Y54.69 E1.95649
G1 X64.332 Y55.016 E.01768
G1 X100.322 Y91.006 E1.95229
G1 X99.919 Y91.255 E.01817
G1 X64.006 Y55.342 E1.94811
G1 X63.68 Y55.669 E.01771
G1 X99.528 Y91.516 E1.94456
