; generated by PrusaSlicer 2.9.3 on 2025-10-21 at 13:16:04 UTC


;
;

;
;

;
;

;
;

;
;
; 

; external perimeters extrusion width = 0.45mm
; perimeters extrusion width = 0.45mm
; infill extrusion width = 0.45mm
; solid infill extrusion width = 0.45mm
; top infill extrusion width = 0.42mm
; first layer extrusion width = 0.50mm

M73 P0 R29

EXCLUDE_OBJECT_DEFINE NAME='tension_meter_petg_mk3s_stl' CENTER=96.807,88.440 POLYGON=[[49.159,76.314],[135.989,76.378],[136.810,76.870],[137.386,77.402],[137.612,77.812],[137.694,78.464],[137.801,92.304],[137.779,99.090],[137.695,101.454],[137.377,102.110],[136.825,102.809],[136.268,103.283],[135.608,103.628],[93.089,103.670],[50.067,88.478],[44.903,86.590],[43.164,85.826],[42.513,85.110],[42.255,84.276],[42.236,81.658],[42.343,81.040],[42.551,80.587],[43.050,80.033],[44.304,79.132],[47.573,77.122]]

;TYPE:Custom
G90 ; use absolute coordinates
M83 ; extruder relative mode
M104 S170 ; preheat hotend to 170
M140 S65 ; set bed temp
M190 S65 ; wait for bed temp
G28 ; home all
;G29 ; mesh bed leveling
BED_MESH_CALIBRATE
G0 X0 Z0.6 Y-3.0 F1000.0 ; go outside print area for intro line
M104 S215 ; set hotend temp
M109 S215 ; wait for hotend temp
;M104 S0 ; Stops PS/SS from sending temp waits separately
;M140 S0
;PRINT_START BED=65 HOTEND=215
G92 E0.0
G1 X60.0 E9.0 F1000.0 ; intro line
G1 X100.0 E12.5 F1000.0 ; intro line
G92 E0.0
SKEW_PROFILE LOAD=CaliFlower
G21 ; set units to millimeters
G90 ; use absolute coordinates
M83 ; use relative distances for extrusion
;M900 K0.05 ; Filament gcode



;M142 S36 ; set heatbreak target temp
M107
;LAYER_CHANGE
;Z:0.2
;HEIGHT:0.2
G1 E-2 F2100
G1 Z.8 F720
EXCLUDE_OBJECT_START NAME='tension_meter_petg_mk3s_stl'
G1 X135.82 Y76.577 F12000
G1 Z.2 F720
G1 E2 F1500
M204 S600
;TYPE:External perimeter
;WIDTH:0.4105
G1 F1200
G1 X135.853 Y76.583 E.00103
;WIDTH:0.43808
G1 X135.929 Y76.597 E.00254
G1 X136.713 Y77.058 E.02988
;WIDTH:0.416466
G1 X137.054 Y77.335 E.01365
;WIDTH:0.412595
G1 X137.185 Y77.511 E.00674
;WIDTH:0.44227
G1 X137.315 Y77.686 E.00724
;WIDTH:0.477536
G3 X137.48 Y78.503 I-3.524 J1.137 E.03019
;WIDTH:0.431278
G1 X137.516 Y79.136 E.02047
;WIDTH:0.399536
G1 X137.557 Y80.41 E.0378
;WIDTH:0.38292
G1 X137.583 Y82.667 E.06381
G1 X137.612 Y92.217 E.26999
G3 X137.567 Y100.307 I-433.746 J1.635 E.22872
;WIDTH:0.398562
G1 X137.528 Y101.186 E.02602
;WIDTH:0.43561
G3 X137.191 Y101.971 I-2.344 J-.541 E.02804
;WIDTH:0.428186
G1 X136.705 Y102.594 E.02531
;WIDTH:0.451606
G1 X136.096 Y103.121 E.02737
;WIDTH:0.470772
G1 X135.611 Y103.375 E.01948
G1 X135.472 Y103.408 E.00508
;WIDTH:0.426846
G1 X135.333 Y103.441 E.00456
;WIDTH:0.38292
G1 X93.439 Y103.498 E1.18439
;WIDTH:0.409796
G1 X93.289 Y103.477 E.00462
M73 P0 R28
;WIDTH:0.436672
G1 X93.14 Y103.456 E.00493
;WIDTH:0.438154
G1 X50.326 Y88.338 E1.49217
;WIDTH:0.446126
G1 X47.022 Y87.141 E.11782
;WIDTH:0.465276
G1 X45.02 Y86.386 E.07514
;WIDTH:0.491512
G1 X43.756 Y85.856 E.05112
;WIDTH:0.502338
G3 X43.202 Y85.536 I1.401 J-3.061 E.02448
;WIDTH:0.463293
G1 X43.09 Y85.451 E.00491
;WIDTH:0.424248
G1 X42.746 Y85.094 E.01572
;WIDTH:0.406682
G3 X42.44 Y84.088 I2.423 J-1.288 E.032
;WIDTH:0.387816
G1 X42.39 Y83.152 E.02688
;WIDTH:0.38292
G1 X42.395 Y82.284 E.02454
;WIDTH:0.40278
G1 X42.436 Y81.68 E.01811
;WIDTH:0.420792
G1 X42.546 Y81.102 E.01849
;WIDTH:0.44687
G1 X42.809 Y80.631 E.01812
G1 X43.271 Y80.142 E.0226
;WIDTH:0.43611
G1 X43.78 Y79.776 E.0205
;WIDTH:0.44432
G1 X44.618 Y79.221 E.03355
;WIDTH:0.446034
G1 X46.313 Y78.152 E.06717
;WIDTH:0.455686
G1 X47.817 Y77.243 E.06032
;WIDTH:0.454794
G1 X48.604 Y76.804 E.03086
;WIDTH:0.46494
G1 X49.085 Y76.566 E.01883
G1 X49.225 Y76.534 E.00504
;WIDTH:0.42393
G1 X49.366 Y76.502 E.00458
;WIDTH:0.38292
G1 X135.761 Y76.568 E2.44248
M204 S1000
G1 E-1.6 F2100
M73 P1 R28
;WIPE_START
G1 F9600
G1 X135.82 Y76.577 E-.0124
G1 X135.853 Y76.583 E-.00697
G1 X135.929 Y76.597 E-.01606
G1 X136.713 Y77.058 E-.189
G1 X137.054 Y77.335 E-.0913
G1 X137.185 Y77.511 E-.04559
G1 X137.296 Y77.661 E-.03868
;WIPE_END
G1 X102.978 Y79.617 Z.8 F12000
G1 X45.761 Y82.878
G1 Z.2 F720
G1 E2 F1500
M204 S600
;TYPE:Perimeter
;WIDTH:0.560944
G1 F1200
G1 X93.795 Y82.878 E2.06901
M204 S1000
G1 E-1.6 F2100
;WIPE_START
G1 F9600
G1 X91.87 Y82.878 E-.4
;WIPE_END
G1 X126.243 Y82.694 Z.8 F12000
G1 X133.943 Y82.652
G1 Z.2 F720
G1 E2 F1500
M204 S600
;WIDTH:0.499999
G1 F1200
G1 X133.918 Y83.365 E.02712
G1 X133.92 Y90.741 E.28033
G1 X133.938 Y91.129 E.01476
G1 X133.772 Y90.964 E.0089
G1 X132.588 Y90.911 E.04504
G1 X116.304 Y90.909 E.61889
G2 X114.618 Y90.964 I.082 J28.104 E.06412
G1 X114.312 Y91.056 E.01214
G1 X114.199 Y91.252 E.0086
G1 X114.086 Y91.056 E.0086
G1 X113.772 Y90.964 E.01244
G1 X112.588 Y90.911 E.04504
G1 X96.292 Y90.909 E.61935
G2 X94.618 Y90.964 I.088 J27.933 E.06367
G1 X94.459 Y91.124 E.00857
G1 X94.478 Y90.716 E.01552
G1 X94.481 Y83.594 E.27068
G1 X94.344 Y83.183 E.01647
;WIDTH:0.530472
G1 X94.07 Y83.031 E.0127
;WIDTH:0.560944
G1 X93.795 Y82.878 E.01356
G1 X94.154 Y82.863 E.01548
;WIDTH:0.530472
G1 X94.512 Y82.848 E.01453
;WIDTH:0.499999
G1 X132.078 Y82.848 E1.42774
G2 X133.78 Y82.792 I-.081 J-28.558 E.06473
G1 X133.897 Y82.691 E.00587
M204 S1000
G1 E-1.6 F2100
;WIPE_START
G1 F9600
G1 X133.943 Y82.652 E-.01253
G1 X133.918 Y83.365 E-.14826
G1 X133.918 Y84.516 E-.23921
;WIPE_END
G1 X99.598 Y82.596 Z.8 F12000
G1 X51.011 Y79.878
G1 Z.2 F720
G1 E2 F1500
M204 S600
;WIDTH:0.563776
G1 F1200
G1 X132.574 Y79.88 E3.53244
;WIDTH:0.564478
G1 X132.606 Y79.88 E.00139
;WIDTH:0.590277
G1 X133.19 Y79.893 E.02659
;WIDTH:0.616076
G1 X133.775 Y79.906 E.02789
;WIDTH:0.626618
G1 X133.871 Y79.911 E.00467
M204 S1000
G1 E-1.6 F2100
;WIPE_START
G1 F9600
G1 X133.775 Y79.906 E-.01998
G1 X133.19 Y79.893 E-.1216
G1 X132.606 Y79.88 E-.12139
G1 X132.574 Y79.88 E-.00665
G1 X131.947 Y79.88 E-.13038
;WIPE_END
G1 X133.871 Y82.235 Z.253 F12000
G1 Z.2 F720
G1 E2 F1500
M204 S600
;TYPE:External perimeter
;WIDTH:0.499999
G1 F1200
G1 X133.965 Y82.155 E.00469
G1 X133.968 Y80.649 E.05724
G1 X133.752 Y80.42 E.01196
G1 X132.584 Y80.369 E.04443
G1 X50.524 Y80.366 E3.11879
G1 X50.524 Y79.391 E.03706
M73 P2 R28
G1 X134.375 Y79.391 E3.18686
G1 X134.427 Y80.916 E.05799
;WIDTH:0.499998
G3 X134.375 Y83.365 I-54.818 J.048 E.09311
G1 X134.377 Y90.741 E.28033
G1 X134.426 Y91.736 E.03786
G1 X134.427 Y100.091 E.31754
;WIDTH:0.499728
G1 X134.406 Y100.627 E.02037
;WIDTH:0.480908
G1 X133.992 Y100.627 E.01508
;WIDTH:0.499998
G1 X133.97 Y100.069 E.02122
G1 X133.97 Y91.736 E.31671
;WIDTH:0.499162
G1 X133.969 Y91.649 E.0033
;WIDTH:0.499998
G1 X133.752 Y91.42 E.01199
G1 X132.588 Y91.369 E.04428
G1 X116.304 Y91.366 E.61889
G2 X114.541 Y91.451 I-.135 J15.46 E.06712
G1 X114.427 Y91.649 E.00868
G1 X114.427 Y100.078 E.32035
G1 X114.406 Y100.627 E.02088
;WIDTH:0.481084
G1 X113.992 Y100.627 E.01508
;WIDTH:0.499999
G1 X113.97 Y100.085 E.02062
G1 X113.97 Y91.649 E.32062
G1 X113.856 Y91.451 E.00868
G1 X113.752 Y91.42 E.00412
G1 X112.588 Y91.369 E.04428
G1 X96.3 Y91.366 E.61905
G2 X94.643 Y91.421 I.076 J27.34 E.06302
G1 X94.429 Y91.638 E.01158
;WIDTH:0.498699
G1 X94.428 Y91.713 E.00284
;WIDTH:0.499997
G1 X94.427 Y100.091 E.31842
;WIDTH:0.499664
G1 X94.406 Y100.627 E.02037
;WIDTH:0.480865
G1 X93.992 Y100.627 E.01508
;WIDTH:0.499997
G1 X93.97 Y100.066 E.02134
G1 X93.972 Y91.713 E.31747
;WIDTH:0.498699
G1 X93.976 Y91.616 E.00368
;WIDTH:0.499999
G1 X94.021 Y90.716 E.03425
G1 X94.024 Y83.594 E.27068
G1 X93.978 Y83.457 E.00549
G1 X93.795 Y83.366 E.00777
G1 X45.274 Y83.366 E1.8441
G1 X45.274 Y82.391 E.03706
G1 X132.078 Y82.39 E3.2991
G2 X133.754 Y82.336 I-.072 J-27.849 E.06374
M73 P3 R28
G1 X133.826 Y82.274 E.00361
M204 S1000
G1 E-1.6 F2100
;WIPE_START
G1 F9600
G1 X133.871 Y82.235 E-.01237
G1 X133.965 Y82.155 E-.02565
G1 X133.968 Y80.649 E-.31297
G1 X133.806 Y80.478 E-.04901
;WIPE_END
G1 X133.736 Y83.895 Z.26 F12000
G1 Z.2 F720
G1 E2 F1500
M204 S600
;TYPE:Solid infill
;WIDTH:0.504349
G1 F1200
G1 X133.059 Y83.219 E.03671
G1 X132.418 Y83.23 E.0246
G1 X133.53 Y84.342 E.06034
G1 X133.53 Y84.995 E.02505
G1 X131.771 Y83.236 E.09544
G1 X131.119 Y83.236 E.02502
G1 X133.53 Y85.648 E.13085
G1 X133.53 Y86.3 E.02502
G1 X130.466 Y83.236 E.16625
G1 X129.814 Y83.236 E.02502
G1 X133.53 Y86.953 E.20166
G1 X133.531 Y87.606 E.02505
G1 X129.161 Y83.236 E.23712
G1 X128.508 Y83.236 E.02505
G1 X133.531 Y88.258 E.27252
G1 X133.531 Y88.911 E.02505
G1 X127.856 Y83.236 E.30793
G1 X127.203 Y83.236 E.02505
G1 X133.531 Y89.564 E.34336
G1 X133.531 Y90.216 E.02502
G1 X126.551 Y83.236 E.37874
G1 X125.898 Y83.236 E.02505
G1 X133.212 Y90.55 E.39686
G1 X132.532 Y90.523 E.02611
G1 X125.246 Y83.236 E.39537
G1 X124.593 Y83.236 E.02505
G1 X131.88 Y90.523 E.3954
G1 X131.227 Y90.523 E.02505
G1 X123.941 Y83.236 E.39537
G1 X123.288 Y83.236 E.02505
G1 X130.574 Y90.523 E.39537
G1 X129.922 Y90.523 E.02502
G1 X122.635 Y83.236 E.3954
G1 X121.983 Y83.236 E.02502
G1 X129.269 Y90.522 E.39534
G1 X128.616 Y90.522 E.02505
G1 X121.33 Y83.236 E.39534
G1 X120.678 Y83.236 E.02502
G1 X127.964 Y90.522 E.39534
G1 X127.311 Y90.522 E.02505
G1 X120.025 Y83.236 E.39534
G1 X119.373 Y83.236 E.02502
G1 X126.658 Y90.522 E.39531
G1 X126.006 Y90.522 E.02502
G1 X118.72 Y83.236 E.39534
G1 X118.068 Y83.236 E.02502
G1 X125.353 Y90.522 E.39531
G1 X124.7 Y90.522 E.02505
G1 X117.415 Y83.236 E.39531
G1 X116.762 Y83.236 E.02505
G1 X124.048 Y90.522 E.39534
G1 X123.395 Y90.521 E.02505
G1 X116.11 Y83.236 E.39529
G1 X115.457 Y83.236 E.02505
G1 X122.742 Y90.521 E.39529
G1 X122.09 Y90.521 E.02502
G1 X114.805 Y83.236 E.39529
G1 X114.152 Y83.236 E.02505
G1 X121.437 Y90.521 E.39529
G1 X120.784 Y90.521 E.02505
G1 X113.5 Y83.236 E.39526
G1 X112.847 Y83.236 E.02505
G1 X120.132 Y90.521 E.39529
G1 X119.479 Y90.521 E.02505
M73 P3 R27
G1 X112.194 Y83.236 E.39529
G1 X111.542 Y83.236 E.02502
M73 P4 R27
G1 X118.826 Y90.521 E.39526
G1 X118.174 Y90.521 E.02502
G1 X110.889 Y83.236 E.39529
G1 X110.237 Y83.236 E.02502
G1 X117.521 Y90.52 E.39523
G1 X116.868 Y90.52 E.02505
G1 X109.584 Y83.236 E.39523
G1 X108.932 Y83.236 E.02502
G1 X116.217 Y90.522 E.39531
G1 X115.576 Y90.533 E.0246
G1 X108.279 Y83.236 E.39594
G1 X107.627 Y83.236 E.02502
G1 X114.948 Y90.557 E.39724
G2 X114.355 Y90.617 I-.002 J2.971 E.02291
G1 X106.974 Y83.236 E.4005
G1 X106.321 Y83.236 E.02505
G1 X113.657 Y90.572 E.39806
G1 X112.973 Y90.54 E.02627
G1 X105.669 Y83.236 E.39632
G1 X105.016 Y83.236 E.02505
G1 X112.303 Y90.523 E.3954
G1 X111.65 Y90.523 E.02505
G1 X104.364 Y83.236 E.39537
G1 X103.711 Y83.236 E.02505
G1 X110.998 Y90.523 E.3954
G1 X110.345 Y90.523 E.02505
G1 X103.059 Y83.236 E.39537
G1 X102.406 Y83.236 E.02505
G1 X109.692 Y90.522 E.39534
G1 X109.04 Y90.522 E.02502
G1 X101.754 Y83.236 E.39534
G1 X101.101 Y83.236 E.02505
G1 X108.387 Y90.522 E.39534
G1 X107.734 Y90.522 E.02505
G1 X100.448 Y83.236 E.39534
G1 X99.796 Y83.236 E.02502
G1 X107.082 Y90.522 E.39534
G1 X106.429 Y90.522 E.02505
G1 X99.143 Y83.236 E.39534
G1 X98.491 Y83.236 E.02502
G1 X105.776 Y90.522 E.39531
G1 X105.124 Y90.522 E.02502
G1 X97.838 Y83.236 E.39534
G1 X97.186 Y83.236 E.02502
G1 X104.471 Y90.522 E.39531
G1 X103.818 Y90.521 E.02505
G1 X96.533 Y83.236 E.39529
G1 X95.881 Y83.236 E.02502
G1 X103.166 Y90.521 E.39529
G1 X102.513 Y90.521 E.02505
G1 X95.228 Y83.236 E.39529
G1 X94.759 Y83.236 E.01799
G1 X94.85 Y83.511 E.01111
G1 X101.86 Y90.521 E.38037
G1 X101.208 Y90.521 E.02502
G1 X94.869 Y84.182 E.34396
G1 X94.869 Y84.835 E.02505
G1 X100.555 Y90.521 E.30853
G1 X99.902 Y90.521 E.02505
G1 X94.869 Y85.487 E.27312
G1 X94.868 Y86.139 E.02502
G1 X99.25 Y90.521 E.23777
G1 X98.597 Y90.521 E.02505
G1 X94.868 Y86.792 E.20234
G1 X94.868 Y87.444 E.02502
M73 P5 R27
G1 X97.944 Y90.521 E.16693
G1 X97.292 Y90.52 E.02502
G1 X94.868 Y88.096 E.13153
G1 X94.867 Y88.748 E.02502
G1 X96.639 Y90.52 E.09615
G1 X95.992 Y90.526 E.02483
G1 X94.867 Y89.401 E.06104
G1 X94.867 Y90.053 E.02502
G1 X95.553 Y90.739 E.03722
M204 S1000
M106 S127.5
;LAYER_CHANGE
;Z:0.4
;HEIGHT:0.2
;BEFORE_LAYER_CHANGE
G92 E0.0
;0.4


G1 E-1.6 F2100
;WIPE_START
G1 F9600
G1 X94.867 Y90.053 E-.20161
G1 X94.867 Y89.401 E-.13549
G1 X95.081 Y89.615 E-.0629
;WIPE_END
G1 X95.081 Y89.615 Z.2 F12000
G1 X129.253 Y85.897 Z.8
G1 X137.589 Y84.991 Z.8
;AFTER_LAYER_CHANGE
;0.4
;@SNAPSHOT
M104 S225 ; set temperature
G1 Z.4 F720
G1 E2 F1500
M204 S800
;TYPE:External perimeter
;WIDTH:0.38292
G1 F2355.189
G1 X137.609 Y90.823 E.16488
G1 F2371.269
G1 X137.611 Y91.403 E.0164
G1 F2374.582
G1 X137.612 Y92.304 E.02547
G1 F2366.398
G1 X137.597 Y97.963 E.15999
G1 X137.596 Y98.54 E.01631
G1 F2382.791
G1 X137.596 Y98.561 E.00059
G1 F2361.388
G1 X137.568 Y100.301 E.0492
;WIDTH:0.388078
G1 F2351.537
G1 X137.522 Y101.186 E.02543
;WIDTH:0.435898
G1 F2290.429
G1 X137.405 Y101.589 E.01371
G1 F2323.39
G1 X137.191 Y101.971 E.01431
;WIDTH:0.427968
G1 F2322.502
G1 X136.705 Y102.594 E.0253
;WIDTH:0.448794
G1 F2312.698
G1 X136.099 Y103.118 E.02704
;WIDTH:0.459936
G1 F2300.698
G1 X135.551 Y103.398 E.02134
G1 F2235.026
G1 X135.442 Y103.42 E.00386
;WIDTH:0.421428
G1 F2295.01
G1 X135.333 Y103.441 E.00349
;WIDTH:0.38292
G1 F2356.241
G1 X134.755 Y103.442 E.01634
G1 F2379.272
G1 X94.02 Y103.497 E1.15162
G1 F2359.411
G1 X93.442 Y103.498 E.01634
;WIDTH:0.409801
G1 F2317.646
G1 X93.291 Y103.477 E.00465
;WIDTH:0.436682
G1 F2280.866
G1 X93.14 Y103.456 E.00499
G1 F2324.903
G1 X92.522 Y103.238 E.02146
G1 F2347.786
G1 X51.3 Y88.678 E1.43138
;WIDTH:0.446024
G1 F2339.542
G1 X48.813 Y87.791 E.0885
G1 F2368.755
G1 X47.257 Y87.225 E.0555
;WIDTH:0.445106
G1 F2385.861
G1 X45.074 Y86.418 E.07783
G1 F2370.156
G1 X45.034 Y86.402 E.00144
;WIDTH:0.443848
G1 F2363.738
G1 X43.872 Y85.933 E.04177
;WIDTH:0.438138
G1 F2364.19
G1 X43.278 Y85.624 E.022
;WIDTH:0.437234
G1 F2231.174
G1 X42.895 Y85.25 E.01755
;WIDTH:0.442564
G1 F2221.646
G1 X42.66 Y84.908 E.01379
G1 F2275.986
G1 X42.532 Y84.567 E.0121
;WIDTH:0.441102
G1 F2278.756
G1 X42.44 Y84.105 E.0156
;WIDTH:0.406322
G1 F2330.742
G1 X42.399 Y83.498 E.01838
;WIDTH:0.387998
G1 F2341.281
G1 X42.392 Y82.631 E.02488
;WIDTH:0.385734
G1 F2346.571
G1 X42.418 Y81.927 E.02008
;WIDTH:0.416218
G1 F2192.008
G1 X42.484 Y81.564 E.01145
;WIDTH:0.447058
G1 F2140.131
G1 X42.551 Y81.2 E.01244
;WIDTH:0.458256
G1 F2157.142
G1 X42.789 Y80.69 E.01944
G1 F2293.64
G1 X43.08 Y80.33 E.01599
;WIDTH:0.45556
G1 F2319.193
G1 X43.72 Y79.804 E.02842
;WIDTH:0.46155
G1 F2307.959
G1 X44.327 Y79.392 E.02554
;WIDTH:0.462122
G1 F2306.885
G1 X45.057 Y78.929 E.03013
G1 F2337.199
G1 X45.579 Y78.604 E.02143
;WIDTH:0.452032
G1 F2379.178
G1 X46.759 Y77.882 E.04706
;WIDTH:0.450576
G1 F2369.651
G1 X47.282 Y77.567 E.0207
;WIDTH:0.443614
G1 F2352.603
G1 X48.263 Y76.989 E.03794
;WIDTH:0.449756
G1 F2341.827
G1 X48.371 Y76.929 E.00418
G1 F2340.006
G1 X49.104 Y76.547 E.02796
;WIDTH:0.44783
G1 F2271.443
G1 X49.239 Y76.524 E.00461
;WIDTH:0.415375
G1 F2306.251
G1 X49.374 Y76.502 E.00424
;WIDTH:0.38292
G1 F2365.87
G1 X49.952 Y76.502 E.01634
G1 F2376.386
G1 X135.202 Y76.568 E2.41011
G1 F2364.488
G1 X135.778 Y76.569 E.01628
;WIDTH:0.419797
G1 F2309.051
G1 X135.881 Y76.593 E.00331
;WIDTH:0.456674
G1 F2274.786
G1 X135.985 Y76.618 E.00368
G1 F2338.168
G1 X136.413 Y76.884 E.01734
;WIDTH:0.421499
G1 F2319.794
G1 X136.841 Y77.149 E.01585
;WIDTH:0.386324
G1 F2369.325
G1 X137.158 Y77.447 E.01242
;WIDTH:0.428578
G1 F2275.5
G1 X137.27 Y77.665 E.00786
;WIDTH:0.474236
G1 F2195.061
G1 X137.382 Y77.882 E.00876
G1 F2308.339
G1 X137.456 Y78.322 E.016
;WIDTH:0.455242
G1 F2296.389
G1 X137.514 Y79.056 E.02524
;WIDTH:0.413458
G1 F2321.333
G1 X137.552 Y80.271 E.03745
;WIDTH:0.38292
G1 F2373.379
G1 X137.552 Y80.276 E.00014
G1 F2371.929
G1 X137.569 Y81.301 E.02898
G1 F2362.856
G1 X137.581 Y82.656 E.03831
G1 F2355.189
G1 X137.589 Y84.931 E.06432
M204 S1000
G1 E-1.6 F2100
;WIPE_START
G1 F9600
G1 X137.589 Y84.991 E-.01247
G1 X137.595 Y86.856 E-.38753
;WIPE_END
G1 X133.629 Y82.335 Z.505 F12000
G1 Z.4 F720
G1 E2 F1500
;TYPE:Perimeter
;WIDTH:0.449999
G1 F4079.679
G1 X133.715 Y82.274 E.00357
;WIDTH:0.492747
G1 F3965.748
G1 X133.762 Y82.215 E.00282
;WIDTH:0.535494
G1 F3876.968
G1 X133.81 Y82.156 E.00312
;WIDTH:0.578241
G1 F3790.21
G1 X133.858 Y82.096 E.00342
;WIDTH:0.620988
G1 F3707.259
