; generated by PrusaSlicer 2.9.3 on 2025-10-15 at 17:51:10 UTC

; 

; external perimeters extrusion width = 0.45mm
; perimeters extrusion width = 0.45mm
; infill extrusion width = 0.45mm
; solid infill extrusion width = 0.45mm
; top infill extrusion width = 0.42mm
; first layer extrusion width = 0.50mm

M73 P0 R41

EXCLUDE_OBJECT_DEFINE NAME='frame_stl' CENTER=126.899,103.348 POLYGON=[[154.744,89.064],[155.321,89.179],[155.864,89.404],[156.571,89.929],[156.944,90.383],[157.222,90.902],[157.392,91.465],[157.450,92.050],[157.436,118.244],[157.321,118.821],[156.944,119.617],[156.571,120.071],[155.864,120.596],[155.321,120.821],[154.450,120.950],[146.748,120.950],[145.941,120.840],[145.433,120.647],[144.757,120.194],[140.482,115.735],[139.767,115.345],[138.702,115.150],[116.756,115.199],[115.983,115.453],[115.307,115.906],[111.032,120.365],[110.317,120.755],[109.524,120.938],[101.256,120.936],[100.679,120.821],[99.883,120.444],[99.231,119.853],[98.904,119.364],[98.679,118.821],[98.550,117.950],[98.550,101.476],[97.966,100.341],[97.594,99.923],[97.150,99.580],[96.349,99.227],[94.636,98.975],[93.731,98.503],[93.326,98.130],[92.995,97.690],[92.751,97.196],[92.601,96.666],[92.550,92.050],[92.608,91.465],[92.778,90.902],[93.231,90.147],[93.647,89.731],[94.136,89.404],[94.679,89.179],[95.550,89.050]]

;TYPE:Custom
G90 ; use absolute coordinates
M83 ; extruder relative mode
M104 S170 ; preheat hotend to 170
M140 S65 ; set bed temp
M190 S65 ; wait for bed temp
G28 ; home all
;G29 ; mesh bed leveling
BED_MESH_CALIBRATE
G0 X0 Z0.6 Y-3.0 F1000.0 ; go outside print area for intro line
M104 S215 ; set hotend temp
M109 S215 ; wait for hotend temp
;M104 S0 ; Stops PS/SS from sending temp waits separately
;M140 S0
;PRINT_START BED=65 HOTEND=215
G92 E0.0
G1 X60.0 E9.0 F1000.0 ; intro line
G1 X100.0 E12.5 F1000.0 ; intro line
G92 E0.0
SKEW_PROFILE LOAD=CaliFlower
G21 ; set units to millimeters
G90 ; use absolute coordinates
M83 ; use relative distances for extrusion
M900 K0.05 ; Filament gcode



M142 S36 ; set heatbreak target temp
M107
;LAYER_CHANGE
;Z:0.2
;HEIGHT:0.2
G1 E-2 F2100
G1 Z.8 F720
EXCLUDE_OBJECT_START NAME='frame_stl'
G1 X128.593 Y93.569 F12000
G1 Z.2 F720
G1 E2 F1500
M204 S600
;TYPE:Perimeter
;WIDTH:0.499999
G1 F1200
G1 X128.502 Y93.493 E.00451
G1 X128.268 Y93.214 E.01384
G1 X128.033 Y92.691 E.02179
G1 X127.983 Y92.432 E.01003
G1 X127.983 Y92.068 E.01383
G1 X128.024 Y91.834 E.00903
G1 X128.149 Y91.492 E.01384
G1 X128.268 Y91.286 E.00904
G1 X128.502 Y91.007 E.01384
G1 X128.684 Y90.854 E.00904
G1 X128.999 Y90.672 E.01383
G1 X129.22 Y90.597 E.00887
;WIDTH:0.488003
G1 X129.499 Y90.585 E.01034
;WIDTH:0.447944
G1 X129.778 Y90.573 E.0094
;WIDTH:0.448124
G1 X130.088 Y90.625 E.01059
;WIDTH:0.488362
G1 X130.398 Y90.677 E.01164
;WIDTH:0.499999
G1 X130.716 Y90.854 E.01383
G1 X130.898 Y91.007 E.00904
G1 X131.132 Y91.286 E.01384
G1 X131.251 Y91.492 E.00904
G1 X131.412 Y91.987 E.01978
G1 X131.414 Y92.492 E.01919
G1 X131.251 Y93.008 E.02057
G1 X131.132 Y93.214 E.00904
G1 X130.809 Y93.573 E.01835
;WIDTH:0.487183
G1 X130.396 Y93.819 E.01776
;WIDTH:0.495917
G1 X130.177 Y93.907 E.00889
;WIDTH:0.499999
G1 X129.819 Y93.973 E.01384
G1 X129.581 Y93.973 E.00905
G1 X129.223 Y93.909 E.01382
G1 X128.999 Y93.828 E.00905
G1 X128.684 Y93.646 E.01383
G1 X128.639 Y93.608 E.00224
M204 S1000
G1 X128.886 Y93.221 F12000
M204 S600
;TYPE:External perimeter
G1 F1200
G1 X128.852 Y93.199 E.00154
G1 X128.578 Y92.852 E.0168
G1 X128.44 Y92.432 E.0168
G1 X128.454 Y91.99 E.01681
G1 X128.618 Y91.579 E.01682
G1 X128.913 Y91.25 E.01679
G1 X129.301 Y91.041 E.01675
G1 X129.713 Y90.979 E.01583
G1 X130.172 Y91.068 E.01777
G1 X130.548 Y91.301 E.01681
G1 X130.822 Y91.648 E.0168
G1 X130.96 Y92.068 E.0168
G1 X130.946 Y92.51 E.01681
G1 X130.782 Y92.921 E.01682
G1 X130.487 Y93.25 E.01679
G1 X130.098 Y93.459 E.01678
G1 X129.66 Y93.522 E.01682
G1 X129.228 Y93.432 E.01677
G1 X128.937 Y93.252 E.013
M204 S1000
G1 E-1.6 F2100
;WIPE_START
G1 F9600
G1 X128.886 Y93.221 E-.0124
G1 X128.852 Y93.199 E-.00842
G1 X128.578 Y92.852 E-.09188
G1 X128.44 Y92.432 E-.09187
G1 X128.454 Y91.99 E-.0919
G1 X128.618 Y91.579 E-.09196
G1 X128.655 Y91.538 E-.01157
;WIPE_END
G1 X139.763 Y108.788 Z.558 F12000
G1 Z.2 F720
G1 E2 F1500
M204 S600
G1 F1200
G1 X139.736 Y108.851 E.00261
G1 X137.559 Y110.114 E.09566
;WIDTH:0.534929
G1 X134.547 Y111.873 E.1427
;WIDTH:0.569858
G1 X131.535 Y113.633 E.15285
;WIDTH:0.614721
G1 X131.496 Y113.67 E.00256
;WIDTH:0.659584
G1 X131.456 Y113.708 E.00283
G1 X131.403 Y113.711 E.00272
;WIDTH:0.654947
G1 X131.363 Y113.678 E.00264
;WIDTH:0.612218
G1 X131.323 Y113.646 E.00242
;WIDTH:0.569489
G1 X131.282 Y113.614 E.00228
;WIDTH:0.52676
G1 X123.113 Y108.882 E.37981
;WIDTH:0.499999
G1 X123.012 Y108.761 E.00599
G1 X122.999 Y108.127 E.0241
G1 X122.999 Y99.244 E.33761
G1 X123.059 Y99.089 E.00632
G1 X131.289 Y94.326 E.3614
G1 X131.452 Y94.3 E.00627
G1 X131.938 Y94.569 E.02111
G1 X139.693 Y99.046 E.34033
G1 X139.798 Y99.179 E.00644
G1 X139.807 Y108.684 E.36125
G1 X139.787 Y108.733 E.00201
M204 S1000
G1 E-1.6 F2100
;WIPE_START
G1 F9600
G1 X139.763 Y108.788 E-.01247
G1 X139.736 Y108.851 E-.01424
G1 X138.182 Y109.753 E-.37329
;WIPE_END
G1 X137.912 Y92.25 Z.506 F12000
G1 Z.2 F720
G1 E2 F1500
M204 S600
;TYPE:Perimeter
G1 F1200
G1 X137.904 Y92.563 E.0119
G1 X137.74 Y93.038 E.0191
G1 X137.398 Y93.493 E.02163
G1 X137.216 Y93.646 E.00904
G1 X136.901 Y93.828 E.01383
G1 X136.677 Y93.909 E.00905
G1 X136.319 Y93.973 E.01382
G1 X136.081 Y93.973 E.00905
G1 X135.607 Y93.878 E.01837
G1 X135.184 Y93.646 E.01834
G1 X135.002 Y93.493 E.00904
G1 X134.768 Y93.214 E.01384
G1 X134.649 Y93.008 E.00904
G1 X134.486 Y92.492 E.02057
G1 X134.488 Y91.987 E.01919
G1 X134.649 Y91.492 E.01978
G1 X134.768 Y91.286 E.00904
G1 X135.002 Y91.007 E.01384
G1 X135.184 Y90.854 E.00904
G1 X135.499 Y90.672 E.01383
G1 X135.72 Y90.597 E.00887
;WIDTH:0.487997
G1 X135.999 Y90.585 E.01033
;WIDTH:0.447918
G1 X136.278 Y90.573 E.0094
;WIDTH:0.448095
G1 X136.588 Y90.625 E.01059
;WIDTH:0.488351
G1 X136.898 Y90.677 E.01164
;WIDTH:0.499999
G1 X137.216 Y90.854 E.01383
G1 X137.398 Y91.007 E.00904
G1 X137.632 Y91.286 E.01384
G1 X137.751 Y91.492 E.00904
G1 X137.876 Y91.834 E.01384
G1 X137.917 Y92.068 E.00903
G1 X137.914 Y92.19 E.00464
M204 S1000
G1 X137.454 Y92.25 F12000
M204 S600
;TYPE:External perimeter
G1 F1200
G1 X137.446 Y92.51 E.00989
G1 X137.282 Y92.921 E.01682
G1 X136.987 Y93.25 E.01679
G1 X136.598 Y93.459 E.01678
G1 X136.16 Y93.522 E.01682
G1 X135.728 Y93.432 E.01677
G1 X135.413 Y93.25 E.01383
G1 X135.078 Y92.852 E.01977
G1 X134.94 Y92.432 E.0168
G1 X134.954 Y91.99 E.01681
G1 X135.118 Y91.579 E.01682
G1 X135.413 Y91.25 E.01679
G1 X135.801 Y91.041 E.01675
G1 X136.213 Y90.979 E.01583
G1 X136.672 Y91.068 E.01777
G1 X137.048 Y91.301 E.01681
G1 X137.322 Y91.648 E.0168
G1 X137.46 Y92.068 E.0168
G1 X137.456 Y92.19 E.00464
M204 S1000
G1 E-1.6 F2100
;WIPE_START
G1 F9600
G1 X137.454 Y92.25 E-.01248
G1 X137.446 Y92.51 E-.05406
G1 X137.282 Y92.921 E-.09196
G1 X136.987 Y93.25 E-.09183
G1 X136.598 Y93.459 E-.09177
G1 X136.322 Y93.499 E-.0579
;WIPE_END
G1 X148.633 Y89.624 Z.425 F12000
G1 Z.2 F720
G1 E2 F1500
M204 S600
;WIDTH:0.5461
G1 F1200
G1 X148.951 Y89.601 E.01334
;WIDTH:0.500428
G1 X149.269 Y89.578 E.01213
;WIDTH:0.49943
G1 X149.765 Y89.601 E.01885
;WIDTH:0.544104
G1 X150.26 Y89.623 E.02065
M204 S1000
G1 E-1.6 F2100
;WIPE_START
G1 F9600
G1 X149.765 Y89.601 E-.10297
G1 X149.269 Y89.578 E-.10319
G1 X148.951 Y89.601 E-.06626
G1 X148.633 Y89.624 E-.06626
;WIPE_END
G1 E-.06132 F2100
G1 X153.33 Y120.318 Z.742 F12000
G1 Z.2 F720
G1 E2 F1500
M204 S600
;WIDTH:0.66453
G1 F1200
G1 X153.129 Y120.335 E.01043
;WIDTH:0.630398
G1 X152.927 Y120.352 E.0099
;WIDTH:0.596266
G1 X152.725 Y120.369 E.00933
;WIDTH:0.572912
G1 X152.064 Y120.364 E.02913
;WIDTH:0.57911
G1 X152.012 Y120.36 E.00233
M204 S1000
G1 E-1.6 F2100
;WIPE_START
G1 F9600
G1 X152.064 Y120.364 E-.01084
G1 X152.725 Y120.369 E-.13737
G1 X152.927 Y120.352 E-.04213
G1 X153.129 Y120.335 E-.04213
G1 X153.33 Y120.318 E-.04192
;WIPE_END
G1 E-.12561 F2100
G1 X127.124 Y98.073 Z.8 F12000
G1 X117.218 Y89.664
G1 Z.2 F720
G1 E2 F1500
M204 S600
;WIDTH:0.628566
G1 F1200
G1 X117.527 Y89.645 E.01508
;WIDTH:0.590841
G1 X117.837 Y89.627 E.01415
;WIDTH:0.596216
G1 X118.505 Y89.648 E.03075
;WIDTH:0.605416
G1 X118.559 Y89.653 E.00254
M204 S1000
G1 E-1.6 F2100
;WIPE_START
G1 F9600
G1 X118.505 Y89.648 E-.01127
G1 X117.837 Y89.627 E-.13889
G1 X117.527 Y89.645 E-.06453
G1 X117.218 Y89.664 E-.06434
;WIPE_END
G1 E-.12097 F2100
G1 X107.515 Y91.146 Z.371 F12000
G1 Z.2 F720
G1 E2 F1500
M204 S600
;TYPE:Perimeter
;WIDTH:0.499999
G1 F1200
G1 X107.632 Y91.286 E.00693
G1 X107.751 Y91.492 E.00904
G1 X107.876 Y91.833 E.0138
G1 X107.917 Y92.068 E.00907
G1 X107.898 Y92.591 E.01989
G1 X107.725 Y93.07 E.01936
G1 X107.398 Y93.493 E.02032
G1 X107.216 Y93.646 E.00904
G1 X106.774 Y93.885 E.0191
G1 X106.284 Y93.978 E.01896
G1 X105.723 Y93.909 E.02148
G1 X105.499 Y93.828 E.00905
G1 X105.057 Y93.552 E.0198
G1 X104.705 Y93.127 E.02097
G1 X104.494 Y92.555 E.02317
G1 X104.488 Y91.987 E.02159
G1 X104.649 Y91.492 E.01978
G1 X104.768 Y91.286 E.00904
G1 X105.002 Y91.007 E.01384
G1 X105.184 Y90.854 E.00904
G1 X105.499 Y90.672 E.01383
G1 X105.72 Y90.597 E.00887
;WIDTH:0.488032
G1 X105.999 Y90.585 E.01034
;WIDTH:0.448178
G1 X106.278 Y90.573 E.00941
;WIDTH:0.448401
G1 X106.588 Y90.625 E.0106
;WIDTH:0.488478
G1 X106.898 Y90.677 E.01165
;WIDTH:0.499999
G1 X107.216 Y90.854 E.01383
G1 X107.398 Y91.007 E.00904
G1 X107.477 Y91.1 E.00464
M204 S1000
G1 X107.161 Y91.444 F12000
M204 S600
;TYPE:External perimeter
G1 F1200
G1 X107.322 Y91.648 E.00988
G1 X107.46 Y92.068 E.0168
G1 X107.446 Y92.51 E.01681
G1 X107.282 Y92.921 E.01682
G1 X106.987 Y93.25 E.01679
G1 X106.598 Y93.459 E.01678
G1 X106.228 Y93.524 E.01428
G1 X105.728 Y93.432 E.01932
G1 X105.352 Y93.199 E.01681
G1 X105.078 Y92.852 E.0168
G1 X104.94 Y92.432 E.0168
G1 X104.954 Y91.99 E.01681
G1 X105.118 Y91.579 E.01682
G1 X105.413 Y91.25 E.01679
G1 X105.801 Y91.041 E.01675
G1 X106.213 Y90.979 E.01583
G1 X106.672 Y91.068 E.01777
G1 X107.048 Y91.301 E.01681
G1 X107.124 Y91.397 E.00465
M204 S1000
G1 E-1.6 F2100
;WIPE_START
G1 F9600
G1 X107.161 Y91.444 E-.01243
G1 X107.322 Y91.648 E-.05401
G1 X107.46 Y92.068 E-.09187
G1 X107.446 Y92.51 E-.0919
G1 X107.282 Y92.921 E-.09196
G1 X107.097 Y93.128 E-.05783
;WIPE_END
G1 X101.015 Y91.146 Z.312 F12000
G1 Z.2 F720
G1 E2 F1500
M204 S600
;TYPE:Perimeter
G1 F1200
G1 X101.132 Y91.286 E.00693
G1 X101.251 Y91.492 E.00904
G1 X101.412 Y91.987 E.01978
G1 X101.414 Y92.492 E.01919
G1 X101.251 Y93.008 E.02057
G1 X101.132 Y93.214 E.00904
G1 X100.794 Y93.593 E.0193
G1 X100.315 Y93.87 E.02103
G1 X99.819 Y93.973 E.01925
G1 X99.581 Y93.973 E.00905
G1 X99.062 Y93.86 E.02019
G1 X98.598 Y93.587 E.02046
G1 X98.268 Y93.214 E.01893
G1 X98.149 Y93.008 E.00904
G1 X97.994 Y92.552 E.0183
G1 X97.983 Y92.068 E.0184
G1 X98.024 Y91.834 E.00903
G1 X98.149 Y91.492 E.01384
G1 X98.268 Y91.286 E.00904
G1 X98.502 Y91.007 E.01384
G1 X98.684 Y90.854 E.00904
G1 X98.999 Y90.672 E.01383
G1 X99.22 Y90.597 E.00887
;WIDTH:0.487977
G1 X99.499 Y90.585 E.01033
;WIDTH:0.447946
G1 X99.778 Y90.573 E.0094
;WIDTH:0.448146
G1 X100.088 Y90.625 E.01059
;WIDTH:0.488377
G1 X100.398 Y90.677 E.01164
;WIDTH:0.499999
G1 X100.716 Y90.854 E.01383
G1 X100.898 Y91.007 E.00904
G1 X100.977 Y91.1 E.00464
M204 S1000
G1 X100.661 Y91.444 F12000
M204 S600
;TYPE:External perimeter
G1 F1200
G1 X100.822 Y91.648 E.00988
G1 X100.96 Y92.068 E.0168
G1 X100.946 Y92.51 E.01681
G1 X100.782 Y92.921 E.01682
G1 X100.475 Y93.257 E.0173
G1 X100.098 Y93.459 E.01626
G1 X99.66 Y93.522 E.01682
G1 X99.249 Y93.443 E.01591
G1 X98.852 Y93.199 E.01771
G1 X98.578 Y92.852 E.0168
G1 X98.44 Y92.432 E.0168
G1 X98.454 Y91.99 E.01681
G1 X98.618 Y91.579 E.01682
G1 X98.913 Y91.25 E.01679
G1 X99.301 Y91.041 E.01675
G1 X99.713 Y90.979 E.01583
G1 X100.172 Y91.068 E.01777
G1 X100.548 Y91.301 E.01681
G1 X100.624 Y91.397 E.00465
M204 S1000
G1 E-1.6 F2100
;WIPE_START
G1 F9600
G1 X100.661 Y91.444 E-.01243
G1 X100.822 Y91.648 E-.05401
G1 X100.96 Y92.068 E-.09187
G1 X100.946 Y92.51 E-.0919
G1 X100.782 Y92.921 E-.09196
G1 X100.595 Y93.127 E-.05783
;WIPE_END
G1 X104.05 Y120.405 Z.68 F12000
G1 Z.2 F720
G1 E2 F1500
M204 S600
;WIDTH:0.48472
G1 F1200
G1 X103.403 Y120.421 E.02378
;WIDTH:0.495812
G1 X103.077 Y120.398 E.01231
;WIDTH:0.540958
G1 X102.752 Y120.375 E.01349
M204 S1000
G1 E-1.6 F2100
;WIPE_START
G1 F9600
G1 X103.077 Y120.398 E-.06771
G1 X103.403 Y120.421 E-.06792
G1 X104.05 Y120.405 E-.1345
;WIPE_END
G1 E-.12987 F2100
G1 X137.01 Y110.646 Z.8 F12000
G1 X140.957 Y109.477
G1 Z.2 F720
G1 E2 F1500
M204 S600
;TYPE:Perimeter
;WIDTH:0.499999
G1 F1200
G1 X141.129 Y109.079 E.01648
G1 X141.179 Y108.684 E.01513
G1 X141.179 Y99.459 E.35061
G1 X141.15 Y98.942 E.01968
G1 X141.006 Y98.521 E.01691
G1 X140.699 Y98.101 E.01977
G1 X140.379 Y97.858 E.01527
G1 X135.798 Y95.214 E.20103
;WIDTH:0.540409
G1 X135.665 Y95.113 E.00691
;WIDTH:0.580818
G1 X135.532 Y95.013 E.00744
;WIDTH:0.621227
G1 X135.399 Y94.913 E.008
;WIDTH:0.661636
G1 X135.266 Y94.813 E.00856
G1 X135.43 Y94.828 E.00847
;WIDTH:0.621227
G1 X135.594 Y94.843 E.00792
;WIDTH:0.580818
G1 X135.758 Y94.858 E.00737
;WIDTH:0.540409
G1 X135.922 Y94.873 E.00681
;WIDTH:0.499999
G1 X136.478 Y94.873 E.02113
G1 X136.836 Y94.81 E.01382
G1 X137.358 Y94.62 E.02111
G1 X137.673 Y94.438 E.01383
G1 X138.099 Y94.081 E.02112
G1 X138.332 Y93.802 E.01382
G1 X138.61 Y93.321 E.02111
G1 X138.802 Y92.738 E.02333
G1 X138.831 Y92.068 E.02549
G1 X138.735 Y91.521 E.02111
G1 X138.606 Y91.171 E.01418
G1 X144.748 Y91.171 E.23343
G1 X144.692 Y91.31 E.0057
G1 X144.448 Y92.241 E.03658
G1 X144.386 Y93.202 E.0366
G1 X144.469 Y94.005 E.03068
G1 X144.615 Y94.528 E.02064
G1 X144.805 Y95.072 E.0219
G1 X145.271 Y95.915 E.03661
G1 X145.78 Y96.55 E.03093
G1 X146.222 Y96.943 E.02248
G1 X146.632 Y97.261 E.01972
G1 X147.478 Y97.717 E.03653
G1 X148.394 Y98.005 E.03649
G1 X149.352 Y98.115 E.03665
G1 X150.331 Y98.039 E.03732
G1 X151.257 Y97.783 E.03651
G1 X152.118 Y97.357 E.03651
G1 X152.882 Y96.777 E.03646
G1 X153.512 Y96.077 E.03579
G1 X154.021 Y95.234 E.03743
G1 X154.352 Y94.33 E.03659
;WIDTH:0.545347
G1 X154.406 Y94.173 E.00694
;WIDTH:0.590694
G1 X154.459 Y94.015 E.00759
;WIDTH:0.636042
G1 X154.512 Y93.857 E.00822
;WIDTH:0.681389
G1 X154.566 Y93.7 E.00881
;WIDTH:0.682949
G1 X154.597 Y93.38 E.01711
;WIDTH:0.701271
G1 X154.576 Y92.398 E.05377
;WIDTH:0.721691
G1 X154.469 Y91.79 E.03484
G1 X154.307 Y91.282 E.03009
G1 X154.611 Y91.312 E.01724
G1 X154.965 Y91.5 E.02262
G1 X155.145 Y91.747 E.01725
G1 X155.22 Y92.16 E.02369
;WIDTH:0.718049
G1 X155.237 Y92.72 E.03145
;WIDTH:0.682949
G1 X155.238 Y93.764 E.05556
;WIDTH:0.681389
G1 X155.261 Y93.929 E.00884
;WIDTH:0.636042
G1 X155.283 Y94.094 E.00821
;WIDTH:0.590694
G1 X155.306 Y94.259 E.00759
;WIDTH:0.545347
G1 X155.329 Y94.423 E.00692
;WIDTH:0.499999
G1 X155.329 Y112.904 E.70239
G1 X154.513 Y112.432 E.03583
M73 P0 R40
G1 X153.609 Y112.121 E.03633
G1 X152.733 Y111.988 E.03368
G1 X152.162 Y111.992 E.0217
G1 X151.237 Y112.134 E.03557
G1 X150.336 Y112.456 E.03636
G1 X149.513 Y112.945 E.03638
G1 X148.904 Y113.466 E.03046
G1 X148.568 Y113.87 E.01997
G1 X148.22 Y114.348 E.02247
G1 X147.799 Y115.209 E.03643
G1 X147.551 Y116.135 E.03643
G1 X147.486 Y117.091 E.03642
G1 X147.605 Y118.042 E.03643
G1 X147.857 Y118.83 E.03144
G1 X146.782 Y118.827 E.04086
G1 X146.432 Y118.754 E.01359
G1 X146.062 Y118.499 E.01708
G1 X142.841 Y115.076 E.17864
G1 X142.174 Y114.403 E.03601
G1 X141.62 Y113.946 E.02729
G1 X141.074 Y113.616 E.02425
G1 X140.649 Y113.426 E.01769
G1 X139.938 Y113.184 E.02854
G1 X139.31 Y113.069 E.02426
G1 X138.707 Y113.029 E.02297
G1 X135.254 Y113.029 E.13124
G1 X140.379 Y110.07 E.22492
G1 X140.675 Y109.849 E.01404
G1 X140.93 Y109.541 E.0152
G1 X140.934 Y109.532 E.00037
M204 S1000
G1 E-1.6 F2100
;WIPE_START
G1 F9600
M73 P1 R40
G1 X140.957 Y109.477 E-.01239
G1 X141.129 Y109.079 E-.0901
G1 X141.179 Y108.684 E-.08274
G1 X141.179 Y107.651 E-.21477
;WIPE_END
G1 X134.693 Y94.497 Z.456 F12000
G1 Z.2 F720
G1 E2 F1500
M204 S600
;WIDTH:0.636354
G1 F1200
