; generated by PrusaSlicer 2.9.3 on 2025-10-15 at 17:51:16 UTC

; 

; external perimeters extrusion width = 0.45mm
; perimeters extrusion width = 0.45mm
; infill extrusion width = 0.45mm
; solid infill extrusion width = 0.45mm
; top infill extrusion width = 0.42mm
; first layer extrusion width = 0.50mm

M73 P0 R45

EXCLUDE_OBJECT_DEFINE NAME='lid_stl' CENTER=126.900,106.657 POLYGON=[[109.524,89.062],[110.567,89.353],[111.243,89.806],[115.518,94.265],[116.233,94.655],[117.298,94.850],[138.974,94.838],[139.767,94.655],[140.693,94.094],[144.757,89.806],[145.433,89.353],[145.941,89.160],[146.748,89.050],[154.450,89.050],[155.321,89.179],[156.117,89.556],[156.571,89.929],[157.096,90.636],[157.321,91.179],[157.450,92.050],[157.450,117.950],[157.321,118.821],[156.944,119.617],[156.571,120.071],[155.864,120.596],[155.321,120.821],[154.450,120.950],[95.550,120.950],[94.679,120.821],[93.883,120.444],[93.429,120.071],[92.904,119.364],[92.679,118.821],[92.564,118.244],[92.550,113.883],[92.601,113.334],[92.751,112.804],[92.995,112.310],[93.326,111.870],[94.136,111.237],[94.965,110.940],[96.421,110.754],[96.964,110.529],[97.453,110.202],[98.044,109.550],[98.322,109.031],[98.492,108.468],[98.550,107.883],[98.550,92.050],[98.608,91.465],[98.904,90.636],[99.429,89.929],[99.883,89.556],[100.679,89.179],[101.256,89.064]]

;TYPE:Custom
G90 ; use absolute coordinates
M83 ; extruder relative mode
M104 S170 ; preheat hotend to 170
M140 S65 ; set bed temp
M190 S65 ; wait for bed temp
G28 ; home all
;G29 ; mesh bed leveling
BED_MESH_CALIBRATE
G0 X0 Z0.6 Y-3.0 F1000.0 ; go outside print area for intro line
M104 S215 ; set hotend temp
M109 S215 ; wait for hotend temp
;M104 S0 ; Stops PS/SS from sending temp waits separately
;M140 S0
;PRINT_START BED=65 HOTEND=215
G92 E0.0
G1 X60.0 E9.0 F1000.0 ; intro line
G1 X100.0 E12.5 F1000.0 ; intro line
G92 E0.0
SKEW_PROFILE LOAD=CaliFlower
G21 ; set units to millimeters
G90 ; use absolute coordinates
M83 ; use relative distances for extrusion
M900 K0.05 ; Filament gcode



M142 S36 ; set heatbreak target temp
M107
;LAYER_CHANGE
;Z:0.2
;HEIGHT:0.2
G1 E-2 F2100
G1 Z.8 F720
EXCLUDE_OBJECT_START NAME='lid_stl'
G1 X150.678 Y99.37 F12000
G1 Z.2 F720
G1 E2 F1500
M204 S600
;TYPE:Perimeter
;WIDTH:0.499999
G1 F1200
G1 X151.021 Y99.474 E.01362
G1 X151.569 Y99.797 E.02418
G1 X151.927 Y100.106 E.01797
G1 X152.179 Y100.399 E.01469
G1 X152.421 Y100.777 E.01706
G1 X152.569 Y101.101 E.01354
G1 X152.696 Y101.527 E.01689
G1 X152.771 Y102.142 E.02355
G1 X152.76 Y104.119 E.07514
G1 X152.698 Y104.553 E.01666
G1 X152.581 Y104.958 E.01602
G1 X152.387 Y105.385 E.01783
G1 X152.106 Y105.806 E.01924
G1 X151.687 Y106.221 E.02241
G1 X151.239 Y106.511 E.02028
G1 X151.032 Y106.59 E.00842
;WIDTH:0.473035
G1 X150.825 Y106.668 E.00791
;WIDTH:0.446071
G1 X150.331 Y106.796 E.01711
;WIDTH:0.46527
G1 X150.094 Y106.834 E.00843
;WIDTH:0.499999
G1 X149.857 Y106.871 E.00912
G1 X138.239 Y106.868 E.44156
G1 X138.03 Y106.846 E.00799
;WIDTH:0.45567
G1 X137.821 Y106.824 E.00721
;WIDTH:0.411341
G1 X137.612 Y106.801 E.00644
;WIDTH:0.367012
G1 X137.026 Y106.801 E.01579
;WIDTH:0.411341
G1 X136.854 Y106.823 E.00531
;WIDTH:0.45567
G1 X136.682 Y106.845 E.00595
;WIDTH:0.499999
G1 X136.511 Y106.868 E.00656
G1 X124.573 Y106.864 E.45372
G1 X124.364 Y106.842 E.00799
;WIDTH:0.456307
G1 X124.155 Y106.82 E.00722
;WIDTH:0.412614
G1 X123.946 Y106.799 E.00646
;WIDTH:0.368921
G1 X123.359 Y106.798 E.01591
;WIDTH:0.412614
G1 X123.187 Y106.82 E.00533
;WIDTH:0.456307
G1 X123.015 Y106.842 E.00596
;WIDTH:0.499999
G1 X122.843 Y106.864 E.00659
G1 X110.907 Y106.854 E.45364
;WIDTH:0.486827
G1 X110.099 Y106.672 E.03057
;WIDTH:0.470654
G1 X109.88 Y106.591 E.0083
;WIDTH:0.499999
G1 X109.66 Y106.51 E.00891
G1 X109.12 Y106.143 E.02481
G1 X108.721 Y105.701 E.02263
G1 X108.479 Y105.323 E.01706
G1 X108.242 Y104.754 E.02343
G1 X108.147 Y104.197 E.02148
G1 X108.129 Y103.958 E.00911
G1 X108.129 Y102.142 E.06902
G1 X108.206 Y101.509 E.02424
G1 X108.366 Y100.997 E.02039
G1 X108.646 Y100.492 E.02195
G1 X108.982 Y100.096 E.01974
G1 X109.331 Y99.798 E.01744
G1 X109.747 Y99.539 E.01862
G1 X110.409 Y99.306 E.02667
G1 X110.924 Y99.233 E.01977
G1 X111.816 Y99.229 E.0339
G1 X150.011 Y99.24 E1.45165
G1 X150.433 Y99.296 E.01618
G1 X150.62 Y99.353 E.00743
M204 S1000
G1 X150.548 Y99.807 F12000
M204 S600
G1 F1200
G1 X150.839 Y99.893 E.01153
G1 X151.325 Y100.184 E.02153
G1 X151.581 Y100.404 E.01283
G1 X152.006 Y100.967 E.02681
G1 X152.244 Y101.595 E.02552
G1 X152.314 Y102.142 E.02096
G1 X152.303 Y104.117 E.07506
G1 X152.259 Y104.426 E.01186
G1 X152.142 Y104.832 E.01606
G1 X151.831 Y105.402 E.02468
G1 X151.523 Y105.758 E.01789
G1 X150.995 Y106.124 E.02442
G1 X150.705 Y106.255 E.01209
G1 X150.128 Y106.397 E.02258
G1 X149.468 Y106.414 E.02509
G1 X123.359 Y106.407 E.99231
G1 X110.889 Y106.403 E.47394
G1 X110.588 Y106.363 E.01154
G1 X110.047 Y106.201 E.02146
G1 X109.575 Y105.916 E.02096
G1 X109.319 Y105.696 E.01283
G1 X108.894 Y105.133 E.02681
G1 X108.683 Y104.634 E.02059
G1 X108.586 Y103.958 E.02596
G1 X108.586 Y102.142 E.06902
G1 X108.645 Y101.637 E.01932
G1 X108.843 Y101.06 E.02318
G1 X109.093 Y100.662 E.01786
G1 X109.418 Y100.303 E.0184
G1 X109.905 Y99.976 E.02229
G1 X110.195 Y99.845 E.01209
G1 X110.772 Y99.703 E.02258
G1 X111.816 Y99.686 E.03968
G1 X150.011 Y99.697 E1.45165
G1 X150.312 Y99.737 E.01154
G1 X150.491 Y99.79 E.0071
M204 S1000
G1 X150.418 Y100.247 F12000
M204 S600
G1 F1200
G1 X150.567 Y100.281 E.00581
G1 X151.081 Y100.57 E.02241
G1 X151.486 Y100.996 E.02234
G1 X151.738 Y101.481 E.02077
G1 X151.849 Y102.04 E.02166
G1 X151.846 Y104.114 E.07883
G1 X151.703 Y104.705 E.02311
G1 X151.448 Y105.154 E.01962
G1 X151.131 Y105.495 E.0177
G1 X150.67 Y105.782 E.02064
G1 X150.17 Y105.932 E.01984
G1 X149.468 Y105.957 E.0267
G1 X123.359 Y105.95 E.99231
G1 X110.889 Y105.946 E.47394
M73 P0 R44
G1 X110.333 Y105.819 E.02168
G1 X109.819 Y105.53 E.02241
G1 X109.414 Y105.104 E.02234
G1 X109.162 Y104.619 E.02077
G1 X109.043 Y103.958 E.02553
G1 X109.043 Y102.142 E.06902
G1 X109.084 Y101.765 E.01441
G1 X109.242 Y101.282 E.01931
G1 X109.437 Y100.963 E.01421
G1 X109.819 Y100.571 E.0208
G1 X110.323 Y100.284 E.02204
G1 X110.806 Y100.159 E.01896
G1 X111.816 Y100.143 E.03839
G1 X150.011 Y100.154 E1.45165
G1 X150.359 Y100.233 E.01356
M204 S1000
G1 X150.287 Y100.688 F12000
M204 S600
;TYPE:External perimeter
G1 F1200
G1 X150.508 Y100.749 E.00871
G1 X150.888 Y101.001 E.01733
G1 X151.174 Y101.348 E.01709
G1 X151.341 Y101.732 E.01591
G1 X151.4 Y102.143 E.01578
G1 X151.389 Y104.112 E.07484
G1 X151.236 Y104.64 E.02089
G1 X151.012 Y104.976 E.01535
G1 X150.74 Y105.204 E.01349
G1 X150.449 Y105.378 E.01289
G1 X150.061 Y105.486 E.01531
G1 X149.468 Y105.5 E.02254
G1 X123.359 Y105.493 E.99231
G1 X110.89 Y105.489 E.4739
G1 X110.392 Y105.351 E.01964
G1 X110.012 Y105.099 E.01733
G1 X109.726 Y104.752 E.01709
G1 X109.559 Y104.368 E.01591
G1 X109.5 Y103.958 E.01574
G1 X109.5 Y102.142 E.06902
G1 X109.523 Y101.892 E.00954
G1 X109.642 Y101.504 E.01542
G1 X109.781 Y101.265 E.01051
G1 X110.063 Y100.957 E.01587
G1 X110.451 Y100.722 E.01724
G1 X110.839 Y100.614 E.01531
G1 X111.816 Y100.6 E.03714
G1 X150.01 Y100.611 E1.45161
G1 X150.229 Y100.672 E.00864
M204 S1000
G1 E-1.6 F2100
;WIPE_START
G1 F9600
G1 X150.287 Y100.688 E-.0125
G1 X150.508 Y100.749 E-.04764
G1 X150.888 Y101.001 E-.09476
G1 X151.174 Y101.348 E-.09345
G1 X151.341 Y101.732 E-.08702
G1 X151.385 Y102.04 E-.06463
;WIPE_END
G1 X124.358 Y116.591 Z.736 F12000
G1 Z.2 F720
G1 E2 F1500
M204 S600
;TYPE:Perimeter
G1 F1200
G1 X123.928 Y116.731 E.01719
G1 X123.652 Y116.755 E.01053
G1 X123.23 Y116.699 E.01618
G1 X122.789 Y116.503 E.01834
G1 X122.452 Y116.214 E.01687
G1 X119.576 Y112.953 E.16525
G1 X119.378 Y112.673 E.01303
M73 P1 R44
G1 X119.2 Y112.171 E.02024
G1 X119.183 Y111.744 E.01624
G1 X119.2 Y111.618 E.00483
G1 X119.296 Y111.287 E.0131
G1 X119.576 Y110.836 E.02018
G1 X122.452 Y107.575 E.16525
G1 X122.926 Y107.208 E.02278
G1 X123.138 Y107.174 E.00816
;WIDTH:0.45252
G1 X123.351 Y107.141 E.00734
;WIDTH:0.40504
G1 X123.564 Y107.107 E.00649
;WIDTH:0.396804
G1 X123.78 Y107.121 E.00637
;WIDTH:0.436048
G1 X123.997 Y107.135 E.00711
;WIDTH:0.475291
G1 X124.213 Y107.148 E.00778
;WIDTH:0.499999
G1 X124.504 Y107.245 E.01166
G1 X125.015 Y107.558 E.02277
G1 X125.34 Y107.97 E.01994
G1 X125.497 Y108.382 E.01676
G1 X125.538 Y108.741 E.01373
G1 X125.538 Y115.047 E.23967
G1 X125.513 Y115.33 E.0108
G1 X125.42 Y115.65 E.01267
G1 X125.232 Y115.988 E.0147
G1 X124.927 Y116.305 E.01672
G1 X124.504 Y116.544 E.01847
G1 X124.415 Y116.573 E.00356
M204 S1000
G1 X124.195 Y116.159 F12000
M204 S600
G1 F1200
G1 X124.056 Y116.225 E.00585
G1 X123.652 Y116.298 E.0156
G1 X123.35 Y116.258 E.01158
G1 X123.035 Y116.118 E.0131
G1 X122.795 Y115.912 E.01202
G1 X119.919 Y112.65 E.16528
G1 X119.707 Y112.299 E.01558
G1 X119.633 Y111.894 E.01565
G1 X119.65 Y111.697 E.00752
G1 X119.801 Y111.299 E.01618
G1 X119.919 Y111.139 E.00756
G1 X122.795 Y107.877 E.16528
G1 X123.133 Y107.615 E.01625
G1 X123.586 Y107.492 E.01784
G1 X123.85 Y107.508 E.01005
G1 X124.342 Y107.672 E.01971
G1 X124.707 Y107.896 E.01628
G1 X124.939 Y108.191 E.01426
G1 X125.052 Y108.485 E.01197
G1 X125.081 Y108.741 E.00979
G1 X125.081 Y115.047 E.23967
G1 X124.997 Y115.478 E.01669
G1 X124.863 Y115.719 E.01048
G1 X124.645 Y115.946 E.01196
G1 X124.249 Y116.133 E.01664
M204 S1000
G1 X124.034 Y115.734 F12000
M204 S600
G1 F1200
G1 X123.894 Y115.797 E.00583
G1 X123.652 Y115.841 E.00935
G1 X123.471 Y115.817 E.00694
G1 X123.282 Y115.733 E.00786
G1 X123.138 Y115.609 E.00722
G1 X120.261 Y112.348 E.16528
G1 X120.134 Y112.137 E.00936
G1 X120.1 Y111.776 E.01378
G1 X120.191 Y111.537 E.00972
G1 X120.261 Y111.441 E.00452
G1 X123.138 Y108.18 E.16528
G1 X123.341 Y108.022 E.00978
G1 X123.652 Y107.948 E.01215
G1 X123.894 Y107.992 E.00935
G1 X124.181 Y108.1 E.01165
G1 X124.4 Y108.234 E.00976
G1 X124.539 Y108.411 E.00855
G1 X124.624 Y108.741 E.01295
G1 X124.624 Y115.047 E.23967
G1 X124.573 Y115.306 E.01003
G1 X124.362 Y115.586 E.01333
G1 X124.089 Y115.709 E.01138
M204 S1000
G1 X123.874 Y115.31 F12000
M204 S600
;TYPE:External perimeter
G1 F1200
G1 X123.652 Y115.384 E.00889
G1 X123.48 Y115.307 E.00716
G1 X120.604 Y112.046 E.16525
G1 X120.551 Y111.855 E.00753
G1 X120.604 Y111.743 E.00471
G1 X123.48 Y108.482 E.16525
G1 X123.652 Y108.405 E.00716
G1 X124.019 Y108.528 E.01471
G1 X124.138 Y108.631 E.00598
G1 X124.167 Y108.741 E.00432
G1 X124.167 Y115.047 E.23967
G1 X124.123 Y115.182 E.0054
G1 X124.019 Y115.261 E.00496
G1 X123.931 Y115.291 E.00353
M204 S1000
G1 E-1.6 F2100
;WIPE_START
G1 F9600
G1 X123.874 Y115.31 E-.01249
G1 X123.652 Y115.384 E-.04863
G1 X123.48 Y115.307 E-.03916
G1 X122.526 Y114.225 E-.29972
;WIPE_END
G1 X105.526 Y111.89 Z.5 F12000
G1 Z.2 F720
G1 E2 F1500
M204 S600
;TYPE:Perimeter
G1 F1200
G1 X105.545 Y111.558 E.01264
G1 X105.733 Y111.078 E.01959
G1 X106.316 Y110.375 E.03471
G1 X108.785 Y107.575 E.14188
G1 X109.055 Y107.331 E.01383
G1 X109.283 Y107.196 E.01007
G1 X109.572 Y107.088 E.01173
G1 X109.806 Y107.076 E.00891
;WIDTH:0.470654
G1 X110.04 Y107.064 E.00833
;WIDTH:0.441308
G1 X110.52 Y107.166 E.01626
;WIDTH:0.455506
G1 X110.677 Y107.208 E.00558
;WIDTH:0.486827
G1 X110.835 Y107.251 E.00604
;WIDTH:0.499999
G1 X111.348 Y107.558 E.02272
G1 X111.673 Y107.97 E.01994
G1 X111.83 Y108.382 E.01676
G1 X111.871 Y108.741 E.01373
G1 X111.871 Y115.047 E.23967
G1 X111.846 Y115.33 E.0108
G1 X111.754 Y115.65 E.01265
G1 X111.566 Y115.988 E.0147
G1 X111.26 Y116.305 E.01675
G1 X110.837 Y116.544 E.01847
G1 X110.262 Y116.731 E.02298
G1 X109.985 Y116.755 E.01057
G1 X109.563 Y116.699 E.01618
G1 X109.122 Y116.503 E.01834
G1 X108.785 Y116.214 E.01687
G1 X105.909 Y112.953 E.16525
G1 X105.646 Y112.542 E.01854
G1 X105.517 Y112.05 E.01933
G1 X105.523 Y111.95 E.00381
M204 S1000
G1 X105.98 Y111.889 F12000
M204 S600
G1 F1200
G1 X105.998 Y111.626 E.01002
G1 X106.126 Y111.311 E.01292
G1 X106.659 Y110.677 E.03148
G1 X109.128 Y107.877 E.14188
G1 X109.321 Y107.703 E.00988
G1 X109.69 Y107.529 E.01551
G1 X110.025 Y107.491 E.01281
G1 X110.376 Y107.559 E.01359
G1 X110.675 Y107.672 E.01215
G1 X111.041 Y107.896 E.01631
G1 X111.273 Y108.191 E.01426
G1 X111.385 Y108.485 E.01196
G1 X111.414 Y108.741 E.00979
G1 X111.414 Y115.047 E.23967
G1 X111.33 Y115.478 E.01669
G1 X111.196 Y115.719 E.01048
G1 X110.978 Y115.946 E.01196
G1 X110.389 Y116.225 E.02477
G1 X109.985 Y116.298 E.0156
G1 X109.683 Y116.258 E.01158
G1 X109.369 Y116.118 E.01307
G1 X109.128 Y115.912 E.01205
G1 X106.252 Y112.65 E.16528
G1 X106.064 Y112.357 E.01323
G1 X105.972 Y112.006 E.01379
G1 X105.976 Y111.949 E.00217
M204 S1000
G1 X106.433 Y111.904 F12000
M204 S600
G1 F1200
G1 X106.425 Y111.845 E.00226
G1 X106.519 Y111.545 E.01195
G1 X109.471 Y108.18 E.17013
G1 X109.684 Y108.017 E.01019
G1 X110.009 Y107.948 E.01263
G1 X110.22 Y107.989 E.00817
G1 X110.514 Y108.1 E.01194
G1 X110.733 Y108.234 E.00976
G1 X110.872 Y108.411 E.00855
G1 X110.957 Y108.741 E.01295
G1 X110.957 Y115.047 E.23967
G1 X110.907 Y115.306 E.01003
G1 X110.695 Y115.586 E.01335
G1 X110.228 Y115.797 E.01948
G1 X109.985 Y115.841 E.00939
G1 X109.804 Y115.817 E.00694
G1 X109.615 Y115.733 E.00786
G1 X109.471 Y115.609 E.00722
G1 X106.595 Y112.348 E.16525
G1 X106.461 Y112.118 E.01012
G1 X106.441 Y111.963 E.00594
M204 S1000
G1 X106.894 Y111.915 F12000
M204 S600
;TYPE:External perimeter
G1 F1200
G1 X106.881 Y111.878 E.00149
G1 X106.938 Y111.743 E.00557
G1 X109.814 Y108.482 E.16525
G1 X109.958 Y108.406 E.00619
G1 X110.063 Y108.418 E.00402
G1 X110.425 Y108.572 E.01495
G1 X110.5 Y108.741 E.00703
G1 X110.5 Y115.047 E.23967
G1 X110.456 Y115.182 E.0054
G1 X110.352 Y115.261 E.00496
G1 X109.985 Y115.384 E.01471
G1 X109.814 Y115.307 E.00713
G1 X106.938 Y112.046 E.16525
G1 X106.913 Y111.972 E.00297
M204 S1000
G1 E-1.6 F2100
;WIPE_START
G1 F9600
G1 X106.894 Y111.915 E-.01249
G1 X106.881 Y111.878 E-.00815
G1 X106.938 Y111.743 E-.03045
G1 X108.048 Y110.484 E-.34891
;WIPE_END
G1 X138.025 Y116.591 Z.734 F12000
G1 Z.2 F720
G1 E2 F1500
M204 S600
;TYPE:Perimeter
G1 F1200
G1 X137.595 Y116.731 E.01719
G1 X137.318 Y116.755 E.01057
G1 X136.896 Y116.699 E.01618
G1 X136.455 Y116.503 E.01834
G1 X136.119 Y116.214 E.01684
G1 X133.242 Y112.953 E.16528
G1 X132.946 Y112.461 E.02182
G1 X132.845 Y111.99 E.01831
G1 X132.891 Y111.505 E.01852
G1 X133.077 Y111.061 E.0183
G1 X133.242 Y110.836 E.0106
G1 X136.119 Y107.575 E.16528
G1 X136.592 Y107.208 E.02275
G1 X136.805 Y107.174 E.0082
;WIDTH:0.451887
G1 X137.018 Y107.141 E.00733
;WIDTH:0.403775
G1 X137.231 Y107.108 E.00647
;WIDTH:0.395378
G1 X137.447 Y107.122 E.00634
;WIDTH:0.435094
G1 X137.663 Y107.135 E.00706
;WIDTH:0.47481
G1 X137.88 Y107.148 E.00781
;WIDTH:0.499999
G1 X138.17 Y107.245 E.01162
G1 X138.682 Y107.558 E.02281
G1 X139.007 Y107.97 E.01994
G1 X139.164 Y108.382 E.01676
G1 X139.205 Y108.741 E.01373
G1 X139.205 Y114.622 E.22351
G1 X139.179 Y115.33 E.02693
G1 X139.087 Y115.65 E.01265
G1 X138.899 Y115.988 E.0147
G1 X138.594 Y116.305 E.01672
G1 X138.17 Y116.544 E.0185
G1 X138.082 Y116.573 E.00352
M204 S1000
G1 X137.862 Y116.159 F12000
M204 S600
G1 F1200
G1 X137.722 Y116.225 E.00588
G1 X137.318 Y116.298 E.0156
G1 X137.017 Y116.258 E.01154
G1 X136.702 Y116.118 E.0131
G1 X136.461 Y115.912 E.01205
G1 X133.585 Y112.65 E.16528
G1 X133.374 Y112.299 E.01557
G1 X133.3 Y111.894 E.01565
G1 X133.334 Y111.617 E.01061
G1 X133.467 Y111.299 E.0131
G1 X133.585 Y111.139 E.00756
G1 X136.461 Y107.877 E.16528
G1 X136.8 Y107.615 E.01628
G1 X137.253 Y107.492 E.01784
G1 X137.516 Y107.508 E.01001
G1 X138.009 Y107.672 E.01975
G1 X138.374 Y107.896 E.01628
G1 X138.606 Y108.191 E.01426
G1 X138.718 Y108.485 E.01196
G1 X138.747 Y108.741 E.00979
G1 X138.747 Y114.622 E.22351
G1 X138.73 Y115.249 E.02384
G1 X138.663 Y115.478 E.00907
G1 X138.529 Y115.719 E.01048
G1 X138.311 Y115.946 E.01196
G1 X137.916 Y116.133 E.01661
M204 S1000
G1 X137.701 Y115.734 F12000
M204 S600
G1 F1200
G1 X137.561 Y115.797 E.00583
G1 X137.318 Y115.841 E.00939
G1 X137.137 Y115.817 E.00694
G1 X136.949 Y115.733 E.00783
G1 X136.804 Y115.609 E.00725
G1 X133.928 Y112.348 E.16525
G1 X133.801 Y112.137 E.00936
G1 X133.76 Y111.83 E.01177
