; generated by PrusaSlicer 2.9.3 on 2025-10-15 at 17:51:18 UTC

; 

; external perimeters extrusion width = 0.45mm
; perimeters extrusion width = 0.45mm
; infill extrusion width = 0.45mm
; solid infill extrusion width = 0.45mm
; top infill extrusion width = 0.42mm
; first layer extrusion width = 0.50mm

M73 P0 R105

EXCLUDE_OBJECT_DEFINE NAME='midplate_left_stl' CENTER=121.011,104.496 POLYGON=[[132.834,74.950],[145.340,87.456],[164.540,87.456],[164.540,92.456],[144.340,92.456],[144.340,100.156],[145.340,101.156],[145.340,104.156],[144.340,105.156],[144.340,112.856],[164.540,112.856],[164.540,117.856],[149.996,117.856],[132.434,135.436],[105.894,135.449],[105.876,133.034],[86.371,103.904],[85.754,102.456],[85.476,100.907],[85.551,99.335],[85.976,97.819],[86.443,96.878],[87.394,95.624],[105.449,76.678],[105.436,74.950],[105.833,74.550],[132.434,74.550]]

;TYPE:Custom
G90 ; use absolute coordinates
M83 ; extruder relative mode
M104 S170 ; preheat hotend to 170
M140 S65 ; set bed temp
M190 S65 ; wait for bed temp
G28 ; home all
;G29 ; mesh bed leveling
BED_MESH_CALIBRATE
G0 X0 Z0.6 Y-3.0 F1000.0 ; go outside print area for intro line
M104 S215 ; set hotend temp
M109 S215 ; wait for hotend temp
;M104 S0 ; Stops PS/SS from sending temp waits separately
;M140 S0
;PRINT_START BED=65 HOTEND=215
G92 E0.0
G1 X60.0 E9.0 F1000.0 ; intro line
G1 X100.0 E12.5 F1000.0 ; intro line
G92 E0.0
SKEW_PROFILE LOAD=CaliFlower
G21 ; set units to millimeters
G90 ; use absolute coordinates
M83 ; use relative distances for extrusion
M900 K0.05 ; Filament gcode



M142 S36 ; set heatbreak target temp
M107
;LAYER_CHANGE
;Z:0.2
;HEIGHT:0.2
G1 E-2 F2100
G1 Z.8 F720
EXCLUDE_OBJECT_START NAME='midplate_left_stl'
G1 X123.098 Y102.327 F12000
G1 Z.2 F720
G1 E2 F1500
M204 S600
;TYPE:Perimeter
;WIDTH:0.499999
G1 F1200
G1 X123.047 Y102.478 E.00606
G1 X122.693 Y103.262 E.03269
G1 X122.237 Y103.952 E.03143
G1 X121.915 Y104.381 E.02039
G1 X121.19 Y105.061 E.03778
G1 X120.936 Y105.253 E.0121
G1 X120.202 Y105.702 E.0327
G1 X119.756 Y105.898 E.01852
G1 X119.106 Y106.135 E.02629
G1 X118.15 Y106.311 E.03694
G1 X117.628 Y106.358 E.01992
G1 X116.769 Y106.315 E.03269
G1 X115.979 Y106.146 E.0307
G1 X115.419 Y105.99 E.02209
G1 X114.545 Y105.572 E.03682
G1 X114.273 Y105.406 E.01211
G1 X113.587 Y104.887 E.03269
G1 X113.353 Y104.67 E.01213
G1 X112.784 Y104.025 E.03269
G1 X112.596 Y103.763 E.01226
G1 X112.168 Y103.021 E.03256
G1 X112.004 Y102.634 E.01597
G1 X111.763 Y101.915 E.02882
G1 X111.651 Y101.277 E.02462
G1 X111.585 Y100.75 E.02019
G1 X111.615 Y99.92 E.03157
G1 X111.661 Y99.417 E.0192
G1 X111.982 Y98.275 E.04509
G1 X112.359 Y97.525 E.0319
G1 X112.611 Y97.101 E.01875
G1 X113.148 Y96.428 E.03272
G1 X113.874 Y95.778 E.03704
G1 X114.293 Y95.468 E.01981
G1 X115.049 Y95.056 E.03272
G1 X115.896 Y94.762 E.03408
G1 X116.475 Y94.616 E.02269
G1 X117.313 Y94.531 E.03201
G1 X117.996 Y94.545 E.02596
G1 X119.204 Y94.775 E.04674
G1 X120.336 Y95.249 E.04664
G1 X121.112 Y95.77 E.03552
G1 X121.416 Y96.016 E.01486
G1 X122.017 Y96.632 E.03271
G1 X122.215 Y96.881 E.01209
G1 X122.682 Y97.604 E.03271
G1 X123.002 Y98.332 E.03022
G1 X123.186 Y98.818 E.01975
G1 X123.339 Y99.623 E.03114
G1 X123.402 Y100.12 E.01904
G1 X123.38 Y101.021 E.03425
G1 X123.34 Y101.337 E.01211
G1 X123.149 Y102.176 E.0327
G1 X123.117 Y102.27 E.00377
M204 S1000
G1 X122.658 Y102.179 F12000
M204 S600
G1 F1200
G1 X122.277 Y103.074 E.03697
G1 X121.866 Y103.685 E.02799
G1 X121.51 Y104.141 E.02199
G1 X120.879 Y104.726 E.0327
G1 X119.963 Y105.312 E.04133
G1 X118.95 Y105.705 E.0413
G1 X118.082 Y105.859 E.0335
G1 X117.651 Y105.901 E.01646
G1 X116.791 Y105.858 E.03273
G1 X116.092 Y105.703 E.02721
G1 X115.589 Y105.565 E.01982
G1 X114.743 Y105.161 E.03563
G1 X113.863 Y104.522 E.04133
G1 X113.127 Y103.722 E.04132
G1 X112.611 Y102.874 E.03773
G1 X112.438 Y102.489 E.01604
G1 X112.196 Y101.769 E.02887
G1 X112.038 Y100.693 E.04133
G1 X112.071 Y99.954 E.02811
G1 X112.135 Y99.39 E.02157
G1 X112.37 Y98.555 E.03297
G1 X112.765 Y97.733 E.03466
G1 X112.969 Y97.386 E.0153
G1 X113.505 Y96.713 E.0327
G1 X114.168 Y96.128 E.0336
G1 X114.511 Y95.869 E.01634
G1 X115.267 Y95.457 E.03272
G1 X116.03 Y95.198 E.03062
G1 X116.521 Y95.07 E.01928
G1 X117.359 Y94.986 E.03201
G1 X117.975 Y95.002 E.02342
G1 X118.616 Y95.117 E.02475
G1 X119.151 Y95.237 E.02084
G1 X120.003 Y95.595 E.03512
G1 X120.854 Y96.148 E.03857
G1 X121.088 Y96.335 E.01138
G1 X121.689 Y96.951 E.03271
G1 X122.298 Y97.852 E.04133
G1 X122.576 Y98.499 E.02676
G1 X122.773 Y99.046 E.0221
G1 X122.889 Y99.702 E.02532
G1 X122.945 Y100.149 E.01712
G1 X122.923 Y101.009 E.0327
G1 X122.703 Y102.074 E.04133
G1 X122.682 Y102.124 E.00206
M204 S1000
G1 X122.23 Y102.035 F12000
M204 S600
G1 F1200
G1 X121.86 Y102.886 E.03527
G1 X121.495 Y103.418 E.02452
G1 X121.199 Y103.806 E.01855
G1 X120.568 Y104.391 E.0327
G1 X119.725 Y104.922 E.03787
G1 X118.793 Y105.276 E.03789
G1 X118.014 Y105.407 E.03002
G1 X117.674 Y105.445 E.013
G1 X116.814 Y105.402 E.03273
G1 X116.204 Y105.26 E.0238
G1 X115.717 Y105.122 E.01924
G1 X114.937 Y104.747 E.03289
G1 X114.139 Y104.158 E.0377
G1 X113.469 Y103.42 E.03788
G1 X113.007 Y102.646 E.03426
G1 X112.871 Y102.343 E.01262
G1 X112.629 Y101.623 E.02887
G1 X112.492 Y100.636 E.03787
G1 X112.527 Y99.989 E.02463
G1 X112.597 Y99.435 E.02122
G1 X112.81 Y98.679 E.02985
G1 X113.172 Y97.942 E.03121
G1 X113.326 Y97.671 E.01185
G1 X113.863 Y96.998 E.03272
G1 X114.462 Y96.478 E.03015
G1 X114.73 Y96.27 E.01289
G1 X115.486 Y95.859 E.0327
G1 X116.165 Y95.635 E.02717
G1 X116.567 Y95.525 E.01584
G1 X117.405 Y95.44 E.03201
G1 X117.954 Y95.458 E.02088
G1 X119.027 Y95.679 E.04164
G1 X119.826 Y96.016 E.03296
G1 X120.597 Y96.525 E.03511
G1 X121.362 Y97.27 E.04058
G1 X121.914 Y98.1 E.03788
G1 X122.325 Y99.137 E.0424
G1 X122.488 Y100.138 E.03855
G1 X122.466 Y100.998 E.0327
G1 X122.258 Y101.972 E.03785
G1 X122.254 Y101.98 E.00034
M204 S1000
G1 X121.803 Y101.892 F12000
M204 S600
;TYPE:External perimeter
G1 F1200
G1 X121.444 Y102.698 E.03353
G1 X120.888 Y103.471 E.03619
G1 X120.257 Y104.056 E.0327
G1 X119.487 Y104.532 E.03441
G1 X118.637 Y104.846 E.03444
G1 X117.697 Y104.988 E.03613
G1 X116.837 Y104.945 E.03273
G1 X115.915 Y104.71 E.03616
G1 X115.138 Y104.336 E.03277
G1 X114.415 Y103.794 E.03434
G1 X113.812 Y103.117 E.03446
G1 X113.403 Y102.417 E.03081
G1 X113.304 Y102.197 E.00917
G1 X113.062 Y101.478 E.02883
G1 X112.945 Y100.58 E.03442
G1 X112.983 Y100.023 E.02122
G1 X113.037 Y99.559 E.01775
G1 X113.25 Y98.803 E.02985
G1 X113.683 Y97.956 E.03615
G1 X114.22 Y97.283 E.03272
G1 X114.949 Y96.672 E.03615
G1 X115.704 Y96.26 E.03269
G1 X116.613 Y95.98 E.03615
G1 X117.451 Y95.895 E.03201
G1 X117.963 Y95.918 E.01948
G1 X118.812 Y96.09 E.03292
G1 X119.648 Y96.437 E.0344
G1 X120.339 Y96.903 E.03168
G1 X121.035 Y97.589 E.03714
G1 X121.53 Y98.348 E.03444
G1 X121.725 Y98.833 E.01987
G1 X121.894 Y99.328 E.01988
G1 X122.027 Y100.081 E.02906
G1 X122.009 Y100.986 E.0344
G1 X121.82 Y101.835 E.03306
M204 S1000
G1 E-1.6 F2100
;WIPE_START
G1 F9600
G1 X121.803 Y101.892 E-.01236
G1 X121.444 Y102.698 E-.18336
G1 X120.888 Y103.471 E-.19788
G1 X120.865 Y103.492 E-.0064
;WIPE_END
G1 X110.135 Y126.747 Z.647 F12000
G1 Z.2 F720
G1 E2 F1500
M204 S600
;TYPE:Perimeter
G1 F1200
G1 X110 Y126.55 E.00908
G1 X109.752 Y126.034 E.02176
G1 X109.611 Y125.58 E.01807
G1 X109.526 Y125.022 E.02145
G1 X109.508 Y124.782 E.00915
G1 X109.506 Y116.765 E.3047
G1 X109.555 Y116.185 E.02212
G1 X109.766 Y115.468 E.02841
G1 X109.973 Y115.038 E.01814
G1 X110.296 Y114.565 E.02177
G1 X110.623 Y114.212 E.01829
G1 X111.068 Y113.858 E.02161
G1 X111.481 Y113.619 E.01814
G1 X112.014 Y113.409 E.02177
G1 X112.479 Y113.303 E.01813
G1 X113.05 Y113.26 E.02176
G1 X113.526 Y113.296 E.01814
G1 X114.084 Y113.423 E.02175
G1 X114.528 Y113.597 E.01812
G1 X115.025 Y113.884 E.02181
G1 X115.398 Y114.181 E.01812
G1 X115.787 Y114.601 E.02176
G1 X116.056 Y114.995 E.01813
G1 X116.333 Y115.573 E.02436
G1 X116.445 Y115.965 E.01549
G1 X116.53 Y116.523 E.02145
G1 X116.549 Y117.556 E.03927
G1 X116.551 Y124.78 E.27456
G1 X116.504 Y125.347 E.02162
G1 X116.29 Y126.077 E.02891
G1 X116.075 Y126.518 E.01865
G1 X115.736 Y127.008 E.02265
G1 X115.415 Y127.349 E.0178
G1 X114.985 Y127.69 E.02086
G1 X114.576 Y127.926 E.01795
G1 X114.043 Y128.135 E.02176
G1 X113.578 Y128.241 E.01813
G1 X113.006 Y128.284 E.0218
G1 X112.531 Y128.249 E.0181
G1 X111.972 Y128.121 E.0218
G1 X111.509 Y127.936 E.01895
G1 X111.032 Y127.661 E.02093
G1 X110.659 Y127.364 E.01812
G1 X110.269 Y126.944 E.02178
G1 X110.169 Y126.797 E.00676
M204 S1000
G1 X110.508 Y126.492 F12000
M204 S600
G1 F1200
G1 X110.412 Y126.352 E.00645
G1 X110.163 Y125.835 E.02181
G1 X110.063 Y125.511 E.01289
G1 X109.965 Y124.781 E.02799
G1 X109.963 Y116.765 E.30466
G1 X110.034 Y116.15 E.02353
G1 X110.203 Y115.602 E.0218
G1 X110.351 Y115.295 E.01295
G1 X110.673 Y114.822 E.02175
G1 X110.908 Y114.57 E.0131
G1 X111.353 Y114.215 E.02164
G1 X111.648 Y114.044 E.01296
G1 X112.181 Y113.835 E.02176
G1 X112.513 Y113.759 E.01294
G1 X113.093 Y113.715 E.02211
G1 X113.424 Y113.741 E.01262
G1 X113.983 Y113.869 E.0218
G1 X114.38 Y114.039 E.01641
G1 X114.861 Y114.32 E.02117
G1 X115.452 Y114.912 E.03179
G1 X115.644 Y115.193 E.01293
G1 X115.913 Y115.754 E.02365
G1 X115.993 Y116.033 E.01103
G1 X116.078 Y116.592 E.02149
G1 X116.094 Y124.78 E.3112
G1 X116.022 Y125.395 E.02353
G1 X115.853 Y125.942 E.02176
G1 X115.7 Y126.257 E.01331
G1 X115.36 Y126.747 E.02267
G1 X115.131 Y126.991 E.01272
G1 X114.701 Y127.332 E.02086
G1 X114.409 Y127.5 E.0128
G1 X113.875 Y127.71 E.02181
G1 X113.543 Y127.786 E.01294
G1 X112.972 Y127.829 E.02176
G1 X112.632 Y127.803 E.01296
G1 X112.074 Y127.676 E.02175
G1 X111.737 Y127.54 E.01381
G1 X111.26 Y127.265 E.02093
G1 X110.994 Y127.053 E.01293
G1 X110.604 Y126.633 E.02178
G1 X110.542 Y126.542 E.00419
M204 S1000
G1 X110.891 Y126.231 F12000
M204 S600
G1 F1200
G1 X110.575 Y125.637 E.02557
G1 X110.43 Y124.884 E.02914
G1 X110.42 Y116.765 E.30857
G1 X110.471 Y116.284 E.01838
G1 X110.64 Y115.737 E.02176
G1 X111.051 Y115.079 E.02949
G1 X111.193 Y114.927 E.00791
G1 X111.638 Y114.572 E.02164
G1 X112.348 Y114.26 E.02947
G1 X113.119 Y114.172 E.02949
G1 X113.652 Y114.262 E.02054
G1 X114.071 Y114.389 E.01664
G1 X114.568 Y114.675 E.02179
G1 X115.117 Y115.223 E.02948
G1 X115.494 Y115.934 E.03059
G1 X115.626 Y116.66 E.02804
G1 X115.636 Y124.78 E.30861
G1 X115.585 Y125.26 E.01835
G1 X115.417 Y125.808 E.02178
G1 X115.325 Y125.997 E.00799
G1 X114.985 Y126.486 E.02264
G1 X114.417 Y126.974 E.02846
G1 X113.708 Y127.284 E.02941
G1 X112.938 Y127.373 E.02946
G1 X112.175 Y127.23 E.0295
G1 X111.489 Y126.869 E.02946
G1 X110.939 Y126.322 E.02948
G1 X110.919 Y126.284 E.00163
M204 S1000
G1 X111.258 Y125.98 F12000
M204 S600
;TYPE:External perimeter
G1 F1200
G1 X110.987 Y125.439 E.023
G1 X110.882 Y124.816 E.02401
G1 X110.877 Y116.765 E.30599
G1 X110.908 Y116.419 E.0132
G1 X111.077 Y115.872 E.02176
G1 X111.429 Y115.337 E.02434
G1 X111.923 Y114.929 E.02435
G1 X112.515 Y114.686 E.02432
G1 X113.153 Y114.628 E.02435
G1 X113.78 Y114.76 E.02435
G1 X114.339 Y115.071 E.02431
G1 X114.782 Y115.534 E.02435
G1 X115.074 Y116.115 E.02471
G1 X115.175 Y116.729 E.02365
G1 X115.179 Y124.78 E.30599
G1 X115.149 Y125.126 E.0132
G1 X114.98 Y125.673 E.02176
G1 X114.609 Y126.226 E.02531
G1 X114.133 Y126.616 E.02339
G1 X113.541 Y126.859 E.02432
G1 X112.903 Y126.917 E.02435
G1 X112.277 Y126.785 E.02432
G1 X111.717 Y126.473 E.02436
G1 X111.291 Y126.029 E.02339
M204 S1000
G1 E-1.6 F2100
;WIPE_START
G1 F9600
G1 X111.258 Y125.98 E-.01228
G1 X110.987 Y125.439 E-.12574
G1 X110.882 Y124.816 E-.13129
G1 X110.882 Y124.187 E-.13069
;WIPE_END
G1 X135.319 Y100.012 Z.8 F12000
G1 X139.754 Y95.625
G1 Z.2 F720
G1 E2 F1500
M204 S600
;TYPE:Perimeter
G1 F1200
G1 X140.002 Y95.768 E.01088
G1 X140.375 Y96.066 E.01815
G1 X140.764 Y96.486 E.02176
G1 X141.033 Y96.88 E.01813
G1 X141.282 Y97.396 E.02178
G1 X141.422 Y97.85 E.01806
G1 X141.507 Y98.408 E.02145
G1 X141.525 Y98.648 E.00915
G1 X141.525 Y106.665 E.3047
G1 X141.48 Y107.219 E.02112
G1 X141.264 Y107.962 E.02941
G1 X141.049 Y108.403 E.01865
G1 X140.709 Y108.893 E.02267
G1 X140.389 Y109.234 E.01777
G1 X139.958 Y109.575 E.02089
G1 X139.549 Y109.81 E.01793
G1 X139.016 Y110.02 E.02177
G1 X138.551 Y110.126 E.01813
G1 X137.979 Y110.168 E.0218
G1 X137.708 Y110.166 E.0103
G1 X136.945 Y110.005 E.02964
G1 X136.501 Y109.831 E.01812
G1 X136.005 Y109.545 E.02176
G1 X135.632 Y109.247 E.01815
G1 X135.243 Y108.827 E.02176
G1 X134.974 Y108.433 E.01813
G1 X134.725 Y107.917 E.02178
G1 X134.585 Y107.463 E.01806
G1 X134.5 Y106.905 E.02145
G1 X134.482 Y105.799 E.04204
G1 X134.482 Y98.648 E.27178
G1 X134.525 Y98.109 E.02055
G1 X134.715 Y97.442 E.02636
G1 X134.858 Y97.074 E.01501
G1 X135.298 Y96.42 E.02996
G1 X135.618 Y96.079 E.01777
G1 X136.049 Y95.738 E.02089
G1 X136.458 Y95.503 E.01793
G1 X136.991 Y95.293 E.02177
G1 X137.456 Y95.187 E.01813
G1 X138.028 Y95.144 E.0218
G1 X138.503 Y95.18 E.0181
G1 X139.062 Y95.308 E.0218
G1 X139.506 Y95.482 E.01812
G1 X139.702 Y95.595 E.0086
M204 S1000
G1 X139.525 Y96.021 F12000
M204 S600
G1 F1200
G1 X139.773 Y96.164 E.01088
G1 X140.04 Y96.376 E.01296
G1 X140.429 Y96.797 E.02179
G1 X140.621 Y97.078 E.01293
G1 X140.87 Y97.594 E.02178
G1 X140.97 Y97.918 E.01289
G1 X141.068 Y98.648 E.02799
G1 X141.068 Y106.665 E.3047
G1 X140.996 Y107.28 E.02353
G1 X140.827 Y107.827 E.02176
G1 X140.674 Y108.142 E.01331
G1 X140.334 Y108.632 E.02267
G1 X140.105 Y108.876 E.01272
G1 X139.674 Y109.217 E.02089
G1 X139.382 Y109.385 E.0128
G1 X138.849 Y109.594 E.02176
G1 X138.517 Y109.67 E.01294
G1 X137.751 Y109.711 E.02915
G1 X137.047 Y109.56 E.02736
G1 X136.73 Y109.435 E.01295
G1 X136.234 Y109.149 E.02176
G1 X135.967 Y108.936 E.01298
G1 X135.578 Y108.516 E.02176
G1 X135.386 Y108.235 E.01293
G1 X135.137 Y107.719 E.02178
G1 X135.037 Y107.395 E.01289
G1 X134.952 Y106.836 E.02149
G1 X134.939 Y105.799 E.03942
G1 X134.939 Y98.648 E.27178
G1 X134.996 Y98.088 E.02139
G1 X135.152 Y97.577 E.02031
G1 X135.333 Y97.171 E.01689
G1 X135.673 Y96.681 E.02267
G1 X135.902 Y96.437 E.01272
G1 X136.333 Y96.096 E.02089
G1 X136.625 Y95.928 E.0128
G1 X137.158 Y95.719 E.02176
G1 X137.49 Y95.643 E.01294
G1 X138.062 Y95.6 E.0218
G1 X138.401 Y95.626 E.01292
G1 X138.96 Y95.753 E.02179
G1 X139.277 Y95.878 E.01295
G1 X139.473 Y95.991 E.0086
M204 S1000
G1 X139.297 Y96.417 F12000
M204 S600
G1 F1200
G1 X139.545 Y96.56 E.01088
G1 X140.094 Y97.107 E.02945
G1 X140.458 Y97.792 E.02948
G1 X140.611 Y98.648 E.03305
G1 X140.611 Y106.665 E.3047
G1 X140.559 Y107.145 E.01835
G1 X140.39 Y107.693 E.0218
G1 X139.958 Y108.371 E.03055
G1 X139.39 Y108.858 E.02844
G1 X138.682 Y109.169 E.02939
G1 X137.911 Y109.257 E.02949
G1 X137.795 Y109.256 E.00441
G1 X137.149 Y109.114 E.02514
G1 X136.959 Y109.039 E.00776
G1 X136.462 Y108.753 E.02179
G1 X136.303 Y108.626 E.00773
G1 X135.913 Y108.206 E.02178
G1 X135.798 Y108.037 E.00777
G1 X135.549 Y107.52 E.02181
G1 X135.404 Y106.768 E.02911
G1 X135.396 Y98.648 E.30861
G1 X135.448 Y98.168 E.01835
G1 X135.617 Y97.62 E.0218
G1 X135.709 Y97.431 E.00799
G1 X136.049 Y96.942 E.02264
G1 X136.617 Y96.454 E.02846
G1 X137.325 Y96.144 E.02937
G1 X138.096 Y96.056 E.02949
G1 X138.551 Y96.129 E.01751
G1 X139.049 Y96.274 E.01971
G1 X139.245 Y96.387 E.0086
M204 S1000
G1 X139.066 Y96.817 F12000
M204 S600
;TYPE:External perimeter
G1 F1200
G1 X139.316 Y96.956 E.01087
G1 X139.759 Y97.418 E.02433
G1 X140.046 Y97.991 E.02436
G1 X140.154 Y98.648 E.02531
G1 X140.154 Y106.665 E.3047
G1 X140.123 Y107.01 E.01316
G1 X139.954 Y107.558 E.0218
G1 X139.583 Y108.11 E.02528
G1 X139.106 Y108.5 E.02342
G1 X138.515 Y108.743 E.02429
G1 X137.838 Y108.801 E.02582
G1 X137.25 Y108.669 E.0229
G1 X136.691 Y108.357 E.02433
G1 X136.248 Y107.895 E.02433
G1 X135.961 Y107.322 E.02436
G1 X135.856 Y106.699 E.02401
G1 X135.854 Y98.648 E.30599
G1 X135.885 Y98.303 E.01316
G1 X136.053 Y97.755 E.02178
G1 X136.424 Y97.203 E.02528
G1 X136.901 Y96.813 E.02342
G1 X137.492 Y96.57 E.02429
G1 X138.13 Y96.512 E.02435
G1 X138.757 Y96.644 E.02435
G1 X139.013 Y96.787 E.01114
M204 S1000
G1 E-1.6 F2100
;WIPE_START
G1 F9600
G1 X139.066 Y96.817 E-.01266
G1 X139.316 Y96.956 E-.05944
