; generated by PrusaSlicer 2.9.3 on 2025-10-15 at 17:51:19 UTC

; 

; external perimeters extrusion width = 0.45mm
; perimeters extrusion width = 0.45mm
; infill extrusion width = 0.45mm
; solid infill extrusion width = 0.45mm
; top infill extrusion width = 0.42mm
; first layer extrusion width = 0.50mm

M73 P0 R70

EXCLUDE_OBJECT_DEFINE NAME='midplate_right_stl' CENTER=131.937,106.595 POLYGON=[[144.725,74.946],[144.725,77.224],[162.519,95.896],[163.383,97.025],[163.985,98.312],[164.232,99.252],[164.338,100.253],[164.323,131.955],[164.246,132.683],[163.853,133.705],[163.423,134.297],[162.879,134.786],[161.903,135.283],[160.821,135.454],[117.768,135.432],[100.206,117.853],[85.662,117.853],[85.662,112.853],[105.862,112.853],[105.862,105.153],[104.862,104.153],[104.862,101.153],[105.862,100.153],[105.862,92.247],[105.432,92.401],[104.979,92.453],[85.662,92.453],[85.662,87.453],[104.862,87.453],[117.768,74.546],[144.325,74.546]]

;TYPE:Custom
G90 ; use absolute coordinates
M83 ; extruder relative mode
M104 S170 ; preheat hotend to 170
M140 S65 ; set bed temp
M190 S65 ; wait for bed temp
G28 ; home all
;G29 ; mesh bed leveling
BED_MESH_CALIBRATE
G0 X0 Z0.6 Y-3.0 F1000.0 ; go outside print area for intro line
M104 S215 ; set hotend temp
M109 S215 ; wait for hotend temp
;M104 S0 ; Stops PS/SS from sending temp waits separately
;M140 S0
;PRINT_START BED=65 HOTEND=215
G92 E0.0
G1 X60.0 E9.0 F1000.0 ; intro line
G1 X100.0 E12.5 F1000.0 ; intro line
G92 E0.0
SKEW_PROFILE LOAD=CaliFlower
G21 ; set units to millimeters
G90 ; use absolute coordinates
M83 ; use relative distances for extrusion
M900 K0.05 ; Filament gcode



M142 S36 ; set heatbreak target temp
M107
;LAYER_CHANGE
;Z:0.2
;HEIGHT:0.2
G1 E-2 F2100
G1 Z.8 F720
EXCLUDE_OBJECT_START NAME='midplate_right_stl'
G1 X144.366 Y102.383 F12000
G1 Z.2 F720
G1 E2 F1500
M204 S600
;TYPE:Perimeter
;WIDTH:0.499999
G1 F1200
G1 X144.245 Y103.02 E.02464
G1 X144.056 Y103.754 E.02881
G1 X143.821 Y104.474 E.02879
G1 X143.539 Y105.178 E.02882
G1 X143.214 Y105.862 E.02878
G1 X142.845 Y106.524 E.0288
G1 X142.434 Y107.16 E.02878
G1 X141.983 Y107.77 E.02883
G1 X141.495 Y108.349 E.02878
G1 X140.97 Y108.895 E.02879
G1 X140.411 Y109.407 E.02881
G1 X140.01 Y109.731 E.01959
G1 X139.201 Y110.318 E.03799
G1 X138.555 Y110.714 E.0288
G1 X137.885 Y111.067 E.02878
G1 X137.193 Y111.377 E.02882
G1 X136.483 Y111.642 E.0288
G1 X135.758 Y111.861 E.02878
G1 X135.02 Y112.032 E.02879
G1 X134.272 Y112.157 E.02882
G1 X133.518 Y112.233 E.0288
G1 X132.761 Y112.26 E.02879
G1 X132.004 Y112.239 E.02878
G1 X131.249 Y112.17 E.02881
G1 X130.5 Y112.052 E.02882
G1 X129.761 Y111.887 E.02878
G1 X129.034 Y111.674 E.02879
G1 X128.321 Y111.416 E.02882
G1 X127.627 Y111.112 E.0288
G1 X126.954 Y110.764 E.0288
G1 X126.304 Y110.374 E.02881
G1 X125.681 Y109.943 E.02879
G1 X125.086 Y109.474 E.02879
G1 X124.523 Y108.967 E.0288
G1 X123.994 Y108.425 E.02878
G1 X123.5 Y107.85 E.02881
G1 X123.044 Y107.244 E.02882
G1 X122.628 Y106.611 E.02879
G1 X122.253 Y105.953 E.02878
G1 X121.922 Y105.271 E.02881
G1 X121.634 Y104.57 E.0288
G1 X121.392 Y103.852 E.0288
G1 X121.247 Y103.312 E.02125
G1 X121.049 Y102.377 E.03632
G1 X120.949 Y101.626 E.02879
G1 X120.897 Y100.87 E.0288
G1 X120.894 Y100.245 E.02375
G1 X120.939 Y99.356 E.03383
G1 X121.033 Y98.604 E.0288
G1 X121.174 Y97.859 E.02882
G1 X121.363 Y97.126 E.02877
G1 X121.599 Y96.405 E.02883
G1 X121.88 Y95.702 E.02877
G1 X122.115 Y95.207 E.02083
G1 X122.575 Y94.356 E.03677
G1 X122.986 Y93.719 E.02881
G1 X123.436 Y93.11 E.02878
G1 X123.925 Y92.531 E.0288
G1 X124.45 Y91.984 E.02882
G1 X124.994 Y91.485 E.02806
G1 X125.596 Y90.999 E.02941
G1 X126.187 Y90.583 E.02747
G1 X126.865 Y90.165 E.03027
G1 X127.535 Y89.812 E.02878
G1 X128.226 Y89.502 E.02878
G1 X128.918 Y89.244 E.02807
G1 X129.659 Y89.02 E.02942
G1 X130.4 Y88.847 E.02892
G1 X131.147 Y88.723 E.02878
G1 X131.901 Y88.647 E.0288
G1 X132.639 Y88.62 E.02807
G1 X133.413 Y88.64 E.02943
G1 X134.17 Y88.71 E.02889
G1 X134.919 Y88.827 E.02881
G1 X135.658 Y88.993 E.02879
G1 X136.386 Y89.205 E.02882
G1 X137.098 Y89.464 E.0288
G1 X137.792 Y89.768 E.0288
G1 X138.466 Y90.115 E.02881
G1 X139.115 Y90.505 E.02878
G1 X139.739 Y90.936 E.02882
G1 X140.318 Y91.394 E.02806
G1 X140.894 Y91.911 E.02942
G1 X141.426 Y92.455 E.02892
G1 X141.907 Y93.015 E.02806
G1 X142.374 Y93.633 E.02944
G1 X142.791 Y94.268 E.02887
G1 X143.166 Y94.927 E.02882
G1 X143.498 Y95.608 E.02879
G1 X143.785 Y96.309 E.02879
G1 X144.027 Y97.027 E.0288
G1 X144.223 Y97.759 E.0288
G1 X144.371 Y98.503 E.02883
G1 X144.471 Y99.254 E.02879
G1 X144.523 Y100.01 E.0288
G1 X144.526 Y100.767 E.02877
G1 X144.481 Y101.524 E.02882
G1 X144.387 Y102.276 E.0288
G1 X144.378 Y102.324 E.00186
M204 S1000
G1 X143.919 Y102.296 F12000
M204 S600
G1 F1200
G1 X143.797 Y102.933 E.02465
G1 X143.614 Y103.638 E.02768
G1 X143.387 Y104.33 E.02768
G1 X143.116 Y105.006 E.02768
G1 X142.802 Y105.663 E.02768
G1 X142.446 Y106.299 E.0277
G1 X142.051 Y106.911 E.02768
G1 X141.617 Y107.496 E.02768
G1 X141.147 Y108.052 E.02767
G1 X140.642 Y108.577 E.02769
G1 X140.104 Y109.069 E.02771
G1 X139.536 Y109.525 E.02768
G1 X138.94 Y109.943 E.02767
G1 X138.318 Y110.323 E.0277
G1 X137.673 Y110.662 E.02769
G1 X137.008 Y110.959 E.02768
G1 X136.325 Y111.213 E.0277
G1 X135.628 Y111.422 E.02766
G1 X134.918 Y111.587 E.0277
G1 X134.199 Y111.705 E.02769
G1 X133.474 Y111.778 E.02769
G1 X132.746 Y111.803 E.02768
G1 X132.018 Y111.782 E.02768
G1 X131.293 Y111.715 E.02767
G1 X130.573 Y111.601 E.02771
G1 X129.863 Y111.441 E.02766
G1 X129.164 Y111.236 E.02769
G1 X128.479 Y110.987 E.0277
G1 X127.812 Y110.694 E.02769
G1 X127.165 Y110.359 E.02769
G1 X126.541 Y109.983 E.02769
G1 X125.942 Y109.569 E.02767
G1 X125.371 Y109.116 E.0277
G1 X124.831 Y108.628 E.02766
G1 X124.322 Y108.107 E.02768
G1 X123.848 Y107.553 E.02771
G1 X123.411 Y106.971 E.02766
G1 X123.011 Y106.362 E.02769
G1 X122.652 Y105.728 E.02769
G1 X122.333 Y105.073 E.02769
G1 X122.058 Y104.399 E.02767
G1 X121.826 Y103.708 E.0277
G1 X121.69 Y103.196 E.02013
G1 X121.498 Y102.29 E.0352
G1 X121.402 Y101.567 E.02772
G1 X121.353 Y100.841 E.02766
G1 X121.351 Y100.245 E.02265
G1 X121.395 Y99.385 E.03273
G1 X121.486 Y98.662 E.0277
G1 X121.623 Y97.947 E.02767
G1 X121.805 Y97.242 E.02767
G1 X122.033 Y96.549 E.02773
G1 X122.304 Y95.873 E.02768
G1 X122.526 Y95.406 E.01965
G1 X122.973 Y94.58 E.0357
G1 X123.369 Y93.968 E.0277
G1 X123.802 Y93.383 E.02766
G1 X124.273 Y92.827 E.02769
G1 X124.778 Y92.302 E.02769
G1 X125.301 Y91.824 E.02693
G1 X125.882 Y91.356 E.02835
G1 X126.449 Y90.958 E.02633
G1 X127.101 Y90.556 E.02911
G1 X127.746 Y90.217 E.02769
G1 X128.411 Y89.92 E.02768
G1 X129.076 Y89.673 E.02696
G1 X129.79 Y89.458 E.02834
G1 X130.502 Y89.293 E.02778
G1 X131.22 Y89.174 E.02766
G1 X131.945 Y89.102 E.02769
G1 X132.654 Y89.077 E.02696
G1 X133.399 Y89.097 E.02832
G1 X134.127 Y89.165 E.02779
G1 X134.846 Y89.279 E.02767
G1 X135.557 Y89.438 E.02769
G1 X136.256 Y89.643 E.02769
G1 X136.94 Y89.893 E.02768
G1 X137.607 Y90.185 E.02767
G1 X138.254 Y90.52 E.02769
G1 X138.878 Y90.896 E.02769
G1 X139.477 Y91.311 E.0277
G1 X140.033 Y91.751 E.02695
G1 X140.587 Y92.25 E.02834
G1 X141.097 Y92.773 E.02776
G1 X141.559 Y93.311 E.02695
G1 X142.008 Y93.907 E.02836
G1 X142.408 Y94.518 E.02776
G1 X142.768 Y95.151 E.02768
G1 X143.086 Y95.806 E.02767
G1 X143.362 Y96.481 E.02772
G1 X143.593 Y97.171 E.02765
G1 X143.78 Y97.875 E.02768
G1 X143.922 Y98.59 E.02771
G1 X144.017 Y99.312 E.02768
G1 X144.066 Y100.039 E.02769
G1 X144.069 Y100.767 E.02767
G1 X144.024 Y101.494 E.02768
G1 X143.934 Y102.217 E.02769
G1 X143.93 Y102.237 E.00078
M204 S1000
G1 X143.471 Y102.209 F12000
M204 S600
G1 F1200
G1 X143.348 Y102.845 E.02462
G1 X143.172 Y103.522 E.02659
G1 X142.953 Y104.186 E.02657
G1 X142.692 Y104.835 E.02659
G1 X142.39 Y105.465 E.02655
G1 X142.048 Y106.075 E.02658
G1 X141.668 Y106.662 E.02658
G1 X141.251 Y107.223 E.02657
G1 X140.799 Y107.756 E.02656
G1 X140.313 Y108.259 E.02658
G1 X139.797 Y108.73 E.02655
G1 X139.251 Y109.167 E.02658
G1 X138.678 Y109.569 E.0266
G1 X138.081 Y109.932 E.02655
G1 X137.462 Y110.257 E.02657
G1 X136.823 Y110.541 E.02658
G1 X136.167 Y110.784 E.02659
G1 X135.498 Y110.984 E.02654
G1 X134.816 Y111.141 E.0266
G1 X134.126 Y111.254 E.02657
G1 X133.431 Y111.323 E.02654
G1 X132.732 Y111.347 E.02658
G1 X132.033 Y111.326 E.02658
G1 X131.337 Y111.26 E.02657
G1 X130.646 Y111.15 E.02659
G1 X129.964 Y110.995 E.02658
G1 X129.294 Y110.798 E.02654
G1 X128.637 Y110.558 E.02658
G1 X127.997 Y110.276 E.02658
G1 X127.377 Y109.954 E.02655
G1 X126.778 Y109.593 E.02658
G1 X126.204 Y109.194 E.02657
G1 X125.656 Y108.759 E.02659
G1 X125.138 Y108.29 E.02656
G1 X124.65 Y107.789 E.02658
G1 X124.196 Y107.257 E.02658
G1 X123.777 Y106.698 E.02655
G1 X123.394 Y106.113 E.02657
G1 X123.05 Y105.504 E.02658
G1 X122.745 Y104.875 E.02657
G1 X122.482 Y104.227 E.02658
G1 X122.26 Y103.564 E.02657
G1 X122.132 Y103.08 E.01903
G1 X121.946 Y102.202 E.03411
G1 X121.855 Y101.509 E.02656
G1 X121.809 Y100.811 E.02659
G1 X121.808 Y100.245 E.02151
G1 X121.851 Y99.414 E.03163
G1 X121.939 Y98.721 E.02655
G1 X122.071 Y98.034 E.02659
G1 X122.247 Y97.357 E.02659
G1 X122.466 Y96.693 E.02657
G1 X122.728 Y96.045 E.02656
G1 X123.03 Y95.414 E.02659
G1 X123.371 Y94.804 E.02656
G1 X123.752 Y94.218 E.02657
G1 X124.169 Y93.657 E.02657
G1 X124.621 Y93.123 E.02659
G1 X125.106 Y92.62 E.02656
G1 X125.609 Y92.162 E.02585
G1 X126.168 Y91.713 E.02725
G1 X126.71 Y91.332 E.02518
G1 X127.338 Y90.947 E.028
G1 X127.958 Y90.623 E.02659
G1 X128.596 Y90.338 E.02656
G1 X129.234 Y90.102 E.02585
G1 X129.921 Y89.896 E.02726
G1 X130.603 Y89.738 E.02661
G1 X131.293 Y89.625 E.02657
G1 X131.989 Y89.557 E.02658
G1 X132.669 Y89.533 E.02586
G1 X133.385 Y89.554 E.02722
G1 X134.083 Y89.62 E.02665
G1 X134.773 Y89.73 E.02656
G1 X135.455 Y89.884 E.02657
G1 X136.126 Y90.082 E.02659
G1 X136.782 Y90.322 E.02655
G1 X137.422 Y90.603 E.02657
G1 X138.043 Y90.926 E.0266
G1 X138.641 Y91.287 E.02655
G1 X139.216 Y91.686 E.0266
G1 X139.748 Y92.108 E.02581
G1 X140.281 Y92.589 E.02729
G1 X140.769 Y93.091 E.02661
G1 X141.211 Y93.608 E.02585
G1 X141.642 Y94.181 E.02725
G1 X142.025 Y94.767 E.02661
G1 X142.37 Y95.375 E.02657
G1 X142.674 Y96.005 E.02659
G1 X142.938 Y96.652 E.02656
G1 X143.16 Y97.315 E.02657
G1 X143.338 Y97.991 E.02657
G1 X143.473 Y98.677 E.02657
G1 X143.564 Y99.371 E.0266
G1 X143.61 Y100.068 E.02655
G1 X143.612 Y100.767 E.02657
G1 X143.568 Y101.465 E.02658
G1 X143.481 Y102.15 E.02624
M204 S1000
G1 X143.023 Y102.122 F12000
M204 S600
;TYPE:External perimeter
G1 F1200
G1 X142.899 Y102.758 E.02463
G1 X142.73 Y103.406 E.02545
G1 X142.519 Y104.042 E.02547
G1 X142.268 Y104.663 E.02546
G1 X141.978 Y105.267 E.02546
G1 X141.65 Y105.851 E.02546
G1 X141.285 Y106.412 E.02544
G1 X140.884 Y106.949 E.02547
G1 X140.451 Y107.46 E.02546
G1 X139.985 Y107.941 E.02545
G1 X139.489 Y108.392 E.02548
G1 X138.966 Y108.81 E.02545
G1 X138.417 Y109.194 E.02546
G1 X137.844 Y109.541 E.02546
G1 X137.25 Y109.852 E.02548
G1 X136.638 Y110.123 E.02544
G1 X136.01 Y110.355 E.02544
G1 X135.368 Y110.546 E.02546
G1 X134.715 Y110.696 E.02546
G1 X134.053 Y110.803 E.02549
G1 X133.387 Y110.868 E.02543
G1 X132.717 Y110.89 E.02548
G1 X132.048 Y110.869 E.02544
G1 X131.381 Y110.805 E.02547
G1 X130.719 Y110.698 E.02549
G1 X130.066 Y110.55 E.02545
G1 X129.424 Y110.36 E.02545
G1 X128.795 Y110.129 E.02547
G1 X128.182 Y109.858 E.02547
G1 X127.588 Y109.549 E.02545
G1 X127.015 Y109.202 E.02546
G1 X126.465 Y108.819 E.02547
G1 X125.941 Y108.402 E.02545
G1 X125.445 Y107.952 E.02545
G1 X124.979 Y107.471 E.02545
G1 X124.544 Y106.961 E.02548
G1 X124.143 Y106.424 E.02547
G1 X123.777 Y105.863 E.02546
G1 X123.448 Y105.28 E.02544
G1 X123.157 Y104.676 E.02548
G1 X122.905 Y104.056 E.02544
G1 X122.694 Y103.42 E.02547
G1 X122.523 Y102.772 E.02547
G1 X122.395 Y102.115 E.02544
G1 X122.309 Y101.45 E.02548
G1 X122.265 Y100.782 E.02544
G1 X122.265 Y100.245 E.02041
G1 X122.307 Y99.444 E.03048
G1 X122.393 Y98.779 E.02548
G1 X122.52 Y98.122 E.02543
G1 X122.69 Y97.473 E.0255
G1 X122.9 Y96.838 E.02542
G1 X123.151 Y96.216 E.02549
G1 X123.441 Y95.613 E.02543
G1 X123.77 Y95.029 E.02548
G1 X124.135 Y94.467 E.02547
G1 X124.535 Y93.93 E.02545
G1 X124.969 Y93.42 E.02545
G1 X125.435 Y92.938 E.02548
G1 X125.916 Y92.5 E.02472
G1 X126.453 Y92.07 E.02615
G1 X126.972 Y91.707 E.02407
G1 X127.575 Y91.338 E.02687
G1 X128.169 Y91.028 E.02547
G1 X128.781 Y90.756 E.02545
G1 X129.392 Y90.531 E.02475
G1 X130.052 Y90.333 E.02619
G1 X130.705 Y90.184 E.02546
G1 X131.366 Y90.076 E.02546
G1 X132.033 Y90.012 E.02547
G1 X132.683 Y89.99 E.02472
G1 X133.372 Y90.011 E.0262
G1 X134.039 Y90.075 E.02547
G1 X134.7 Y90.181 E.02544
G1 X135.353 Y90.33 E.02546
G1 X135.996 Y90.52 E.02548
G1 X136.625 Y90.751 E.02547
G1 X137.237 Y91.021 E.02542
G1 X137.831 Y91.331 E.02547
G1 X138.404 Y91.678 E.02546
G1 X138.954 Y92.061 E.02547
G1 X139.463 Y92.466 E.02472
G1 X139.974 Y92.928 E.02618
G1 X140.441 Y93.409 E.02548
G1 X140.863 Y93.904 E.02472
G1 X141.276 Y94.455 E.02617
G1 X141.642 Y95.016 E.02546
G1 X141.971 Y95.6 E.02548
G1 X142.262 Y96.203 E.02545
G1 X142.514 Y96.824 E.02547
G1 X142.726 Y97.459 E.02544
G1 X142.896 Y98.107 E.02546
G1 X143.025 Y98.765 E.02548
G1 X143.111 Y99.429 E.02545
G1 X143.154 Y100.097 E.02544
G1 X143.155 Y100.767 E.02546
G1 X143.112 Y101.436 E.02548
G1 X143.032 Y102.062 E.02399
M204 S1000
G1 E-1.6 F2100
;WIPE_START
G1 F9600
G1 X143.023 Y102.122 E-.01261
G1 X142.899 Y102.758 E-.13466
G1 X142.73 Y103.406 E-.13917
G1 X142.558 Y103.925 E-.11356
;WIPE_END
G1 X157.85 Y133.289 Z.778 F12000
G1 Z.2 F720
G1 E2 F1500
M204 S600
G1 F1200
G1 X157.52 Y133.724 E.02075
G1 X157.035 Y134.047 E.02215
;WIDTH:0.525027
G1 X156.474 Y134.204 E.02335
;WIDTH:0.54269
G1 X155.952 Y134.181 E.02171
G1 X155.417 Y133.946 E.02428
;WIDTH:0.499999
G1 X154.976 Y133.565 E.02215
G1 X154.684 Y133.061 E.02214
G1 X154.572 Y132.46 E.02324
G1 X154.574 Y128.441 E.15275
G1 X154.662 Y127.912 E.02038
G1 X154.942 Y127.379 E.02288
G1 X155.356 Y126.997 E.02141
G1 X155.888 Y126.76 E.02213
G1 X156.403 Y126.706 E.01968
G1 X156.825 Y126.778 E.01627
G1 X157.294 Y126.998 E.01969
G1 X157.671 Y127.338 E.01929
G1 X157.963 Y127.842 E.02214
;WIDTH:0.528389
G1 X158.085 Y128.443 E.02476
;WIDTH:0.523147
G1 X158.083 Y132.481 E.16124
G1 X158.04 Y132.781 E.0121
;WIDTH:0.501327
G1 X157.88 Y133.238 E.01846
M204 S1000
G1 E-1.6 F2100
;WIPE_START
G1 F9600
G1 X157.85 Y133.289 E-.0123
G1 X157.52 Y133.724 E-.11347
G1 X157.035 Y134.047 E-.12109
G1 X156.474 Y134.204 E-.12106
G1 X156.32 Y134.197 E-.03208
;WIPE_END
G1 X159.642 Y134.049 Z.258 F12000
G1 Z.2 F720
G1 E2 F1500
M204 S600
;WIDTH:0.525522
G1 F1200
G1 X159.417 Y133.948 E.0099
;WIDTH:0.499999
G1 X158.976 Y133.567 E.02215
G1 X158.684 Y133.062 E.02217
;WIDTH:0.501327
G1 X158.631 Y132.83 E.00907
;WIDTH:0.521463
G1 X158.562 Y132.462 E.0149
G1 X158.564 Y128.443 E.15992
G1 X158.662 Y127.914 E.02141
;WIDTH:0.499999
G1 X158.931 Y127.398 E.02212
G1 X159.356 Y126.999 E.02216
G1 X159.888 Y126.762 E.02213
G1 X160.403 Y126.708 E.01968
G1 X160.825 Y126.78 E.01627
G1 X161.294 Y127 E.01969
G1 X161.671 Y127.34 E.01929
G1 X161.963 Y127.844 E.02214
G1 X162.074 Y128.445 E.02323
G1 X162.072 Y132.463 E.15271
G1 X162.039 Y132.783 E.01223
G1 X161.872 Y133.262 E.01928
G1 X161.52 Y133.726 E.02214
;WIDTH:0.546858
G1 X161.047 Y134.069 E.02448
;WIDTH:0.559468
G1 X160.728 Y134.164 E.0143
G1 X160.399 Y134.211 E.01427
;WIDTH:0.525522
G1 X159.88 Y134.156 E.02094
G1 X159.697 Y134.074 E.00805
M204 S1000
G1 X158.953 Y134.21 F12000
M204 S600
;TYPE:Perimeter
;WIDTH:0.57112
G1 F1200
G1 X157.698 Y134.209 E.05512
G1 X158.103 Y133.781 E.02588
G1 X158.328 Y133.438 E.01802
G1 X158.53 Y133.799 E.01817
G1 X158.91 Y134.168 E.02326
M204 S1000
G1 E-1.6 F2100
;WIPE_START
G1 F9600
G1 X158.953 Y134.21 E-.01249
G1 X157.698 Y134.209 E-.2608
G1 X158.103 Y133.781 E-.12245
G1 X158.114 Y133.764 E-.00426
;WIPE_END
G1 X131.446 Y112.075 Z.8 F12000
G1 X105.03 Y90.59
G1 Z.2 F720
G1 E2 F1500
M204 S600
;WIDTH:0.499999
G1 F1200
G1 X104.836 Y90.632 E.00754
G1 X87.783 Y90.632 E.64812
G1 X87.783 Y89.574 E.04021
G1 X104.979 Y89.574 E.65356
;WIDTH:0.54243
G1 X105.054 Y89.591 E.00319
;WIDTH:0.58486
