; generated by PrusaSlicer 2.9.3 on 2025-10-15 at 17:51:20 UTC

; 

; external perimeters extrusion width = 0.45mm
; perimeters extrusion width = 0.45mm
; infill extrusion width = 0.45mm
; solid infill extrusion width = 0.45mm
; top infill extrusion width = 0.42mm
; first layer extrusion width = 0.50mm

M73 P0 R71

EXCLUDE_OBJECT_DEFINE NAME='rear_brace_stl' CENTER=125.000,105.000 POLYGON=[[200.400,124.000],[49.600,124.000],[49.600,86.000],[200.400,86.000]]

;TYPE:Custom
G90 ; use absolute coordinates
M83 ; extruder relative mode
M104 S170 ; preheat hotend to 170
M140 S65 ; set bed temp
M190 S65 ; wait for bed temp
G28 ; home all
;G29 ; mesh bed leveling
BED_MESH_CALIBRATE
G0 X0 Z0.6 Y-3.0 F1000.0 ; go outside print area for intro line
M104 S215 ; set hotend temp
M109 S215 ; wait for hotend temp
;M104 S0 ; Stops PS/SS from sending temp waits separately
;M140 S0
;PRINT_START BED=65 HOTEND=215
G92 E0.0
G1 X60.0 E9.0 F1000.0 ; intro line
G1 X100.0 E12.5 F1000.0 ; intro line
G92 E0.0
SKEW_PROFILE LOAD=CaliFlower
G21 ; set units to millimeters
G90 ; use absolute coordinates
M83 ; use relative distances for extrusion
M900 K0.05 ; Filament gcode



M142 S36 ; set heatbreak target temp
M107
;LAYER_CHANGE
;Z:0.2
;HEIGHT:0.2
G1 E-2 F2100
G1 Z.8 F720
EXCLUDE_OBJECT_START NAME='rear_brace_stl'
G1 X168.813 Y99.86 F12000
G1 Z.2 F720
G1 E2 F1500
M204 S600
;TYPE:Perimeter
;WIDTH:0.499999
G1 F1200
G1 X169.259 Y100.235 E.02215
G1 X169.728 Y100.748 E.02642
G1 X170.124 Y101.321 E.02647
G1 X170.415 Y101.883 E.02405
G1 X170.667 Y102.587 E.02842
G1 X170.804 Y103.207 E.02413
G1 X170.863 Y103.893 E.02617
G1 X170.831 Y104.587 E.0264
G1 X170.72 Y105.215 E.02424
G1 X170.497 Y105.92 E.0281
G1 X170.225 Y106.503 E.02445
G1 X169.857 Y107.082 E.02607
G1 X169.411 Y107.614 E.02638
G1 X168.897 Y108.082 E.02642
G1 X168.324 Y108.479 E.02649
G1 X167.763 Y108.77 E.02402
G1 X167.058 Y109.022 E.02845
G1 X166.438 Y109.159 E.02413
G1 X165.653 Y109.221 E.02993
G1 X92.438 Y109.221 E2.78263
G1 X91.858 Y109.186 E.02208
G1 X91.23 Y109.075 E.02424
G1 X90.525 Y108.851 E.02811
G1 X89.942 Y108.579 E.02445
G1 X89.364 Y108.212 E.02602
G1 X88.831 Y107.765 E.02644
G1 X88.363 Y107.252 E.02639
G1 X87.967 Y106.679 E.02647
G1 X87.675 Y106.117 E.02407
G1 X87.423 Y105.413 E.02842
G1 X87.287 Y104.793 E.02412
G1 X87.227 Y104.107 E.02617
G1 X87.259 Y103.413 E.0264
G1 X87.371 Y102.785 E.02424
G1 X87.594 Y102.08 E.0281
G1 X87.866 Y101.497 E.02445
G1 X88.233 Y100.918 E.02605
G1 X88.68 Y100.386 E.02641
G1 X89.194 Y99.918 E.02642
G1 X89.766 Y99.521 E.02646
G1 X90.328 Y99.23 E.02405
G1 X91.032 Y98.978 E.02842
G1 X91.653 Y98.841 E.02417
G1 X92.438 Y98.779 E.02993
G1 X125.425 Y98.779 E1.25371
;WIDTH:0.536618
G1 X125.805 Y98.76 E.01562
;WIDTH:0.573236
G1 X126.186 Y98.742 E.01682
G1 X128.709 Y98.742 E.11125
G1 X129.089 Y98.76 E.01678
;WIDTH:0.536618
G1 X129.469 Y98.779 E.01562
;WIDTH:0.499999
G1 X165.653 Y98.779 E1.37522
G1 X166.233 Y98.814 E.02208
G1 X166.86 Y98.925 E.0242
G1 X167.565 Y99.149 E.02811
G1 X168.149 Y99.421 E.02449
G1 X168.727 Y99.788 E.02602
G1 X168.767 Y99.821 E.00197
M204 S1000
G1 X168.536 Y100.221 F12000
M204 S600
G1 F1200
G1 X168.959 Y100.579 E.02106
G1 X169.384 Y101.049 E.02408
G1 X169.743 Y101.573 E.02414
G1 X170.005 Y102.085 E.02186
G1 X170.234 Y102.733 E.02612
G1 X170.356 Y103.297 E.02193
G1 X170.407 Y103.924 E.02391
G1 X170.375 Y104.557 E.02409
G1 X170.272 Y105.126 E.02198
G1 X170.063 Y105.774 E.02588
G1 X169.815 Y106.301 E.02214
G1 X169.476 Y106.829 E.02385
G1 X169.067 Y107.313 E.02408
G1 X168.596 Y107.738 E.02411
G1 X168.072 Y108.098 E.02416
G1 X167.56 Y108.36 E.02186
G1 X166.913 Y108.589 E.02608
G1 X166.349 Y108.71 E.02192
G1 X165.653 Y108.764 E.02653
G1 X92.438 Y108.764 E2.78263
G1 X91.888 Y108.73 E.02094
G1 X91.32 Y108.626 E.02195
G1 X90.671 Y108.418 E.0259
G1 X90.144 Y108.17 E.02214
G1 X89.616 Y107.831 E.02385
G1 X89.132 Y107.421 E.02411
G1 X88.707 Y106.951 E.02408
G1 X88.348 Y106.427 E.02414
G1 X88.085 Y105.915 E.02188
G1 X87.857 Y105.267 E.02611
G1 X87.735 Y104.703 E.02193
G1 X87.683 Y104.076 E.02391
G1 X87.715 Y103.443 E.02409
G1 X87.819 Y102.874 E.02198
G1 X88.027 Y102.226 E.02587
G1 X88.276 Y101.699 E.02215
G1 X88.614 Y101.171 E.02383
G1 X89.024 Y100.687 E.02411
G1 X89.495 Y100.262 E.02411
G1 X90.019 Y99.902 E.02416
G1 X90.53 Y99.64 E.02183
G1 X91.178 Y99.411 E.02612
G1 X91.742 Y99.29 E.02192
G1 X92.438 Y99.236 E.02653
G1 X126.186 Y99.236 E1.28264
G1 X165.653 Y99.236 E1.49999
G1 X166.202 Y99.27 E.02091
G1 X166.771 Y99.374 E.02198
G1 X167.42 Y99.582 E.0259
G1 X167.947 Y99.83 E.02214
G1 X168.475 Y100.169 E.02385
G1 X168.49 Y100.182 E.00075
M204 S1000
G1 X168.259 Y100.582 F12000
M204 S600
G1 F1200
G1 X168.658 Y100.923 E.01995
G1 X169.04 Y101.35 E.02178
G1 X169.362 Y101.826 E.02184
G1 X169.595 Y102.287 E.01963
G1 X169.801 Y102.878 E.02379
G1 X169.907 Y103.386 E.01972
G1 X169.951 Y103.954 E.02165
G1 X169.919 Y104.526 E.02177
G1 X169.824 Y105.037 E.01975
G1 X169.63 Y105.628 E.02364
G1 X169.405 Y106.099 E.01984
G1 X169.095 Y106.577 E.02165
G1 X168.723 Y107.012 E.02175
G1 X168.295 Y107.394 E.0218
G1 X167.82 Y107.716 E.02181
G1 X167.358 Y107.95 E.01968
G1 X166.767 Y108.156 E.02379
G1 X166.26 Y108.262 E.01969
G1 X165.653 Y108.307 E.02313
G1 X92.438 Y108.307 E2.78263
G1 X91.919 Y108.274 E.01977
G1 X91.409 Y108.178 E.01972
G1 X90.817 Y107.985 E.02367
G1 X90.346 Y107.76 E.01984
G1 X89.868 Y107.45 E.02165
G1 X89.433 Y107.077 E.02178
G1 X89.051 Y106.65 E.02178
G1 X88.729 Y106.174 E.02184
G1 X88.495 Y105.713 E.01965
G1 X88.29 Y105.122 E.02377
G1 X88.183 Y104.614 E.01973
G1 X88.139 Y104.046 E.02165
G1 X88.171 Y103.474 E.02177
G1 X88.267 Y102.963 E.01976
G1 X88.46 Y102.372 E.02363
G1 X88.686 Y101.901 E.01986
G1 X88.995 Y101.423 E.02163
G1 X89.368 Y100.988 E.02178
G1 X89.795 Y100.606 E.02178
G1 X90.271 Y100.284 E.02184
G1 X90.732 Y100.05 E.01965
G1 X91.324 Y99.844 E.02382
G1 X91.831 Y99.738 E.01969
G1 X92.438 Y99.693 E.02313
G1 X126.186 Y99.693 E1.28264
G1 X165.653 Y99.693 E1.49999
G1 X166.172 Y99.726 E.01977
G1 X166.682 Y99.822 E.01972
G1 X167.274 Y100.015 E.02367
G1 X167.744 Y100.24 E.0198
G1 X168.213 Y100.544 E.02124
M204 S1000
G1 X167.983 Y100.942 F12000
M204 S600
;TYPE:External perimeter
G1 F1200
G1 X167.994 Y100.95 E.00052
G1 X168.378 Y101.288 E.01944
G1 X168.714 Y101.675 E.01948
G1 X168.995 Y102.103 E.01946
G1 X169.197 Y102.517 E.01751
G1 X169.368 Y103.026 E.02041
G1 X169.463 Y103.504 E.01852
G1 X169.495 Y104.015 E.01946
G1 X169.459 Y104.525 E.01943
G1 X169.368 Y104.976 E.01749
G1 X169.197 Y105.483 E.02034
G1 X168.981 Y105.922 E.0186
G1 X168.696 Y106.349 E.01951
G1 X168.357 Y106.733 E.01947
G1 X167.97 Y107.069 E.01948
G1 X167.542 Y107.35 E.01946
G1 X167.128 Y107.552 E.01751
G1 X166.621 Y107.722 E.02032
G1 X166.141 Y107.818 E.0186
G1 X165.653 Y107.85 E.01859
G1 X92.438 Y107.85 E2.78263
G1 X91.92 Y107.814 E.01973
G1 X91.47 Y107.722 E.01746
G1 X90.963 Y107.552 E.02032
G1 X90.523 Y107.335 E.01865
G1 X90.096 Y107.05 E.01951
G1 X89.712 Y106.712 E.01944
G1 X89.377 Y106.325 E.01945
G1 X89.096 Y105.897 E.01946
G1 X88.894 Y105.483 E.01751
G1 X88.723 Y104.976 E.02034
G1 X88.628 Y104.496 E.0186
G1 X88.595 Y103.994 E.01912
G1 X88.629 Y103.49 E.0192
G1 X88.723 Y103.024 E.01807
G1 X88.894 Y102.517 E.02034
G1 X89.11 Y102.078 E.0186
G1 X89.395 Y101.651 E.01951
G1 X89.734 Y101.267 E.01947
G1 X90.121 Y100.931 E.01948
G1 X90.548 Y100.65 E.01943
G1 X90.963 Y100.448 E.01754
G1 X91.47 Y100.278 E.02032
G1 X91.949 Y100.182 E.01857
G1 X92.438 Y100.15 E.01862
G1 X126.186 Y100.15 E1.28264
G1 X165.653 Y100.15 E1.49999
G1 X166.17 Y100.186 E.0197
G1 X166.621 Y100.278 E.01749
G1 X167.128 Y100.448 E.02032
G1 X167.567 Y100.665 E.01861
G1 X167.933 Y100.909 E.01672
M204 S1000
G1 E-1.6 F2100
;WIPE_START
G1 F9600
G1 X167.983 Y100.942 E-.01245
G1 X167.994 Y100.95 E-.00283
G1 X168.378 Y101.288 E-.10631
G1 X168.714 Y101.675 E-.10651
G1 X168.995 Y102.103 E-.1064
G1 X169.133 Y102.387 E-.0655
;WIPE_END
G1 X135.016 Y98.194 Z.8 F12000
G1 X125.695 Y97.049
G1 Z.2 F720
G1 E2 F1500
M204 S600
;TYPE:Perimeter
G1 F1200
G1 X125.581 Y96.898 E.00719
G1 X125.5 Y96.575 E.01266
G1 X125.5 Y90.862 E.21713
G1 X124.955 Y90.862 E.02071
M73 P1 R71
G1 X124.625 Y90.777 E.01295
G1 X124.401 Y90.58 E.01134
G1 X124.283 Y90.313 E.01109
G1 X124.27 Y90.176 E.00523
G1 X124.27 Y88.133 E.07765
G1 X124.407 Y87.721 E.0165
G1 X124.553 Y87.65 E.00617
;WIDTH:0.465824
G1 X124.699 Y87.579 E.00571
;WIDTH:0.431649
G1 X124.846 Y87.508 E.00528
;WIDTH:0.397473
G1 X124.955 Y87.501 E.00322
;WIDTH:0.39137
G1 X129.944 Y87.501 E.14455
;WIDTH:0.42758
G1 X130.127 Y87.575 E.00631
;WIDTH:0.46379
G1 X130.31 Y87.648 E.00689
;WIDTH:0.499999
G1 X130.493 Y87.721 E.00749
G1 X130.63 Y88.133 E.0165
G1 X130.63 Y90.176 E.07765
G1 X130.548 Y90.5 E.0127
G1 X130.423 Y90.667 E.00793
G1 X130.274 Y90.778 E.00706
G1 X129.944 Y90.862 E.01294
G1 X129.394 Y90.862 E.0209
G1 X129.394 Y96.575 E.21713
G1 X129.314 Y96.898 E.01265
G1 X129.182 Y97.072 E.0083
G1 X128.972 Y97.208 E.00951
G1 X128.709 Y97.261 E.0102
G1 X126.186 Y97.261 E.09589
G1 X125.922 Y97.208 E.01023
G1 X125.739 Y97.089 E.0083
M204 S1000
G1 X126.012 Y96.705 F12000
M204 S600
;TYPE:External perimeter
G1 F1200
G1 X125.957 Y96.575 E.00536
G1 X125.957 Y90.405 E.2345
G1 X124.955 Y90.405 E.03808
G1 X124.795 Y90.34 E.00656
G1 X124.727 Y90.176 E.00675
G1 X124.727 Y88.133 E.07765
G1 X124.772 Y87.995 E.00552
G1 X124.916 Y87.907 E.00641
G1 X129.944 Y87.904 E.1911
G1 X130.127 Y87.995 E.00777
G1 X130.173 Y88.133 E.00553
G1 X130.173 Y90.176 E.07765
G1 X130.104 Y90.34 E.00676
G1 X129.944 Y90.405 E.00656
G1 X128.937 Y90.405 E.03827
G1 X128.937 Y96.575 E.2345
G1 X128.866 Y96.741 E.00686
G1 X128.709 Y96.804 E.00643
G1 X126.186 Y96.804 E.09589
G1 X126.047 Y96.749 E.00568
M204 S1000
G1 E-1.6 F2100
;WIPE_START
G1 F9600
G1 X126.012 Y96.705 E-.01168
G1 X125.957 Y96.575 E-.02933
G1 X125.957 Y94.848 E-.35899
;WIPE_END
G1 X160.331 Y94.686 Z.8 F12000
G1 X198.259 Y94.507
G1 Z.2 F720
G1 E2 F1500
M204 S600
;TYPE:Perimeter
G1 F1200
G1 X198.273 Y94.564 E.00223
G1 X198.305 Y95.059 E.01885
G1 X198.253 Y95.552 E.01884
G1 X198.118 Y96.029 E.01884
G1 X197.903 Y96.476 E.01885
G1 X197.618 Y96.878 E.01873
G1 X197.344 Y97.153 E.01475
G1 X196.857 Y97.514 E.02304
G1 X196.408 Y97.725 E.01886
G1 X195.929 Y97.857 E.01888
G1 X195.435 Y97.905 E.01886
G1 X194.941 Y97.869 E.01882
G1 X194.323 Y97.692 E.02443
G1 X194.005 Y97.548 E.01327
G1 X193.662 Y97.329 E.01547
G1 X193.307 Y97.011 E.01811
G1 X192.982 Y96.612 E.01956
G1 X192.733 Y96.156 E.01975
G1 X192.572 Y95.671 E.01942
G1 X192.499 Y95.144 E.02022
G1 X192.558 Y94.423 E.02749
G1 X192.71 Y93.905 E.02052
G1 X192.999 Y93.366 E.02324
G1 X193.312 Y92.981 E.01886
G1 X193.686 Y92.655 E.01886
G1 X194.109 Y92.397 E.01883
G1 X194.589 Y92.212 E.01955
G1 X195.155 Y92.107 E.02188
G1 X195.553 Y92.099 E.01513
G1 X196.044 Y92.167 E.01884
G1 X196.516 Y92.318 E.01883
G1 X196.957 Y92.546 E.01887
G1 X197.351 Y92.847 E.01884
G1 X197.701 Y93.229 E.01969
G1 X198 Y93.71 E.02153
G1 X198.157 Y94.081 E.01531
G1 X198.245 Y94.448 E.01434
M204 S1000
G1 X197.813 Y94.584 F12000
M204 S600
;TYPE:External perimeter
G1 F1200
G1 X197.818 Y94.603 E.00075
G1 X197.85 Y95.02 E.0159
G1 X197.811 Y95.436 E.01588
G1 X197.702 Y95.84 E.0159
G1 X197.525 Y96.219 E.0159
G1 X197.288 Y96.562 E.01585
G1 X197.064 Y96.792 E.0122
G1 X196.654 Y97.104 E.01958
G1 X196.277 Y97.287 E.01593
G1 X195.876 Y97.403 E.01587
G1 X195.46 Y97.449 E.01591
G1 X195.042 Y97.423 E.01592
G1 X194.499 Y97.27 E.02144
G1 X194.251 Y97.163 E.01027
G1 X193.923 Y96.954 E.01478
G1 X193.661 Y96.721 E.01333
G1 X193.345 Y96.333 E.01902
G1 X193.143 Y95.95 E.01646
G1 X193.015 Y95.553 E.01585
G1 X192.957 Y95.124 E.01645
G1 X193.013 Y94.462 E.02525
G1 X193.159 Y94.014 E.01791
G1 X193.359 Y93.647 E.01589
G1 X193.619 Y93.319 E.01591
G1 X193.931 Y93.041 E.01588
G1 X194.285 Y92.819 E.01588
G1 X194.679 Y92.66 E.01615
G1 X195.175 Y92.563 E.01921
G1 X195.499 Y92.553 E.01232
G1 X195.914 Y92.605 E.0159
G1 X196.314 Y92.727 E.01589
G1 X196.687 Y92.916 E.01589
G1 X197.023 Y93.165 E.01589
G1 X197.316 Y93.474 E.01618
G1 X197.583 Y93.899 E.01908
G1 X197.715 Y94.197 E.01239
G1 X197.798 Y94.526 E.0129
M204 S1000
G1 E-1.6 F2100
;WIPE_START
G1 F9600
G1 X197.813 Y94.584 E-.01245
G1 X197.818 Y94.603 E-.00408
G1 X197.85 Y95.02 E-.08691
G1 X197.811 Y95.436 E-.08683
G1 X197.702 Y95.84 E-.08696
G1 X197.525 Y96.219 E-.08693
G1 X197.427 Y96.361 E-.03584
;WIPE_END
G1 X194.524 Y112.229 Z.482 F12000
G1 Z.2 F720
G1 E2 F1500
M204 S600
;TYPE:Perimeter
G1 F1200
G1 X195.05 Y112.119 E.02042
G1 X195.553 Y112.099 E.01913
G1 X196.044 Y112.167 E.01884
G1 X196.516 Y112.318 E.01883
G1 X196.957 Y112.546 E.01887
G1 X197.351 Y112.847 E.01884
G1 X197.701 Y113.229 E.01969
G1 X198 Y113.71 E.02153
G1 X198.157 Y114.081 E.01531
G1 X198.273 Y114.564 E.01888
G1 X198.305 Y115.059 E.01885
G1 X198.253 Y115.552 E.01884
G1 X198.118 Y116.029 E.01884
G1 X197.903 Y116.476 E.01885
G1 X197.618 Y116.878 E.01873
G1 X197.344 Y117.153 E.01475
G1 X196.857 Y117.514 E.02304
G1 X196.408 Y117.725 E.01886
G1 X195.929 Y117.857 E.01888
G1 X195.435 Y117.905 E.01886
G1 X194.941 Y117.869 E.01882
G1 X194.459 Y117.749 E.01888
G1 X194.006 Y117.549 E.01882
G1 X193.601 Y117.281 E.01846
G1 X193.307 Y117.011 E.01517
G1 X192.935 Y116.537 E.0229
G1 X192.71 Y116.095 E.01885
G1 X192.563 Y115.621 E.01886
G1 X192.501 Y115.086 E.02047
G1 X192.558 Y114.423 E.02529
G1 X192.71 Y113.905 E.02052
G1 X192.935 Y113.464 E.01882
G1 X193.246 Y113.05 E.01968
G1 X193.619 Y112.703 E.01936
G1 X194.054 Y112.423 E.01966
G1 X194.468 Y112.251 E.01704
M204 S1000
G1 X194.66 Y112.668 F12000
M204 S600
;TYPE:External perimeter
G1 F1200
G1 X194.679 Y112.66 E.00078
G1 X195.175 Y112.563 E.01921
G1 X195.499 Y112.553 E.01232
G1 X195.914 Y112.605 E.0159
G1 X196.314 Y112.727 E.01589
G1 X196.687 Y112.916 E.01589
G1 X197.023 Y113.165 E.01589
G1 X197.316 Y113.474 E.01618
G1 X197.583 Y113.899 E.01908
G1 X197.715 Y114.197 E.01239
G1 X197.818 Y114.603 E.01592
M73 P1 R70
G1 X197.85 Y115.02 E.0159
G1 X197.811 Y115.436 E.01588
G1 X197.702 Y115.84 E.0159
G1 X197.525 Y116.219 E.0159
G1 X197.288 Y116.562 E.01585
G1 X197.064 Y116.792 E.0122
G1 X196.654 Y117.104 E.01958
G1 X196.277 Y117.287 E.01593
G1 X195.876 Y117.403 E.01587
G1 X195.46 Y117.449 E.01591
G1 X195.042 Y117.423 E.01592
G1 X194.635 Y117.327 E.01589
G1 X194.251 Y117.163 E.01587
G1 X193.903 Y116.938 E.01575
G1 X193.661 Y116.721 E.01235
G1 X193.338 Y116.321 E.01954
G1 X193.143 Y115.95 E.01593
G1 X193.015 Y115.553 E.01585
G1 X192.957 Y115.124 E.01645
G1 X193.013 Y114.462 E.02525
G1 X193.159 Y114.014 E.01791
G1 X193.338 Y113.679 E.01444
G1 X193.619 Y113.319 E.01736
G1 X193.931 Y113.04 E.01591
G1 X194.285 Y112.819 E.01586
G1 X194.604 Y112.69 E.01308
M204 S1000
G1 E-1.6 F2100
;WIPE_START
G1 F9600
G1 X194.66 Y112.668 E-.0125
G1 X194.679 Y112.66 E-.00428
G1 X195.175 Y112.563 E-.10503
G1 X195.499 Y112.553 E-.06736
G1 X195.914 Y112.605 E-.08692
G1 X196.314 Y112.727 E-.08691
G1 X196.473 Y112.807 E-.037
;WIPE_END
G1 X162.099 Y112.649 Z.8 F12000
G1 X55.192 Y112.16
G1 Z.2 F720
G1 E2 F1500
M204 S600
;TYPE:Perimeter
G1 F1200
G1 X55.244 Y112.167 E.00199
G1 X55.716 Y112.318 E.01883
G1 X56.157 Y112.546 E.01887
G1 X56.659 Y112.959 E.02471
G1 X56.901 Y113.229 E.01378
G1 X57.175 Y113.66 E.01941
G1 X57.357 Y114.081 E.01743
G1 X57.473 Y114.564 E.01888
G1 X57.505 Y115.059 E.01885
G1 X57.453 Y115.552 E.01884
G1 X57.318 Y116.029 E.01884
G1 X57.16 Y116.374 E.01442
G1 X56.818 Y116.878 E.02315
G1 X56.544 Y117.153 E.01475
G1 X56.057 Y117.514 E.02304
G1 X55.608 Y117.725 E.01886
G1 X55.129 Y117.857 E.01888
G1 X54.635 Y117.905 E.01886
G1 X54.141 Y117.869 E.01882
G1 X53.66 Y117.749 E.01884
G1 X53.206 Y117.549 E.01885
G1 X52.801 Y117.281 E.01846
G1 X52.507 Y117.011 E.01517
G1 X52.135 Y116.537 E.0229
G1 X51.91 Y116.095 E.01885
G1 X51.763 Y115.621 E.01886
G1 X51.701 Y115.086 E.02047
G1 X51.758 Y114.423 E.02529
G1 X51.91 Y113.905 E.02052
G1 X52.199 Y113.366 E.02324
G1 X52.512 Y112.981 E.01886
G1 X52.886 Y112.655 E.01886
G1 X53.309 Y112.397 E.01883
G1 X53.789 Y112.212 E.01955
G1 X54.355 Y112.107 E.02188
G1 X54.753 Y112.099 E.01513
G1 X55.133 Y112.151 E.01458
M204 S1000
G1 X55.098 Y112.603 F12000
