; generated by PrusaSlicer 2.9.3 on 2025-10-15 at 17:54:51 UTC

; 

; external perimeters extrusion width = 0.45mm
; perimeters extrusion width = 0.45mm
; infill extrusion width = 0.45mm
; solid infill extrusion width = 0.45mm
; top infill extrusion width = 0.42mm
; first layer extrusion width = 0.50mm

M73 P0 R1

EXCLUDE_OBJECT_DEFINE NAME='board_offsets_x4_stl' CENTER=125.000,105.000 POLYGON=[[125.089,101.601],[125.798,101.695],[126.362,101.885],[126.983,102.239],[127.517,102.715],[127.939,103.291],[128.192,103.831],[128.366,104.524],[128.397,105.119],[128.297,105.827],[128.102,106.390],[127.743,107.008],[127.350,107.456],[126.885,107.829],[126.252,108.161],[125.681,108.331],[124.970,108.400],[124.260,108.319],[123.692,108.138],[123.164,107.862],[122.606,107.415],[122.154,106.861],[121.828,106.225],[121.642,105.535],[121.600,104.940],[121.663,104.348],[121.873,103.665],[122.154,103.139],[122.606,102.585],[123.164,102.138],[123.692,101.862],[124.376,101.658]]

;TYPE:Custom
G90 ; use absolute coordinates
M83 ; extruder relative mode
M104 S170 ; preheat hotend to 170
M140 S65 ; set bed temp
M190 S65 ; wait for bed temp
G28 ; home all
;G29 ; mesh bed leveling
BED_MESH_CALIBRATE
G0 X0 Z0.6 Y-3.0 F1000.0 ; go outside print area for intro line
M104 S215 ; set hotend temp
M109 S215 ; wait for hotend temp
;M104 S0 ; Stops PS/SS from sending temp waits separately
;M140 S0
;PRINT_START BED=65 HOTEND=215
G92 E0.0
G1 X60.0 E9.0 F1000.0 ; intro line
G1 X100.0 E12.5 F1000.0 ; intro line
M73 P6 R0
G92 E0.0
SKEW_PROFILE LOAD=CaliFlower
G21 ; set units to millimeters
G90 ; use absolute coordinates
M83 ; use relative distances for extrusion
M900 K0.05 ; Filament gcode



M142 S36 ; set heatbreak target temp
M107
;LAYER_CHANGE
;Z:0.2
;HEIGHT:0.2
G1 E-2 F2100
M73 P9 R0
G1 Z.8 F720
M73 P10 R0
EXCLUDE_OBJECT_START NAME='board_offsets_x4_stl'
G1 X124.965 Y102.852 F12000
G1 Z.2 F720
M73 P11 R0
G1 E2 F1500
M204 S600
;TYPE:External perimeter
;WIDTH:0.499999
G1 F1200
G1 X124.978 Y102.851 E.0005
G1 X125.416 Y102.898 E.01674
G1 X125.85 Y103.035 E.0173
G1 X126.25 Y103.263 E.0175
G1 X126.526 Y103.497 E.01375
G1 X126.759 Y103.773 E.01373
G1 X126.981 Y104.183 E.01772
G1 X127.093 Y104.522 E.01357
G1 X127.144 Y104.985 E.0177
G1 X127.121 Y105.342 E.0136
G1 X126.994 Y105.791 E.01773
G1 X126.826 Y106.132 E.01445
G1 X126.557 Y106.479 E.01669
G1 X126.208 Y106.773 E.01734
G1 X125.801 Y106.988 E.01749
G1 X125.461 Y107.098 E.01358
G1 X125.002 Y107.145 E.01754
G1 X124.544 Y107.094 E.01751
M73 P12 R0
G1 X124.197 Y106.991 E.01376
G1 X123.845 Y106.813 E.01499
G1 X123.504 Y106.542 E.01655
G1 X123.259 Y106.262 E.01414
G1 X123.028 Y105.857 E.01772
G1 X122.897 Y105.439 E.01665
G1 X122.854 Y104.985 E.01733
G1 X122.909 Y104.527 E.01753
G1 X123.012 Y104.186 E.01354
G1 X123.237 Y103.777 E.01774
G1 X123.468 Y103.493 E.01391
G1 X123.794 Y103.221 E.01614
G1 X124.167 Y103.019 E.01612
G1 X124.583 Y102.892 E.01653
G1 X124.905 Y102.858 E.01231
M204 S1000
G1 X124.968 Y102.461 F12000
M204 S600
;TYPE:Perimeter
;WIDTH:0.379306
G1 F1200
G1 X125.406 Y102.49 E.01228
;WIDTH:0.375562
G1 X125.89 Y102.62 E.01386
;WIDTH:0.373608
G1 X126.341 Y102.842 E.01382
;WIDTH:0.378006
G1 X126.741 Y103.146 E.014
;WIDTH:0.381122
G1 X127.073 Y103.523 E.01413
G1 X127.321 Y103.961 E.01415
;WIDTH:0.38683
G1 X127.489 Y104.463 E.01514
;WIDTH:0.389206
G1 X127.545 Y105.005 E.01569
G1 X127.524 Y105.315 E.00895
;WIDTH:0.37732
G1 X127.41 Y105.805 E.01399
;WIDTH:0.378178
G1 X127.207 Y106.264 E.01399
G1 X126.914 Y106.672 E.014
M73 P13 R0
;WIDTH:0.373672
G1 X126.547 Y107.015 E.01382
;WIDTH:0.372166
G1 X126.121 Y107.28 E.01373
;WIDTH:0.376808
G1 X125.651 Y107.458 E.01395
G1 X125.155 Y107.536 E.01394
;WIDTH:0.37189
G1 X124.653 Y107.517 E.01374
;WIDTH:0.376586
G1 X124.165 Y107.402 E.01391
;WIDTH:0.37878
G1 X123.708 Y107.192 E.01405
G1 X123.304 Y106.894 E.01402
;WIDTH:0.38012
G1 X122.962 Y106.525 E.01411
G1 X122.704 Y106.094 E.01408
;WIDTH:0.375558
G1 X122.535 Y105.621 E.01389
;WIDTH:0.37368
G1 X122.461 Y105.124 E.01382
;WIDTH:0.372224
G1 X122.487 Y104.623 E.01374
;WIDTH:0.376848
G1 X122.608 Y104.136 E.01393
G1 X122.826 Y103.683 E.01396
;WIDTH:0.377728
G1 X123.125 Y103.28 E.01397
;WIDTH:0.380674
G1 X123.499 Y102.944 E.01412
G1 X123.934 Y102.691 E.01413
;WIDTH:0.37616
G1 X124.409 Y102.528 E.01392
;WIDTH:0.379306
G1 X124.904 Y102.457 E.01399
G1 X124.908 Y102.457 E.00011
M204 S1000
G1 X124.971 Y102.063 F12000
M204 S600
;TYPE:External perimeter
;WIDTH:0.499999
G1 F1200
G1 X125.039 Y102.058 E.00259
G1 X125.631 Y102.124 E.02264
G1 X126.218 Y102.32 E.02352
G1 X126.751 Y102.632 E.02347
M73 P14 R0
G1 X127.134 Y102.97 E.01941
G1 X127.456 Y103.376 E.01969
G1 X127.743 Y103.928 E.02365
G1 X127.887 Y104.42 E.01948
G1 X127.945 Y105.04 E.02367
G1 X127.893 Y105.55 E.01948
G1 X127.713 Y106.147 E.0237
G1 X127.458 Y106.618 E.02036
G1 X127.079 Y107.084 E.02283
G1 X126.597 Y107.473 E.02354
G1 X126.047 Y107.753 E.02346
G1 X125.554 Y107.892 E.01947
G1 X124.932 Y107.944 E.02372
G1 X124.319 Y107.866 E.02349
G1 X123.834 Y107.706 E.01941
G1 X123.354 Y107.439 E.02088
G1 X122.897 Y107.064 E.02247
G1 X122.544 Y106.618 E.02162
G1 X122.27 Y106.1 E.02227
G1 X122.102 Y105.524 E.0228
G1 X122.056 Y104.906 E.02355
M73 P15 R0
G1 X122.14 Y104.294 E.02348
G1 X122.306 Y103.809 E.01948
G1 X122.616 Y103.269 E.02366
G1 X122.953 Y102.881 E.01953
G1 X123.411 Y102.526 E.02202
G1 X123.933 Y102.258 E.0223
G1 X124.499 Y102.097 E.02236
G1 X124.912 Y102.067 E.01574
M204 S1000
M106 S127.5
;LAYER_CHANGE
;Z:0.4
;HEIGHT:0.2
;BEFORE_LAYER_CHANGE
G92 E0.0
;0.4


G1 E-1.6 F2100
;WIPE_START
G1 F9600
G1 X124.971 Y102.063 E-.01229
G1 X125.039 Y102.058 E-.01417
G1 X125.631 Y102.124 E-.12379
G1 X126.218 Y102.32 E-.12861
G1 X126.721 Y102.614 E-.12114
;WIPE_END
G1 X126.721 Y102.614 Z.2 F12000
G1 X125.2 Y102.685 Z.4 F5527.271
;AFTER_LAYER_CHANGE
;0.4
;@SNAPSHOT
M104 S225 ; set temperature
G1 X125.2 Y102.685 F12000
G1 Z.4 F720
G1 E2 F1500
;TYPE:Perimeter
;WIDTH:0.465544
G1 F2100
G1 X125.459 Y102.713 E.00915
;WIDTH:0.466408
G1 X125.937 Y102.864 E.01765
G1 X126.281 Y103.049 E.01375
;WIDTH:0.466138
G1 X126.671 Y103.373 E.01784
G1 X126.921 Y103.673 E.01374
;WIDTH:0.465207
G1 X127.158 Y104.113 E.01755
;WIDTH:0.466231
G1 X127.297 Y104.594 E.01762
M73 P16 R0
G1 X127.334 Y104.988 E.01393
;WIDTH:0.46528
G1 X127.301 Y105.406 E.01473
;WIDTH:0.464612
G1 X127.165 Y105.874 E.01709
G1 X126.966 Y106.261 E.01526
;WIDTH:0.463112
G1 X126.68 Y106.624 E.01615
;WIDTH:0.464212
G1 X126.305 Y106.937 E.01711
;WIDTH:0.46556
G1 X125.861 Y107.169 E.01761
G1 X125.484 Y107.286 E.01387
;WIDTH:0.464423
G1 X124.99 Y107.335 E.0174
;WIDTH:0.465715
G1 X124.493 Y107.278 E.01759
G1 X124.12 Y107.165 E.0137
;WIDTH:0.465198
G1 X123.673 Y106.921 E.01788
G1 X123.356 Y106.66 E.01442
;WIDTH:0.462649
G1 X123.061 Y106.304 E.01614
;WIDTH:0.462445
G1 X122.843 Y105.898 E.01608
;WIDTH:0.463041
G1 X122.708 Y105.456 E.01614
;WIDTH:0.464174
G1 X122.664 Y104.971 E.01706
;WIDTH:0.465534
G1 X122.726 Y104.474 E.0176
G1 X122.845 Y104.095 E.01396
;WIDTH:0.46413
G1 X123.066 Y103.691 E.01613
;WIDTH:0.462968
G1 X123.36 Y103.335 E.01613
G1 X123.72 Y103.047 E.0161
;WIDTH:0.461077
G1 X124.129 Y102.833 E.01605
;WIDTH:0.46333
G1 X124.569 Y102.703 E.01604
G1 X124.994 Y102.663 E.01492
;WIDTH:0.465544
G1 X125.141 Y102.679 E.0052
G1 X125.165 Y103.096 F12000
M204 S800
;TYPE:External perimeter
;WIDTH:0.449999
G1 F2089.964
G1 X125.363 Y103.116 E.00674
G1 F2088.355
G1 X125.763 Y103.241 E.01419
G1 X126.036 Y103.384 E.01043
G1 F2089.321
G1 X126.365 Y103.654 E.01441
G1 X126.566 Y103.887 E.01042
G1 F2091.093
G1 X126.768 Y104.254 E.01418
G1 F2089.026
G1 X126.886 Y104.656 E.01418
G1 X126.92 Y104.968 E.01062
G1 F2094.185
G1 X126.899 Y105.304 E.0114
G1 F2096.161
G1 X126.791 Y105.696 E.01376
G1 X126.635 Y106.013 E.01196
G1 F2099.262
G1 X126.404 Y106.315 E.01287
G1 F2096.026
G1 X126.095 Y106.58 E.01378
G1 F2091.32
G1 X125.725 Y106.777 E.01419
G1 X125.428 Y106.876 E.0106
G1 F2095.105
G1 X125.016 Y106.921 E.01403
G1 F2090.488
G1 X124.599 Y106.877 E.01419
G1 X124.303 Y106.793 E.01041
G1 F2093.302
G1 X123.926 Y106.592 E.01446
G1 X123.667 Y106.388 E.01116
G1 F2099.259
G1 X123.42 Y106.099 E.01287
G1 X123.235 Y105.767 E.01286
G1 X123.118 Y105.405 E.01288
M73 P17 R0
G1 F2096.189
G1 X123.077 Y105.002 E.01371
G1 F2091.482
G1 X123.125 Y104.586 E.01417
G1 X123.214 Y104.282 E.01072
G1 F2098.738
G1 X123.389 Y103.946 E.01282
G1 X123.628 Y103.65 E.01288
G1 X123.92 Y103.407 E.01286
G1 X124.254 Y103.226 E.01286
G1 X124.617 Y103.114 E.01286
G1 X124.971 Y103.076 E.01205
G1 F2089.964
G1 X125.105 Y103.09 E.00456
M204 S1000
G1 X124.97 Y102.25 F12000
;TYPE:Perimeter
;WIDTH:0.46333
G1 F2100
G1 X125.026 Y102.245 E.00197
;WIDTH:0.465544
G1 X125.573 Y102.306 E.01934
;WIDTH:0.466408
G1 X126.09 Y102.47 E.0191
G1 X126.54 Y102.716 E.01806
;WIDTH:0.466138
G1 X126.963 Y103.067 E.01934
G1 X127.287 Y103.464 E.01803
;WIDTH:0.465207
G1 X127.56 Y103.983 E.02059
;WIDTH:0.466231
G1 X127.717 Y104.544 E.02051
G1 X127.756 Y105.018 E.01674
;WIDTH:0.46528
G1 X127.706 Y105.516 E.01758
;WIDTH:0.464612
G1 X127.543 Y106.061 E.01995
G1 X127.298 Y106.516 E.01812
;WIDTH:0.463112
G1 X126.954 Y106.942 E.01913
;WIDTH:0.464212
G1 X126.509 Y107.305 E.02012
;WIDTH:0.46556
G1 X126.028 Y107.556 E.01907
G1 X125.533 Y107.704 E.01816
;WIDTH:0.464423
G1 X124.953 Y107.755 E.02041
;WIDTH:0.465715
G1 X124.414 Y107.692 E.01908
G1 X123.926 Y107.538 E.01799
;WIDTH:0.465198
G1 X123.425 Y107.264 E.02005
G1 X123.035 Y106.931 E.01801
;WIDTH:0.464452
G1 X122.679 Y106.487 E.01995
G1 X122.444 Y106.025 E.01817
;WIDTH:0.463041
G1 X122.29 Y105.501 E.01908
;WIDTH:0.464174
G1 X122.245 Y104.93 E.02006
;WIDTH:0.465534
G1 X122.312 Y104.391 E.01909
G1 X122.472 Y103.9 E.01815
;WIDTH:0.46413
G1 X122.74 Y103.43 E.01895
;WIDTH:0.462968
G1 X123.09 Y103.014 E.01899
G1 X123.519 Y102.681 E.01897
;WIDTH:0.461077
G1 X124.005 Y102.433 E.01897
M73 P18 R0
;WIDTH:0.46333
G1 X124.525 Y102.285 E.0189
G1 X124.91 Y102.255 E.0135
G1 X124.973 Y101.841 F12000
M204 S800
;TYPE:External perimeter
;WIDTH:0.449999
G1 F2100
G1 X125.067 Y101.834 E.00319
G1 X125.698 Y101.91 E.02151
G1 X126.327 Y102.122 E.02247
G1 X126.805 Y102.397 E.01867
G1 X127.313 Y102.834 E.02268
G1 X127.653 Y103.268 E.01866
G1 X127.958 Y103.868 E.02278
G1 X128.13 Y104.508 E.02243
G1 X128.169 Y105.055 E.01856
G1 X128.104 Y105.631 E.01962
G1 X127.912 Y106.25 E.02194
G1 X127.622 Y106.771 E.02018
G1 X127.218 Y107.26 E.02147
G1 X126.701 Y107.672 E.02238
G1 X126.109 Y107.969 E.02242
G1 X125.573 Y108.116 E.01881
G1 X124.906 Y108.166 E.02264
G1 X124.249 Y108.079 E.02243
G1 X123.727 Y107.902 E.01866
G1 X123.145 Y107.57 E.02268
G1 X122.715 Y107.192 E.01938
G1 X122.314 Y106.682 E.02196
G1 X122.048 Y106.146 E.02025
G1 X121.878 Y105.537 E.0214
G1 X121.834 Y104.879 E.02232
G1 X121.927 Y104.223 E.02243
G1 X122.106 Y103.705 E.01855
G1 X122.42 Y103.169 E.02103
G1 X122.827 Y102.695 E.02115
G1 X123.322 Y102.319 E.02104
G1 X123.888 Y102.038 E.02139
G1 X124.486 Y101.873 E.021
M73 P19 R0
G1 X124.913 Y101.845 E.01448
M204 S1000
M106 S255
;LAYER_CHANGE
;Z:0.6
;HEIGHT:0.2
;BEFORE_LAYER_CHANGE
G92 E0.0
;0.6


G1 E-1.6 F2100
;WIPE_START
G1 F9600
G1 X124.973 Y101.841 E-.0125
G1 X125.067 Y101.834 E-.01959
G1 X125.698 Y101.91 E-.13208
G1 X126.327 Y102.122 E-.13794
G1 X126.735 Y102.357 E-.09789
;WIPE_END
G1 X126.735 Y102.357 Z.4 F12000
G1 X125.2 Y102.686 Z.6 F5695.758
;AFTER_LAYER_CHANGE
;0.6
;@SNAPSHOT
G1 X125.2 Y102.686 F12000
G1 Z.6 F720
G1 E2 F1500
;TYPE:Perimeter
;WIDTH:0.465567
G1 F2100
G1 X125.459 Y102.713 E.00915
;WIDTH:0.465943
G1 X125.93 Y102.862 E.01738
;WIDTH:0.46659
G1 X126.365 Y103.11 E.01764
G1 X126.666 Y103.367 E.01394
;WIDTH:0.466342
G1 X126.921 Y103.672 E.014
;WIDTH:0.465206
G1 X127.158 Y104.113 E.01758
;WIDTH:0.466231
G1 X127.297 Y104.594 E.01762
G1 X127.334 Y104.989 E.01396
;WIDTH:0.465368
G1 X127.3 Y105.406 E.0147
;WIDTH:0.463991
G1 X127.168 Y105.868 E.01682
;WIDTH:0.465405
G1 X126.932 Y106.31 E.0176
G1 X126.68 Y106.624 E.01414
;WIDTH:0.464212
G1 X126.305 Y106.937 E.01711
;WIDTH:0.465561
G1 X125.861 Y107.169 E.01761
G1 X125.484 Y107.286 E.01387
;WIDTH:0.464422
G1 X124.99 Y107.335 E.0174
;WIDTH:0.465714
G1 X124.493 Y107.278 E.01759
G1 X124.113 Y107.162 E.01397
;WIDTH:0.464426
G1 X123.714 Y106.95 E.01584
;WIDTH:0.462649
G1 X123.356 Y106.66 E.01608
G1 X123.134 Y106.402 E.01188
;WIDTH:0.460954
G1 X122.843 Y105.898 E.02023
;WIDTH:0.463943
G1 X122.706 Y105.446 E.01653
M73 P20 R0
;WIDTH:0.46421
G1 X122.664 Y104.972 E.01667
;WIDTH:0.465537
G1 X122.726 Y104.474 E.01764
G1 X122.845 Y104.096 E.01393
;WIDTH:0.464968
G1 X123.089 Y103.658 E.0176
G1 X123.36 Y103.335 E.0148
;WIDTH:0.463117
G1 X123.72 Y103.047 E.01611
;WIDTH:0.461077
G1 X124.129 Y102.833 E.01605
;WIDTH:0.463283
G1 X124.567 Y102.703 E.01597
;WIDTH:0.463517
G1 X124.984 Y102.663 E.01465
;WIDTH:0.465567
G1 X125.141 Y102.68 E.00555
G1 X125.165 Y103.097 F12000
M204 S800
;TYPE:External perimeter
;WIDTH:0.449999
G1 F2089.986
G1 X125.362 Y103.116 E.0067
G1 F2088.651
G1 X125.756 Y103.238 E.01396
G1 F2087.074
G1 X126.12 Y103.445 E.01417
G1 X126.36 Y103.648 E.01064
G1 F2089.622
G1 X126.566 Y103.887 E.01068
G1 F2091.09
G1 X126.768 Y104.254 E.01418
G1 F2089.026
G1 X126.886 Y104.656 E.01418
G1 X126.92 Y104.969 E.01066
G1 F2094.029
G1 X126.899 Y105.304 E.01136
G1 F2096.936
G1 X126.794 Y105.69 E.01354
G1 F2092.218
G1 X126.6 Y106.061 E.01417
G1 X126.404 Y106.315 E.01086
G1 F2096.024
G1 X126.095 Y106.58 E.01378
G1 F2091.32
G1 X125.725 Y106.777 E.01419
G1 X125.428 Y106.876 E.0106
G1 F2095.108
G1 X125.016 Y106.921 E.01403
G1 F2090.489
G1 X124.599 Y106.877 E.01419
G1 X124.296 Y106.79 E.01067
G1 F2098.024
G1 X123.966 Y106.623 E.01252
G1 F2099.26
G1 X123.667 Y106.388 E.01287
G1 X123.443 Y106.132 E.01151
G1 F2092.635
G1 X123.217 Y105.714 E.01608
G1 X123.117 Y105.394 E.01135
G1 F2096.37
G1 X123.077 Y105.003 E.0133
G1 F2091.471
G1 X123.125 Y104.585 E.01424
G1 X123.214 Y104.284 E.01062
G1 F2094.404
G1 X123.415 Y103.914 E.01425
G1 X123.628 Y103.65 E.01148
G1 F2099.259
G1 X123.92 Y103.407 E.01286
G1 X124.254 Y103.226 E.01286
G1 X124.616 Y103.114 E.01283
G1 F2098.239
G1 X124.963 Y103.077 E.01181
G1 F2089.986
G1 X125.105 Y103.091 E.00483
M204 S1000
G1 X124.97 Y102.259 F12000
;TYPE:Perimeter
;WIDTH:0.459895
G1 F2100
G1 X125.446 Y102.286 E.01653
G1 X125.972 Y102.429 E.0189
;WIDTH:0.458511
G1 X126.46 Y102.672 E.01884
M73 P21 R0
;WIDTH:0.466342
G1 X126.961 Y103.064 E.0224
G1 X127.287 Y103.464 E.01817
;WIDTH:0.465206
G1 X127.56 Y103.983 E.02059
;WIDTH:0.466231
G1 X127.709 Y104.504 E.01907
G1 X127.756 Y105.018 E.01817
;WIDTH:0.465368
G1 X127.73 Y105.345 E.01152
;WIDTH:0.4594
G1 X127.607 Y105.869 E.01864
;WIDTH:0.456801
G1 X127.378 Y106.376 E.01915
;WIDTH:0.459244
G1 X127.068 Y106.816 E.01863
G1 X126.672 Y107.181 E.01864
;WIDTH:0.456635
G1 X126.198 Y107.472 E.01913
;WIDTH:0.459103
G1 X125.695 Y107.663 E.01862
G1 X125.162 Y107.743 E.01865
;WIDTH:0.456473
G1 X124.607 Y107.719 E.0191
;WIDTH:0.458961
G1 X124.083 Y107.595 E.01863
;WIDTH:0.460169
G1 X123.611 Y107.377 E.01804
G1 X123.177 Y107.057 E.01871
;WIDTH:0.457624
G1 X122.8 Y106.648 E.01918
;WIDTH:0.456832
G1 X122.514 Y106.171 E.01914
;WIDTH:0.458319
G1 X122.329 Y105.661 E.01874
G1 X122.254 Y105.129 E.01856
;WIDTH:0.457106
G1 X122.285 Y104.578 E.01901
;WIDTH:0.459127
G1 X122.415 Y104.055 E.01865
G1 X122.652 Y103.572 E.01862
;WIDTH:0.459627
G1 X122.972 Y103.139 E.01866
;WIDTH:0.461084
G1 X123.358 Y102.789 E.01812
G1 X123.822 Y102.516 E.01872
;WIDTH:0.458598
G1 X124.346 Y102.33 E.01922
;WIDTH:0.45898
G1 X124.853 Y102.253 E.01774
;WIDTH:0.459895
G1 X124.91 Y102.256 E.00198
G1 X124.973 Y101.838 F12000
M204 S800
;TYPE:External perimeter
;WIDTH:0.449999
G1 F2100
G1 X125.057 Y101.832 E.00285
G1 X125.697 Y101.91 E.02182
G1 X126.329 Y102.125 E.0226
G1 X126.899 Y102.463 E.02243
G1 X127.308 Y102.828 E.01856
G1 X127.652 Y103.268 E.0189
G1 X127.958 Y103.868 E.0228
G1 X128.13 Y104.508 E.02243
M73 P22 R0
G1 X128.169 Y105.055 E.01856
G1 X128.103 Y105.63 E.01959
G1 X127.909 Y106.253 E.02209
G1 X127.586 Y106.832 E.02244
G1 X127.218 Y107.26 E.01911
G1 X126.701 Y107.672 E.02238
G1 X126.109 Y107.969 E.02242
G1 X125.573 Y108.116 E.01881
