; generated by PrusaSlicer 2.9.3 on 2025-10-15 at 17:54:52 UTC

; 

; external perimeters extrusion width = 0.45mm
; perimeters extrusion width = 0.45mm
; infill extrusion width = 0.45mm
; solid infill extrusion width = 0.45mm
; top infill extrusion width = 0.42mm
; first layer extrusion width = 0.50mm

M73 P0 R11

EXCLUDE_OBJECT_DEFINE NAME='pulley_tool_stl' CENTER=125.002,104.999 POLYGON=[[119.185,83.885],[119.891,84.086],[120.347,84.398],[120.700,84.824],[120.924,85.329],[121.000,85.877],[121.037,89.545],[121.231,90.340],[121.582,91.078],[122.270,91.923],[122.922,92.418],[123.921,92.852],[124.727,92.991],[125.814,92.916],[126.840,92.552],[127.730,91.923],[128.418,91.078],[128.769,90.340],[128.963,89.545],[129.034,85.509],[129.300,84.824],[129.795,84.280],[130.278,84.012],[130.815,83.885],[133.101,83.911],[133.625,84.086],[134.081,84.398],[134.330,84.671],[134.599,85.154],[134.734,85.877],[134.734,124.123],[134.599,124.846],[134.330,125.329],[133.939,125.720],[133.456,125.988],[132.919,126.115],[130.815,126.115],[130.109,125.914],[129.522,125.471],[129.210,125.015],[129.034,124.491],[128.991,120.727],[128.852,119.921],[128.552,119.160],[127.923,118.270],[127.078,117.582],[126.079,117.148],[125.273,117.009],[124.186,117.084],[123.160,117.448],[122.270,118.077],[121.582,118.922],[121.231,119.660],[121.037,120.455],[120.966,124.491],[120.700,125.176],[120.205,125.720],[119.722,125.988],[119.185,126.115],[116.899,126.089],[116.375,125.914],[115.919,125.601],[115.670,125.329],[115.401,124.846],[115.266,124.123],[115.275,85.692],[115.401,85.154],[115.670,84.671],[115.919,84.398],[116.375,84.086],[117.081,83.885]]

;TYPE:Custom
G90 ; use absolute coordinates
M83 ; extruder relative mode
M104 S170 ; preheat hotend to 170
M140 S65 ; set bed temp
M190 S65 ; wait for bed temp
G28 ; home all
;G29 ; mesh bed leveling
BED_MESH_CALIBRATE
G0 X0 Z0.6 Y-3.0 F1000.0 ; go outside print area for intro line
M104 S215 ; set hotend temp
M109 S215 ; wait for hotend temp
;M104 S0 ; Stops PS/SS from sending temp waits separately
;M140 S0
;PRINT_START BED=65 HOTEND=215
G92 E0.0
G1 X60.0 E9.0 F1000.0 ; intro line
G1 X100.0 E12.5 F1000.0 ; intro line
G92 E0.0
SKEW_PROFILE LOAD=CaliFlower
G21 ; set units to millimeters
G90 ; use absolute coordinates
M83 ; use relative distances for extrusion
M900 K0.05 ; Filament gcode



M142 S36 ; set heatbreak target temp
M107
;LAYER_CHANGE
;Z:0.2
;HEIGHT:0.2
G1 E-2 F2100
G1 Z.8 F720
EXCLUDE_OBJECT_START NAME='pulley_tool_stl'
G1 X124.656 Y114.697 F12000
G1 Z.2 F720
M73 P1 R11
G1 E2 F1500
M204 S600
;TYPE:Perimeter
;WIDTH:0.499999
G1 F1200
G1 X124.496 Y114.701 E.00608
G1 X123.699 Y114.816 E.0306
G1 X122.933 Y115.029 E.03022
G1 X122.202 Y115.338 E.03016
G1 X121.215 Y115.94 E.04394
G1 X120.602 Y116.462 E.0306
G1 X120.062 Y117.058 E.03057
G1 X119.581 Y117.755 E.03219
G1 X119.085 Y118.786 E.04348
G1 X118.772 Y119.95 E.04581
G1 X118.679 Y120.992 E.03976
G1 X118.672 Y123.794 E.10649
G1 X117.587 Y123.792 E.04124
G1 X117.595 Y86.198 E1.42881
G1 X118.679 Y86.199 E.0412
G1 X118.682 Y89.106 E.11048
G1 X118.745 Y89.897 E.03016
G1 X118.91 Y90.671 E.03008
G1 X119.313 Y91.754 E.04392
G1 X119.74 Y92.495 E.0325
G1 X120.462 Y93.398 E.04394
G1 X121.058 Y93.938 E.03057
G1 X121.718 Y94.399 E.0306
G1 X122.422 Y94.769 E.03023
G1 X123.118 Y95.032 E.02828
G1 X123.9 Y95.222 E.03059
G1 X124.496 Y95.299 E.02284
G1 X125.002 Y95.312 E.01924
G1 X125.504 Y95.299 E.01909
G1 X126.301 Y95.184 E.0306
G1 X127.067 Y94.971 E.03022
G1 X127.798 Y94.662 E.03016
G1 X128.785 Y94.06 E.04394
G1 X129.398 Y93.538 E.0306
G1 X129.938 Y92.942 E.03057
G1 X130.419 Y92.245 E.03219
G1 X130.915 Y91.214 E.04348
G1 X131.228 Y90.05 E.04581
G1 X131.321 Y89.008 E.03976
G1 X131.328 Y86.206 E.10649
G1 X132.413 Y86.208 E.04124
G1 X132.413 Y123.801 E1.42877
G1 X131.328 Y123.796 E.04124
G1 X131.321 Y120.992 E.10657
G1 X131.255 Y120.103 E.03388
G1 X131.09 Y119.329 E.03008
G1 X130.662 Y118.202 E.04582
G1 X130.06 Y117.215 E.04394
G1 X129.538 Y116.602 E.0306
G1 X128.942 Y116.062 E.03057
G1 X128.282 Y115.601 E.0306
G1 X127.578 Y115.231 E.03023
G1 X126.882 Y114.968 E.02828
G1 X126.1 Y114.778 E.03059
G1 X125.504 Y114.701 E.02284
G1 X125.002 Y114.688 E.01909
M73 P2 R11
G1 X124.716 Y114.696 E.01087
M204 S1000
G1 X124.671 Y115.153 F12000
M204 S600
G1 F1200
G1 X124.554 Y115.155 E.00445
G1 X123.815 Y115.259 E.02836
G1 X123.101 Y115.454 E.02813
G1 X122.433 Y115.732 E.0275
G1 X121.506 Y116.293 E.04118
G1 X120.936 Y116.775 E.02837
G1 X120.432 Y117.326 E.02838
G1 X119.988 Y117.962 E.02948
G1 X119.524 Y118.915 E.04028
G1 X119.227 Y119.993 E.0425
G1 X119.136 Y120.993 E.03816
G1 X119.13 Y123.252 E.08586
G1 X119.103 Y124.19 E.03566
G1 X118.983 Y124.251 E.00512
G1 X117.305 Y124.249 E.06377
G1 X117.18 Y124.199 E.00512
G1 X117.13 Y124.056 E.00576
G1 X117.138 Y85.919 E1.44945
G1 X117.185 Y85.795 E.00504
G1 X117.333 Y85.741 E.00599
G1 X118.882 Y85.742 E.05887
G1 X119.074 Y85.782 E.00745
G1 X119.136 Y85.975 E.0077
G1 X119.138 Y89.077 E.1179
G1 X119.194 Y89.812 E.02802
G1 X119.341 Y90.519 E.02745
G1 X119.715 Y91.536 E.04118
G1 X120.101 Y92.216 E.02972
G1 X120.775 Y93.064 E.04117
G1 X121.326 Y93.568 E.02838
G1 X121.936 Y93.998 E.02837
G1 X122.59 Y94.344 E.02812
G1 X123.233 Y94.59 E.02617
G1 X123.958 Y94.769 E.02838
G1 X124.7 Y94.855 E.02839
G1 X125.446 Y94.845 E.02836
G1 X126.185 Y94.741 E.02836
G1 X126.899 Y94.546 E.02813
G1 X127.567 Y94.268 E.0275
G1 X128.494 Y93.707 E.04118
G1 X129.064 Y93.225 E.02837
G1 X129.568 Y92.674 E.02838
G1 X130.012 Y92.038 E.02948
G1 X130.476 Y91.085 E.04028
G1 X130.773 Y90.007 E.0425
G1 X130.864 Y89.007 E.03816
G1 X130.87 Y86.748 E.08586
G1 X130.897 Y85.81 E.03566
G1 X131.017 Y85.749 E.00512
G1 X132.695 Y85.751 E.06377
G1 X132.82 Y85.801 E.00512
G1 X132.87 Y85.955 E.00615
G1 X132.87 Y124.001 E1.44599
G1 X132.822 Y124.202 E.00785
G1 X132.634 Y124.259 E.00747
G1 X130.934 Y124.226 E.06462
G1 X130.872 Y124.105 E.00517
G1 X130.864 Y120.993 E.11828
G1 X130.806 Y120.188 E.03067
G1 X130.659 Y119.481 E.02745
G1 X130.268 Y118.433 E.04251
G1 X129.707 Y117.506 E.04118
G1 X129.225 Y116.936 E.02837
G1 X128.674 Y116.432 E.02838
G1 X128.064 Y116.002 E.02837
G1 X127.41 Y115.656 E.02812
G1 X126.767 Y115.41 E.02617
G1 X126.042 Y115.231 E.02838
G1 X125.3 Y115.145 E.02839
G1 X124.731 Y115.152 E.02163
M204 S1000
G1 X124.685 Y115.607 F12000
M204 S600
G1 F1200
M73 P3 R11
G1 X124.612 Y115.608 E.00277
G1 X123.93 Y115.701 E.02616
G1 X123.269 Y115.879 E.02602
G1 X122.664 Y116.127 E.02485
G1 X121.797 Y116.645 E.03838
G1 X121.269 Y117.088 E.02619
G1 X120.803 Y117.593 E.02612
G1 X120.395 Y118.17 E.02686
G1 X119.962 Y119.044 E.03707
G1 X119.682 Y120.037 E.03921
G1 X119.593 Y120.995 E.03657
G1 X119.585 Y124.078 E.11717
G1 X119.519 Y124.398 E.01242
G1 X119.376 Y124.575 E.00865
G1 X119.046 Y124.708 E.01352
G1 X117.333 Y124.706 E.0651
G1 X117.007 Y124.649 E.01258
G1 X116.766 Y124.42 E.01264
G1 X116.673 Y124.081 E.01336
G1 X116.681 Y85.815 E1.45435
G1 X116.755 Y85.611 E.00825
G1 X116.969 Y85.376 E.01208
G1 X117.309 Y85.284 E.01339
G1 X118.958 Y85.285 E.06267
G1 X119.279 Y85.373 E.01265
G1 X119.498 Y85.569 E.01117
G1 X119.593 Y85.938 E.01448
G1 X119.593 Y89.004 E.11653
G1 X119.643 Y89.727 E.02754
G1 X119.772 Y90.367 E.02481
G1 X120.116 Y91.317 E.0384
G1 X120.463 Y91.937 E.027
G1 X121.088 Y92.731 E.0384
G1 X121.593 Y93.197 E.02612
G1 X122.155 Y93.596 E.0262
G1 X122.758 Y93.919 E.026
G1 X123.348 Y94.147 E.02404
G1 X124.016 Y94.316 E.02619
G1 X124.7 Y94.398 E.02618
G1 X125.388 Y94.392 E.02615
G1 X126.07 Y94.299 E.02616
G1 X126.731 Y94.121 E.02602
G1 X127.336 Y93.873 E.02485
G1 X128.203 Y93.355 E.03838
G1 X128.731 Y92.912 E.02619
G1 X129.197 Y92.407 E.02612
G1 X129.605 Y91.83 E.02686
G1 X130.038 Y90.956 E.03707
G1 X130.318 Y89.963 E.03921
G1 X130.407 Y89.005 E.03657
G1 X130.415 Y85.922 E.11717
G1 X130.481 Y85.602 E.01242
G1 X130.624 Y85.425 E.00865
G1 X130.954 Y85.292 E.01352
G1 X132.796 Y85.294 E.07001
G1 X133.08 Y85.404 E.01158
G1 X133.274 Y85.677 E.01273
G1 X133.327 Y85.955 E.01076
G1 X133.327 Y124.062 E1.44831
G1 X133.232 Y124.431 E.01448
G1 X133.015 Y124.626 E.01109
G1 X132.672 Y124.716 E.01348
G1 X131.046 Y124.709 E.0618
G1 X130.726 Y124.642 E.01243
G1 X130.549 Y124.5 E.00862
G1 X130.415 Y124.168 E.01361
G1 X130.407 Y120.994 E.12063
G1 X130.357 Y120.273 E.02747
G1 X130.228 Y119.633 E.02481
G1 X129.873 Y118.664 E.03922
G1 X129.355 Y117.797 E.03838
G1 X128.912 Y117.269 E.02619
G1 X128.407 Y116.803 E.02612
G1 X127.845 Y116.404 E.0262
G1 X127.242 Y116.081 E.026
G1 X126.652 Y115.853 E.02404
G1 X125.984 Y115.684 E.02619
G1 X125.3 Y115.602 E.02618
G1 X124.745 Y115.607 E.02109
M204 S1000
G1 X124.7 Y116.061 F12000
M204 S600
;TYPE:External perimeter
G1 F1200
M73 P4 R11
G1 X124.671 Y116.061 E.0011
G1 X124.045 Y116.143 E.024
G1 X123.437 Y116.304 E.0239
G1 X122.895 Y116.521 E.02219
G1 X122.088 Y116.998 E.03563
G1 X121.602 Y117.4 E.02397
G1 X121.173 Y117.861 E.02393
G1 X120.802 Y118.378 E.02418
G1 X120.4 Y119.174 E.03389
G1 X120.137 Y120.081 E.03589
G1 X120.05 Y120.996 E.03493
G1 X120.042 Y124.231 E.12295
G1 X119.94 Y124.586 E.01404
G1 X119.754 Y124.843 E.01206
G1 X119.445 Y125.071 E.01459
G1 X119.109 Y125.165 E.01326
G1 X117.288 Y125.163 E.06921
G1 X116.927 Y125.102 E.01391
G1 X116.622 Y124.949 E.01297
G1 X116.371 Y124.664 E.01443
G1 X116.242 Y124.344 E.01311
G1 X116.216 Y124.105 E.00914
G1 X116.224 Y85.947 E1.45024
G1 X116.277 Y85.531 E.01594
M73 P4 R10
G1 X116.444 Y85.229 E.01312
G1 X116.726 Y84.981 E.01427
G1 X117.045 Y84.852 E.01308
G1 X117.284 Y84.827 E.00913
G1 X118.883 Y84.828 E.06077
G1 X119.35 Y84.89 E.0179
G1 X119.649 Y85.056 E.013
G1 X119.797 Y85.218 E.00834
G1 X119.99 Y85.537 E.01417
G1 X120.05 Y85.9 E.01398
G1 X120.05 Y89.004 E.11797
G1 X120.092 Y89.642 E.0243
G1 X120.203 Y90.215 E.02218
G1 X120.518 Y91.099 E.03567
G1 X120.825 Y91.657 E.02421
G1 X121.401 Y92.398 E.03567
G1 X121.861 Y92.827 E.02391
G1 X122.373 Y93.195 E.02396
G1 X122.926 Y93.494 E.02389
G1 X123.464 Y93.705 E.02196
G1 X124.074 Y93.862 E.02394
G1 X124.7 Y93.941 E.02398
G1 X125.329 Y93.939 E.02391
G1 X125.955 Y93.857 E.024
G1 X126.563 Y93.696 E.0239
G1 X127.105 Y93.479 E.02219
G1 X127.912 Y93.002 E.03563
G1 X128.398 Y92.6 E.02397
G1 X128.827 Y92.139 E.02393
G1 X129.198 Y91.622 E.02418
G1 X129.6 Y90.826 E.03389
G1 X129.863 Y89.919 E.03589
G1 X129.95 Y89.004 E.03493
G1 X129.958 Y85.769 E.12295
G1 X130.06 Y85.414 E.01404
G1 X130.246 Y85.157 E.01206
G1 X130.555 Y84.929 E.01459
G1 X130.891 Y84.835 E.01326
G1 X132.712 Y84.837 E.06921
G1 X133.073 Y84.898 E.01391
G1 X133.378 Y85.051 E.01297
G1 X133.629 Y85.337 E.01446
G1 X133.758 Y85.656 E.01308
G1 X133.784 Y85.955 E.01141
G1 X133.784 Y124.001 E1.44599
G1 X133.745 Y124.338 E.01289
G1 X133.614 Y124.69 E.01427
G1 X133.383 Y124.944 E.01305
G1 X133.085 Y125.109 E.01295
G1 X132.709 Y125.173 E.0145
G1 X130.893 Y125.166 E.06902
G1 X130.538 Y125.063 E.01405
G1 X130.28 Y124.877 E.01209
G1 X130.053 Y124.569 E.01454
G1 X129.958 Y124.232 E.01331
G1 X129.95 Y120.996 E.12299
G1 X129.908 Y120.358 E.0243
G1 X129.797 Y119.785 E.02218
G1 X129.479 Y118.895 E.03592
G1 X129.002 Y118.088 E.03563
G1 X128.6 Y117.602 E.02397
G1 X128.139 Y117.173 E.02393
G1 X127.627 Y116.805 E.02396
G1 X127.074 Y116.506 E.02389
G1 X126.536 Y116.295 E.02196
M73 P5 R10
G1 X125.926 Y116.138 E.02394
G1 X125.3 Y116.059 E.02398
G1 X124.76 Y116.061 E.02052
M204 S1000
G1 E-1.6 F2100
;WIPE_START
G1 F9600
G1 X124.7 Y116.061 E-.01247
G1 X124.671 Y116.061 E-.00603
G1 X124.045 Y116.143 E-.1312
G1 X123.437 Y116.304 E-.1307
G1 X122.903 Y116.518 E-.1196
;WIPE_END
G1 X131.533 Y86.674 Z.742 F12000
G1 Z.2 F720
G1 E2 F1500
M204 S600
;TYPE:Solid infill
;WIDTH:0.505483
G1 F1200
G1 X132.001 Y87.143 E.02548
G1 X132.001 Y87.797 E.02515
G1 X131.736 Y87.532 E.01441
G1 X131.735 Y88.185 E.02512
G1 X132.001 Y88.451 E.01447
G1 X132.001 Y89.106 E.02519
G1 X131.733 Y88.837 E.0146
G1 X131.692 Y89.45 E.02363
G1 X132.001 Y89.76 E.01683
G1 X132.001 Y90.414 E.02515
G1 X131.635 Y90.048 E.01991
G1 X131.617 Y90.247 E.00769
G1 X131.52 Y90.587 E.0136
G1 X132.001 Y91.068 E.02616
G1 X132.001 Y91.722 E.02515
G1 X131.376 Y91.097 E.034
G1 X131.307 Y91.338 E.00964
G1 X131.209 Y91.584 E.01018
G1 X132.001 Y92.376 E.04308
G1 X132.001 Y93.031 E.02519
G1 X130.994 Y92.023 E.0548
G1 X130.772 Y92.455 E.01868
G1 X132.001 Y93.685 E.06688
G1 X132.001 Y94.339 E.02515
G1 X130.513 Y92.85 E.08097
G1 X130.234 Y93.226 E.01801
G1 X132.001 Y94.993 E.09611
G1 X132.001 Y95.647 E.02515
G1 X129.924 Y93.57 E.11298
G1 X129.602 Y93.902 E.01779
G1 X132.001 Y96.301 E.13049
G1 X132.001 Y96.956 E.02519
G1 X129.25 Y94.204 E.14966
G1 X128.884 Y94.492 E.01791
G1 X132.001 Y97.61 E.16957
G1 X132.001 Y98.264 E.02515
G1 X128.478 Y94.74 E.19166
G1 X128.065 Y94.982 E.01841
G1 X132.001 Y98.918 E.21409
G1 X132.001 Y99.572 E.02515
G1 X127.621 Y95.192 E.23825
G1 X127.146 Y95.371 E.01952
G1 X132.001 Y100.226 E.26408
G1 X132.001 Y100.881 E.02519
G1 X126.635 Y95.515 E.29188
G1 X126.103 Y95.637 E.02099
G1 X132.001 Y101.535 E.32082
G1 X132.001 Y102.189 E.02515
G1 X125.521 Y95.709 E.35247
G1 X124.878 Y95.72 E.02473
G1 X132.001 Y102.843 E.38745
G1 X132.001 Y103.497 E.02515
G1 X124.17 Y95.666 E.42596
G1 X123.839 Y95.629 E.01281
G1 X123.365 Y95.515 E.01875
G1 X132.001 Y104.151 E.46975
M73 P6 R10
G1 X132.001 Y104.806 E.02519
G1 X121.948 Y94.752 E.54685
M204 S1000
G1 E-1.6 F2100
;WIPE_START
G1 F9600
G1 X123.309 Y96.113 E-.4
;WIPE_END
G1 X118.474 Y87.354 Z.375 F12000
G1 Z.2 F720
G1 E2 F1500
M204 S600
G1 F1200
G1 X118.006 Y86.886 E.02546
G1 X118.006 Y87.54 E.02515
G1 X118.269 Y87.803 E.01431
G1 X118.27 Y88.458 E.02519
G1 X118.006 Y88.194 E.01436
G1 X118.006 Y88.848 E.02515
G1 X118.271 Y89.113 E.01441
G1 X118.325 Y89.821 E.02731
G1 X118.006 Y89.502 E.01735
G1 X118.006 Y90.156 E.02515
G1 X118.471 Y90.621 E.02529
G1 X118.804 Y91.608 E.04006
G1 X118.006 Y90.81 E.04341
G1 X118.005 Y91.464 E.02515
G1 X132.001 Y105.46 E.7613
G1 X132.001 Y106.114 E.02515
G1 X118.005 Y92.118 E.7613
G1 X118.005 Y92.772 E.02515
G1 X132.001 Y106.768 E.7613
G1 X132.001 Y107.422 E.02515
G1 X118.005 Y93.426 E.7613
G1 X118.005 Y94.08 E.02515
G1 X132.001 Y108.076 E.7613
G1 X132.001 Y108.731 E.02519
M73 P7 R10
G1 X118.005 Y94.734 E.76132
G1 X118.005 Y95.388 E.02515
G1 X132.001 Y109.385 E.76132
G1 X132.001 Y110.039 E.02515
G1 X118.004 Y96.042 E.76135
G1 X118.004 Y96.696 E.02515
G1 X132.001 Y110.693 E.76135
G1 X132.001 Y111.347 E.02515
G1 X118.004 Y97.35 E.76135
G1 X118.004 Y98.004 E.02515
G1 X132.001 Y112.001 E.76135
G1 X132.001 Y112.656 E.02519
M73 P8 R10
G1 X118.004 Y98.658 E.76138
G1 X118.004 Y99.312 E.02515
G1 X132.001 Y113.31 E.76138
G1 X132.001 Y113.964 E.02515
G1 X118.004 Y99.966 E.76138
G1 X118.004 Y100.62 E.02515
G1 X132.001 Y114.618 E.76138
G1 X132.001 Y115.272 E.02515
G1 X118.003 Y101.274 E.76141
G1 X118.003 Y101.928 E.02515
G1 X132.001 Y115.926 E.76141
G1 X132.001 Y116.58 E.02515
G1 X118.003 Y102.582 E.76141
G1 X118.003 Y103.236 E.02515
M73 P9 R10
G1 X132.001 Y117.235 E.76143
G1 X132.001 Y117.889 E.02515
G1 X118.003 Y103.89 E.76143
G1 X118.003 Y104.544 E.02515
G1 X132.001 Y118.543 E.76143
G1 X132.001 Y119.197 E.02515
G1 X131.196 Y118.392 E.04379
G1 X131.529 Y119.379 E.04006
G1 X132.001 Y119.851 E.02567
G1 X132.001 Y120.505 E.02515
G1 X131.676 Y120.18 E.01768
G1 X131.729 Y120.887 E.02727
G1 X132.001 Y121.16 E.01482
G1 X132.001 Y121.814 E.02515
G1 X131.731 Y121.544 E.01469
G1 X131.734 Y122.2 E.02523
G1 X132.001 Y122.468 E.01455
G1 X132.001 Y123.122 E.02515
G1 X131.53 Y122.651 E.02562
M204 S1000
G1 E-1.6 F2100
;WIPE_START
G1 F9600
G1 X132.001 Y123.122 E-.13842
G1 X132.001 Y122.468 E-.13591
G1 X131.734 Y122.2 E-.07862
G1 X131.733 Y121.974 E-.04705
;WIPE_END
G1 X128.047 Y115.243 Z.334 F12000
G1 Z.2 F720
G1 E2 F1500
M204 S600
G1 F1200
G1 X118.003 Y105.198 E.54636
G1 X118.002 Y105.852 E.02515
G1 X126.632 Y114.482 E.46942
G1 X126.157 Y114.37 E.01877
G1 X125.83 Y114.334 E.01265
G1 X118.002 Y106.506 E.4258
G1 X118.002 Y107.16 E.02515
G1 X125.122 Y114.28 E.38728
G1 X124.479 Y114.291 E.02473
M73 P10 R10
G1 X118.002 Y107.814 E.35231
G1 X118.002 Y108.469 E.02519
G1 X123.897 Y114.363 E.32062
G1 X123.365 Y114.485 E.02099
G1 X118.002 Y109.123 E.29169
