; generated by PrusaSlicer 2.9.3 on 2025-10-15 at 17:54:53 UTC

; 

; external perimeters extrusion width = 0.45mm
; perimeters extrusion width = 0.45mm
; infill extrusion width = 0.45mm
; solid infill extrusion width = 0.45mm
; top infill extrusion width = 0.42mm
; first layer extrusion width = 0.50mm

M73 P0 R24

EXCLUDE_OBJECT_DEFINE NAME='solder_tool_stl' CENTER=124.997,105.005 POLYGON=[[131.805,70.513],[132.406,70.619],[132.979,70.828],[133.508,71.133],[133.975,71.525],[134.367,71.992],[134.672,72.521],[134.881,73.094],[134.987,73.695],[135.000,136.000],[134.947,136.608],[134.789,137.197],[134.531,137.750],[133.975,138.475],[133.250,139.031],[132.697,139.289],[132.108,139.447],[131.500,139.500],[118.500,139.500],[117.892,139.447],[117.303,139.289],[116.750,139.031],[116.250,138.681],[115.819,138.250],[115.469,137.750],[115.211,137.197],[115.053,136.608],[115.000,136.000],[115.000,74.000],[115.053,73.392],[115.211,72.803],[115.469,72.250],[116.025,71.525],[116.750,70.969],[117.303,70.711],[117.892,70.553],[118.500,70.500]]

;TYPE:Custom
G90 ; use absolute coordinates
M83 ; extruder relative mode
M104 S170 ; preheat hotend to 170
M140 S65 ; set bed temp
M190 S65 ; wait for bed temp
G28 ; home all
;G29 ; mesh bed leveling
BED_MESH_CALIBRATE
G0 X0 Z0.6 Y-3.0 F1000.0 ; go outside print area for intro line
M104 S215 ; set hotend temp
M109 S215 ; wait for hotend temp
;M104 S0 ; Stops PS/SS from sending temp waits separately
;M140 S0
;PRINT_START BED=65 HOTEND=215
G92 E0.0
G1 X60.0 E9.0 F1000.0 ; intro line
G1 X100.0 E12.5 F1000.0 ; intro line
G92 E0.0
SKEW_PROFILE LOAD=CaliFlower
G21 ; set units to millimeters
G90 ; use absolute coordinates
M83 ; use relative distances for extrusion
M900 K0.05 ; Filament gcode



M142 S36 ; set heatbreak target temp
M107
;LAYER_CHANGE
;Z:0.2
;HEIGHT:0.2
G1 E-2 F2100
G1 Z.8 F720
EXCLUDE_OBJECT_START NAME='solder_tool_stl'
G1 X129.93 Y90.377 F12000
G1 Z.2 F720
G1 E2 F1500
M204 S600
;TYPE:Perimeter
;WIDTH:0.499999
G1 F1200
G1 X129.973 Y90.621 E.00942
G1 X129.961 Y91.38 E.02885
G1 X129.835 Y91.881 E.01963
G1 X129.659 Y92.3 E.01727
G1 X129.433 Y92.676 E.01667
G1 X129.119 Y93.052 E.01862
G1 X128.602 Y93.484 E.02561
G1 X128.062 Y93.754 E.02295
G1 X127.628 Y93.886 E.01724
G1 X127.015 Y93.971 E.02352
G1 X126.272 Y93.886 E.02842
G1 X125.838 Y93.754 E.01724
G1 X125.298 Y93.484 E.02295
G1 X124.781 Y93.052 E.02561
G1 X124.467 Y92.676 E.01862
G1 X124.139 Y92.1 E.02519
G1 X123.967 Y91.51 E.02336
G1 X123.916 Y91.061 E.01717
G1 X123.953 Y90.375 E.02611
G1 X124.159 Y89.725 E.02592
G1 X124.368 Y89.321 E.01729
G1 X124.681 Y88.894 E.02012
G1 X125.05 Y88.55 E.01917
G1 X125.532 Y88.241 E.02176
G1 X126.016 Y88.039 E.01993
G1 X126.696 Y87.895 E.02642
;WIDTH:0.492219
G1 X127.212 Y87.907 E.01928
;WIDTH:0.499999
G1 X127.608 Y87.95 E.01514
G1 X128.095 Y88.119 E.01959
G1 X128.52 Y88.315 E.01779
G1 X128.936 Y88.625 E.01972
G1 X129.271 Y88.971 E.0183
G1 X129.557 Y89.374 E.01878
G1 X129.772 Y89.798 E.01807
G1 X129.892 Y90.161 E.01453
G1 X129.919 Y90.317 E.00602
M204 S1000
G1 X129.485 Y90.459 F12000
M204 S600
G1 F1200
G1 X129.516 Y90.633 E.00672
G1 X129.511 Y91.301 E.02539
G1 X129.393 Y91.765 E.0182
G1 X129.267 Y92.064 E.01233
G1 X129.041 Y92.44 E.01667
G1 X128.817 Y92.709 E.0133
G1 X128.354 Y93.101 E.02306
G1 X127.868 Y93.34 E.02058
G1 X127.558 Y93.434 E.01231
G1 X126.996 Y93.514 E.02157
G1 X126.342 Y93.434 E.02504
G1 X126.032 Y93.34 E.01231
G1 X125.546 Y93.101 E.02058
G1 X125.083 Y92.709 E.02306
G1 X124.859 Y92.44 E.0133
G1 X124.56 Y91.921 E.02276
G1 X124.409 Y91.394 E.02084
G1 X124.372 Y91.073 E.01228
G1 X124.403 Y90.457 E.02344
G1 X124.591 Y89.875 E.02325
G1 X124.74 Y89.586 E.01236
G1 X125.118 Y89.098 E.02346
G1 X125.542 Y88.759 E.02063
G1 X125.974 Y88.53 E.01858
G1 X126.604 Y88.369 E.02471
G1 X127.078 Y88.351 E.01803
G1 X127.506 Y88.396 E.01636
G1 X128.064 Y88.595 E.02252
G1 X128.353 Y88.755 E.01255
G1 X128.758 Y89.073 E.01957
G1 X129.185 Y89.639 E.02695
G1 X129.338 Y89.941 E.01287
G1 X129.458 Y90.305 E.01457
G1 X129.475 Y90.4 E.00367
M204 S1000
G1 X129.031 Y90.543 F12000
M204 S600
G1 F1200
G1 X129.071 Y91.086 E.02069
G1 X128.951 Y91.649 E.02188
G1 X128.649 Y92.205 E.02405
G1 X128.186 Y92.656 E.02457
G1 X127.674 Y92.926 E.022
G1 X127.055 Y93.05 E.02399
G1 X126.412 Y92.983 E.02457
G1 X125.877 Y92.762 E.022
G1 X125.385 Y92.366 E.024
G1 X125.025 Y91.828 E.0246
G1 X124.852 Y91.278 E.02191
G1 X124.852 Y90.54 E.02805
G1 X125.023 Y90.025 E.02062
G1 X125.335 Y89.539 E.02195
G1 X125.711 Y89.192 E.01945
G1 X126.227 Y88.929 E.02201
G1 X126.794 Y88.799 E.02211
G1 X127.302 Y88.826 E.01933
G1 X127.903 Y89.023 E.02404
G1 X128.382 Y89.352 E.02209
G1 X128.812 Y89.903 E.02656
G1 X129.024 Y90.449 E.02226
G1 X129.027 Y90.483 E.0013
M204 S1000
G1 X128.591 Y90.623 F12000
M204 S600
;TYPE:External perimeter
G1 F1200
G1 X128.602 Y90.658 E.00139
G1 X128.606 Y91.162 E.01916
G1 X128.484 Y91.593 E.01702
G1 X128.213 Y92.023 E.01932
G1 X127.829 Y92.349 E.01914
G1 X127.418 Y92.531 E.01708
G1 X126.915 Y92.598 E.01929
G1 X126.42 Y92.512 E.01909
G1 X126.017 Y92.313 E.01708
G1 X125.642 Y91.969 E.01934
G1 X125.391 Y91.533 E.01912
G1 X125.286 Y91.098 E.01701
G1 X125.302 Y90.623 E.01806
G1 X125.47 Y90.14 E.01944
G1 X125.743 Y89.765 E.01763
G1 X125.99 Y89.556 E.0123
G1 X126.333 Y89.373 E.01478
G1 X126.843 Y89.254 E.0199
G1 X127.331 Y89.296 E.01862
G1 X127.799 Y89.483 E.01915
G1 X128.153 Y89.765 E.0172
G1 X128.47 Y90.229 E.02136
G1 X128.574 Y90.566 E.0134
M204 S1000
G1 E-1.6 F2100
;WIPE_START
G1 F9600
G1 X128.591 Y90.623 E-.01236
G1 X128.602 Y90.658 E-.00762
G1 X128.606 Y91.162 E-.10474
G1 X128.484 Y91.593 E-.09309
G1 X128.213 Y92.023 E-.10563
G1 X127.932 Y92.261 E-.07656
;WIPE_END
G1 X129.291 Y86.374 Z.305 F12000
G1 Z.2 F720
G1 E2 F1500
M204 S600
;TYPE:Perimeter
G1 F1200
G1 X129.288 Y86.379 E.00022
G1 X128.87 Y86.771 E.02178
G1 X128.543 Y87.021 E.01564
G1 X128.062 Y87.254 E.02031
G1 X127.628 Y87.386 E.01724
G1 X127.107 Y87.458 E.01999
;WIDTH:0.496752
G1 X126.478 Y87.416 E.02379
;WIDTH:0.499999
G1 X126.04 Y87.332 E.01695
G1 X125.562 Y87.125 E.0198
G1 X125.214 Y86.926 E.01524
G1 X124.781 Y86.552 E.02175
G1 X124.467 Y86.176 E.01862
G1 X124.133 Y85.584 E.02583
G1 X123.967 Y85.01 E.02271
G1 X123.916 Y84.561 E.01717
G1 X123.953 Y83.875 E.02611
G1 X124.159 Y83.225 E.02592
G1 X124.368 Y82.821 E.01729
G1 X124.711 Y82.36 E.02184
G1 X125.185 Y81.945 E.02394
G1 X125.801 Y81.607 E.0267
G1 X126.498 Y81.425 E.02738
G1 X126.988 Y81.386 E.01868
G1 X127.561 Y81.441 E.02188
G1 X128.225 Y81.668 E.02667
G1 X128.63 Y81.892 E.01759
G1 X128.936 Y82.125 E.01462
G1 X129.271 Y82.471 E.0183
G1 X129.557 Y82.874 E.01878
G1 X129.772 Y83.298 E.01807
G1 X129.892 Y83.661 E.01453
G1 X129.973 Y84.121 E.01775
G1 X129.961 Y84.88 E.02885
G1 X129.835 Y85.381 E.01963
G1 X129.659 Y85.8 E.01727
G1 X129.323 Y86.324 E.02366
M204 S1000
G1 X128.94 Y86.082 F12000
M204 S600
G1 F1200
G1 X128.938 Y86.085 E.00014
G1 X128.568 Y86.429 E.0192
G1 X128.217 Y86.676 E.01631
G1 X127.709 Y86.9 E.0211
G1 X127.125 Y87.001 E.02253
G1 X126.775 Y87.001 E.0133
G1 X126.177 Y86.896 E.02308
G1 X125.683 Y86.676 E.02055
G1 X125.357 Y86.45 E.01508
G1 X124.924 Y86.037 E.02274
G1 X124.633 Y85.564 E.02111
G1 X124.507 Y85.265 E.01233
G1 X124.409 Y84.894 E.01458
G1 X124.372 Y84.573 E.01228
G1 X124.403 Y83.957 E.02344
G1 X124.591 Y83.375 E.02325
G1 X124.74 Y83.086 E.01236
G1 X125.049 Y82.667 E.01979
G1 X125.447 Y82.319 E.02009
G1 X125.968 Y82.032 E.02261
G1 X126.604 Y81.869 E.02495
G1 X126.954 Y81.842 E.01334
G1 X127.472 Y81.889 E.01977
G1 X128.064 Y82.095 E.02382
G1 X128.353 Y82.255 E.01255
G1 X128.659 Y82.489 E.01464
G1 X128.898 Y82.736 E.01306
G1 X129.185 Y83.139 E.0188
G1 X129.338 Y83.441 E.01287
G1 X129.458 Y83.805 E.01457
G1 X129.516 Y84.133 E.01266
G1 X129.511 Y84.801 E.02539
G1 X129.393 Y85.265 E.0182
G1 X129.267 Y85.564 E.01233
G1 X128.972 Y86.031 E.02099
M204 S1000
G1 X128.574 Y85.779 F12000
M204 S600
G1 F1200
G1 X128.266 Y86.086 E.01653
G1 X128.023 Y86.262 E.0114
G1 X127.488 Y86.483 E.022
G1 X126.97 Y86.557 E.01989
G1 X126.412 Y86.483 E.02139
G1 X125.877 Y86.262 E.022
G1 X125.451 Y85.924 E.02067
G1 X125.251 Y85.705 E.01127
G1 X124.978 Y85.236 E.02062
G1 X124.852 Y84.778 E.01805
G1 X124.841 Y84.145 E.02406
G1 X125.023 Y83.525 E.02456
G1 X125.335 Y83.039 E.02195
G1 X125.709 Y82.694 E.01934
G1 X126.227 Y82.429 E.02211
G1 X126.75 Y82.306 E.02042
G1 X127.302 Y82.326 E.02099
G1 X127.903 Y82.523 E.02404
G1 X128.382 Y82.852 E.02209
G1 X128.812 Y83.403 E.02656
G1 X129.024 Y83.949 E.02226
G1 X129.071 Y84.586 E.02428
G1 X128.951 Y85.149 E.02188
G1 X128.649 Y85.705 E.02405
G1 X128.617 Y85.737 E.00172
M204 S1000
G1 X128.232 Y85.493 F12000
M204 S600
;TYPE:External perimeter
G1 F1200
G1 X128.213 Y85.523 E.00135
G1 X127.829 Y85.849 E.01914
G1 X127.418 Y86.031 E.01708
G1 X126.915 Y86.098 E.01929
G1 X126.42 Y86.012 E.01909
G1 X125.961 Y85.764 E.01983
G1 X125.642 Y85.469 E.01651
G1 X125.391 Y85.033 E.01912
G1 X125.294 Y84.662 E.01457
G1 X125.298 Y84.158 E.01916
G1 X125.455 Y83.675 E.0193
G1 X125.743 Y83.265 E.01904
G1 X125.99 Y83.056 E.0123
G1 X126.333 Y82.873 E.01478
G1 X126.829 Y82.756 E.01937
G1 X127.331 Y82.796 E.01914
G1 X127.799 Y82.983 E.01915
G1 X128.153 Y83.265 E.0172
G1 X128.47 Y83.729 E.02136
G1 X128.602 Y84.158 E.01706
G1 X128.606 Y84.662 E.01916
G1 X128.484 Y85.093 E.01702
G1 X128.264 Y85.442 E.01568
M204 S1000
G1 E-1.6 F2100
;WIPE_START
G1 F9600
G1 X128.232 Y85.493 E-.01251
G1 X128.213 Y85.523 E-.00738
G1 X127.829 Y85.849 E-.10468
G1 X127.418 Y86.031 E-.09341
G1 X126.915 Y86.098 E-.10545
G1 X126.552 Y86.035 E-.07657
;WIPE_END
G1 X125.462 Y116.489 Z.732 F12000
G1 Z.2 F720
G1 E2 F1500
M204 S600
;TYPE:Perimeter
G1 F1200
G1 X125.744 Y116.33 E.0123
G1 X126.498 Y116.125 E.0297
G1 X126.988 Y116.086 E.01868
G1 X127.584 Y116.145 E.02276
G1 X128.225 Y116.368 E.02579
G1 X128.63 Y116.592 E.01759
G1 X128.936 Y116.825 E.01462
G1 X129.271 Y117.171 E.0183
G1 X129.557 Y117.574 E.01878
G1 X129.772 Y117.998 E.01807
G1 X129.892 Y118.361 E.01453
G1 X129.973 Y118.821 E.01775
G1 X129.961 Y119.58 E.02885
G1 X129.835 Y120.081 E.01963
G1 X129.659 Y120.5 E.01727
G1 X129.288 Y121.079 E.02614
G1 X128.87 Y121.471 E.02178
G1 X128.543 Y121.721 E.01564
G1 X128.062 Y121.954 E.02031
G1 X127.839 Y122.038 E.00906
G1 X127.194 Y122.149 E.02487
;WIDTH:0.492216
G1 X126.706 Y122.149 E.01823
;WIDTH:0.499999
G1 X126.04 Y122.032 E.0257
M73 P1 R24
G1 X125.562 Y121.825 E.0198
G1 X125.214 Y121.626 E.01524
G1 X124.781 Y121.252 E.02175
G1 X124.467 Y120.876 E.01862
G1 X124.133 Y120.284 E.02583
G1 X123.967 Y119.71 E.02271
G1 X123.916 Y119.261 E.01717
G1 X123.953 Y118.575 E.02611
G1 X124.159 Y117.925 E.02592
G1 X124.368 Y117.521 E.01729
G1 X124.711 Y117.06 E.02184
G1 X125.183 Y116.646 E.02386
G1 X125.41 Y116.518 E.0099
M204 S1000
G1 X125.686 Y116.886 F12000
M204 S600
G1 F1200
G1 X125.826 Y116.799 E.00626
G1 X126.122 Y116.684 E.01207
G1 X126.643 Y116.561 E.02035
G1 X126.954 Y116.542 E.01184
G1 X127.489 Y116.592 E.02042
G1 X128.064 Y116.795 E.02318
G1 X128.353 Y116.955 E.01255
G1 X128.659 Y117.189 E.01464
G1 X128.898 Y117.436 E.01306
G1 X129.185 Y117.839 E.0188
G1 X129.338 Y118.141 E.01287
G1 X129.458 Y118.505 E.01457
G1 X129.516 Y118.833 E.01266
G1 X129.511 Y119.501 E.02539
G1 X129.393 Y119.965 E.0182
G1 X129.267 Y120.264 E.01233
G1 X128.938 Y120.785 E.02342
G1 X128.568 Y121.129 E.0192
G1 X128.217 Y121.376 E.01631
G1 X127.709 Y121.6 E.0211
G1 X127.125 Y121.701 E.02253
G1 X126.775 Y121.701 E.0133
G1 X126.176 Y121.596 E.02311
G1 X125.683 Y121.376 E.02052
G1 X125.357 Y121.15 E.01508
G1 X124.924 Y120.737 E.02274
G1 X124.633 Y120.264 E.02111
G1 X124.507 Y119.965 E.01233
G1 X124.38 Y119.436 E.02068
G1 X124.384 Y118.833 E.02292
G1 X124.447 Y118.489 E.01329
G1 X124.657 Y117.923 E.02294
G1 X124.963 Y117.474 E.02065
G1 X125.351 Y117.094 E.02064
G1 X125.635 Y116.918 E.0127
M204 S1000
G1 X125.911 Y117.285 F12000
M204 S600
G1 F1200
G1 X126.17 Y117.145 E.01119
G1 X126.71 Y117.014 E.02112
G1 X127.302 Y117.026 E.0225
G1 X127.903 Y117.223 E.02404
G1 X128.382 Y117.552 E.02209
G1 X128.812 Y118.103 E.02656
G1 X129.024 Y118.649 E.02226
G1 X129.071 Y119.286 E.02428
G1 X128.951 Y119.849 E.02188
G1 X128.649 Y120.405 E.02405
G1 X128.265 Y120.786 E.02056
G1 X128.023 Y120.962 E.01137
G1 X127.579 Y121.162 E.01851
G1 X127.055 Y121.25 E.02019
G1 X126.412 Y121.183 E.02457
G1 X125.877 Y120.962 E.022
G1 X125.451 Y120.624 E.02067
G1 X125.251 Y120.405 E.01127
G1 X124.978 Y119.936 E.02062
G1 X124.839 Y119.423 E.0202
G1 X124.841 Y118.845 E.02197
G1 X125.023 Y118.225 E.02456
G1 X125.335 Y117.739 E.02195
G1 X125.708 Y117.394 E.01931
G1 X125.858 Y117.313 E.00648
M204 S1000
G1 X126.134 Y117.679 F12000
M204 S600
;TYPE:External perimeter
G1 F1200
G1 X126.333 Y117.573 E.00857
G1 X126.823 Y117.457 E.01914
G1 X127.331 Y117.496 E.01936
G1 X127.799 Y117.683 E.01915
G1 X128.153 Y117.965 E.0172
G1 X128.47 Y118.429 E.02136
G1 X128.602 Y118.858 E.01706
G1 X128.606 Y119.362 E.01916
G1 X128.484 Y119.793 E.01702
G1 X128.213 Y120.223 E.01932
G1 X127.829 Y120.549 E.01914
G1 X127.449 Y120.724 E.0159
G1 X126.915 Y120.798 E.02049
G1 X126.42 Y120.712 E.01909
G1 X125.961 Y120.464 E.01983
G1 X125.642 Y120.169 E.01651
G1 X125.391 Y119.733 E.01912
G1 X125.286 Y119.298 E.01701
G1 X125.311 Y118.789 E.01937
G1 X125.485 Y118.317 E.01912
G1 X125.743 Y117.965 E.01659
G1 X125.99 Y117.756 E.0123
G1 X126.081 Y117.707 E.00393
M204 S1000
G1 E-1.6 F2100
;WIPE_START
G1 F9600
G1 X126.134 Y117.679 E-.01246
G1 X126.333 Y117.573 E-.04686
G1 X126.823 Y117.457 E-.10464
G1 X127.331 Y117.496 E-.10588
G1 X127.799 Y117.683 E-.10473
G1 X127.895 Y117.759 E-.02543
;WIPE_END
G1 X129.962 Y125.981 Z.348 F12000
G1 Z.2 F720
G1 E2 F1500
M204 S600
;TYPE:Perimeter
G1 F1200
G1 X129.961 Y126.08 E.00376
G1 X129.835 Y126.581 E.01963
G1 X129.659 Y127 E.01727
G1 X129.433 Y127.376 E.01667
G1 X129.119 Y127.752 E.01862
G1 X128.602 Y128.184 E.02561
G1 X128.062 Y128.454 E.02295
G1 X127.628 Y128.586 E.01724
G1 X126.95 Y128.672 E.02597
G1 X126.272 Y128.586 E.02597
G1 X125.838 Y128.454 E.01724
G1 X125.353 Y128.219 E.02048
G1 X124.781 Y127.752 E.02806
G1 X124.467 Y127.376 E.01862
G1 X124.139 Y126.8 E.02519
G1 X123.967 Y126.21 E.02336
G1 X123.916 Y125.761 E.01717
G1 X123.953 Y125.075 E.02611
G1 X124.159 Y124.425 E.02592
G1 X124.368 Y124.021 E.01729
G1 X124.681 Y123.594 E.02012
G1 X125.05 Y123.25 E.01917
G1 X125.532 Y122.941 E.02176
G1 X126.016 Y122.739 E.01993
G1 X126.696 Y122.595 E.02642
;WIDTH:0.492216
G1 X127.212 Y122.607 E.01928
;WIDTH:0.499999
G1 X127.608 Y122.65 E.01514
G1 X128.095 Y122.819 E.01959
G1 X128.52 Y123.015 E.01779
G1 X128.936 Y123.325 E.01972
G1 X129.271 Y123.671 E.0183
G1 X129.557 Y124.074 E.01878
G1 X129.772 Y124.498 E.01807
G1 X129.892 Y124.861 E.01453
G1 X129.973 Y125.321 E.01775
G1 X129.963 Y125.921 E.02281
M204 S1000
G1 X129.511 Y125.929 F12000
M204 S600
G1 F1200
G1 X129.511 Y126.001 E.00274
G1 X129.393 Y126.465 E.0182
G1 X129.267 Y126.764 E.01233
G1 X129.041 Y127.14 E.01667
G1 X128.817 Y127.409 E.0133
G1 X128.354 Y127.801 E.02306
G1 X127.868 Y128.04 E.02058
G1 X127.558 Y128.134 E.01231
G1 X126.95 Y128.215 E.02331
G1 X126.342 Y128.134 E.02331
G1 X126.032 Y128.04 E.01231
G1 X125.497 Y127.767 E.02283
G1 X125.083 Y127.409 E.0208
G1 X124.859 Y127.14 E.0133
G1 X124.56 Y126.621 E.02276
G1 X124.409 Y126.094 E.02084
G1 X124.372 Y125.773 E.01228
G1 X124.403 Y125.157 E.02344
G1 X124.591 Y124.575 E.02325
G1 X124.74 Y124.286 E.01236
G1 X125.118 Y123.798 E.02346
G1 X125.542 Y123.459 E.02063
G1 X125.974 Y123.23 E.01858
G1 X126.604 Y123.069 E.02471
G1 X127.078 Y123.051 E.01803
G1 X127.506 Y123.096 E.01636
G1 X128.064 Y123.295 E.02252
G1 X128.353 Y123.455 E.01255
G1 X128.758 Y123.773 E.01957
G1 X129.185 Y124.339 E.02695
G1 X129.338 Y124.641 E.01287
G1 X129.458 Y125.005 E.01457
G1 X129.516 Y125.333 E.01266
G1 X129.512 Y125.869 E.02037
M204 S1000
G1 X129.051 Y125.877 F12000
M204 S600
G1 F1200
G1 X128.951 Y126.349 E.01834
G1 X128.649 Y126.905 E.02405
G1 X128.186 Y127.356 E.02457
G1 X127.674 Y127.626 E.022
G1 X127.055 Y127.75 E.02399
G1 X126.412 Y127.683 E.02457
G1 X125.877 Y127.462 E.022
G1 X125.385 Y127.066 E.024
G1 X125.025 Y126.528 E.0246
