; generated by PrusaSlicer 2.9.3 on 2025-10-13 at 21:22:10 UTC


;
;

;
;

;
;

;
;

;
;
; 

; external perimeters extrusion width = 0.45mm
; perimeters extrusion width = 0.45mm
; infill extrusion width = 0.45mm
; solid infill extrusion width = 0.45mm
; top infill extrusion width = 0.42mm
; first layer extrusion width = 0.50mm

M73 P0 R13

EXCLUDE_OBJECT_DEFINE NAME='a_60dg_lobe_3_stl' CENTER=125.374,104.584 POLYGON=[[121.316,98.739],[127.393,99.410],[128.386,99.606],[129.283,99.942],[129.995,100.337],[130.762,100.926],[131.446,101.659],[132.030,102.552],[132.496,103.698],[132.716,104.910],[132.703,105.983],[132.462,107.160],[132.052,108.154],[131.351,109.206],[130.499,110.046],[129.586,110.653],[128.431,111.129],[127.261,111.351],[126.141,111.344],[125.009,111.120],[123.958,110.693],[122.940,110.022],[122.102,109.187],[117.744,103.253],[117.430,102.609],[117.278,101.910],[117.296,101.194],[117.483,100.503],[117.828,99.876],[118.452,99.236],[119.070,98.874],[119.756,98.670],[120.292,98.626]]

;TYPE:Custom
G90 ; use absolute coordinates
M83 ; extruder relative mode
M104 S170 ; preheat hotend to 170
M140 S65 ; set bed temp
M190 S65 ; wait for bed temp
G28 ; home all
;G29 ; mesh bed leveling
BED_MESH_CALIBRATE
G0 X0 Z0.6 Y-3.0 F1000.0 ; go outside print area for intro line
M104 S215 ; set hotend temp
M109 S215 ; wait for hotend temp
;M104 S0 ; Stops PS/SS from sending temp waits separately
;M140 S0
;PRINT_START BED=65 HOTEND=215
G92 E0.0
G1 X60.0 E9.0 F1000.0 ; intro line
G1 X100.0 E12.5 F1000.0 ; intro line
G92 E0.0
SKEW_PROFILE LOAD=CaliFlower
G21 ; set units to millimeters
G90 ; use absolute coordinates
M83 ; use relative distances for extrusion
M900 K0.05 ; Filament gcode



M142 S36 ; set heatbreak target temp
M107
;LAYER_CHANGE
;Z:0.2
;HEIGHT:0.2
G1 E-2 F2100
G1 Z.8 F720
EXCLUDE_OBJECT_START NAME='a_60dg_lobe_3_stl'
G1 X123.636 Y102.656 F12000
G1 Z.2 F720
G1 E2 F1500
M204 S600
;TYPE:Perimeter
;WIDTH:0.499999
G1 F1200
G1 X123.776 Y102.477 E.00864
G1 X124.185 Y102.152 E.01985
G1 X124.601 Y102.044 E.01633
G1 X124.774 Y102.046 E.00658
G1 X129.244 Y102.437 E.17054
G1 X129.698 Y102.576 E.01805
G1 X129.819 Y102.722 E.00721
;WIDTH:0.454662
G1 X129.939 Y102.867 E.00644
;WIDTH:0.409325
G1 X130.059 Y103.012 E.00573
;WIDTH:0.363987
G1 X130.322 Y103.441 E.01343
;WIDTH:0.37229
G1 X130.528 Y103.905 E.0139
G1 X130.679 Y104.369 E.01336
;WIDTH:0.370422
G1 X130.787 Y104.971 E.01666
;WIDTH:0.363041
G1 X130.804 Y105.527 E.01481
G1 X130.743 Y106.09 E.01507
;WIDTH:0.371211
G1 X130.595 Y106.658 E.01602
G1 X130.323 Y107.304 E.01913
;WIDTH:0.36469
G1 X129.923 Y107.908 E.01938
;WIDTH:0.372451
G1 X129.533 Y108.327 E.01568
G1 X129.219 Y108.6 E.0114
;WIDTH:0.36801
G1 X128.601 Y108.993 E.0198
G1 X127.858 Y109.29 E.02163
;WIDTH:0.367268
G1 X127.111 Y109.43 E.0205
;WIDTH:0.37254
G1 X126.235 Y109.41 E.02402
G1 X125.786 Y109.332 E.01249
M73 P1 R13
;WIDTH:0.371234
G1 X125.223 Y109.156 E.0161
;WIDTH:0.369447
G1 X124.743 Y108.925 E.01446
;WIDTH:0.372112
G1 X124.353 Y108.673 E.01271
G1 X123.917 Y108.317 E.01541
;WIDTH:0.366504
G1 X123.542 Y107.903 E.01503
;WIDTH:0.391793
G1 X123.117 Y107.276 E.02197
;WIDTH:0.427862
G1 X123.004 Y107.048 E.00814
;WIDTH:0.463931
G1 X122.89 Y106.82 E.00892
;WIDTH:0.499999
G1 X122.777 Y106.593 E.00964
G1 X122.62 Y105.839 E.02927
G1 X122.605 Y105.069 E.02927
G1 X122.733 Y104.31 E.02925
G1 X123.096 Y103.402 E.03717
G1 X123.248 Y103.149 E.01122
G1 X123.599 Y102.703 E.02157
M204 S1000
G1 X123.984 Y102.961 F12000
M204 S600
G1 F1200
G1 X124.135 Y102.76 E.00955
G1 X124.381 Y102.565 E.01193
G1 X124.734 Y102.501 E.01363
G1 X129.204 Y102.893 E.17054
G1 X129.477 Y102.976 E.01084
G1 X129.728 Y103.216 E.0132
G1 X130.019 Y103.701 E.0215
G1 X130.238 Y104.234 E.0219
G1 X130.372 Y104.823 E.02296
G1 X130.421 Y105.38 E.02125
G1 X130.358 Y106.041 E.02524
G1 X130.219 Y106.545 E.01987
G1 X129.972 Y107.135 E.02431
G1 X129.603 Y107.687 E.02524
G1 X129.256 Y108.048 E.01903
G1 X129.01 Y108.27 E.01259
G1 X128.391 Y108.663 E.02787
G1 X127.724 Y108.923 E.02721
G1 X127.048 Y109.045 E.02611
G1 X126.257 Y109.017 E.03008
G1 X125.892 Y108.954 E.01408
G1 X125.38 Y108.802 E.0203
G1 X124.917 Y108.574 E.01961
G1 X124.59 Y108.359 E.01487
G1 X124.206 Y108.054 E.01864
G1 X123.83 Y107.641 E.02123
G1 X123.46 Y107.064 E.02605
G1 X123.204 Y106.429 E.02602
G1 X123.069 Y105.757 E.02605
G1 X123.062 Y105.072 E.02604
G1 X123.181 Y104.397 E.02605
G1 X123.516 Y103.584 E.03342
G1 X123.948 Y103.009 E.02733
M204 S1000
G1 X124.326 Y103.261 F12000
M204 S600
;TYPE:External perimeter
G1 F1200
G1 X124.494 Y103.043 E.01046
G1 X124.659 Y102.956 E.00709
G1 X124.694 Y102.957 E.00133
G1 X129.167 Y103.348 E.17065
G1 X129.329 Y103.441 E.0071
G1 X129.601 Y103.886 E.01982
G1 X129.816 Y104.408 E.02146
G1 X129.925 Y104.915 E.01971
G1 X129.964 Y105.422 E.01933
G1 X129.904 Y105.992 E.02178
G1 X129.735 Y106.568 E.02281
G1 X129.543 Y106.968 E.01686
G1 X129.226 Y107.428 E.02123
G1 X128.803 Y107.853 E.02279
G1 X128.146 Y108.277 E.02972
G1 X127.567 Y108.494 E.0235
G1 X126.975 Y108.594 E.02282
G1 X126.283 Y108.56 E.02633
G1 X125.649 Y108.411 E.02475
G1 X125.12 Y108.164 E.02219
G1 X124.865 Y107.994 E.01165
G1 X124.433 Y107.625 E.02159
G1 X124.142 Y107.3 E.01658
G1 X123.849 Y106.824 E.02124
G1 X123.631 Y106.265 E.0228
G1 X123.519 Y105.675 E.02282
G1 X123.519 Y105.075 E.0228
G1 X123.63 Y104.485 E.02282
G1 X123.935 Y103.765 E.02972
G1 X124.289 Y103.308 E.02197
M204 S1000
G1 X123.292 Y102.354 F12000
M204 S600
;TYPE:Perimeter
G1 F1200
G1 X122.888 Y102.866 E.02479
G1 X122.677 Y103.221 E.0157
G1 X122.386 Y103.893 E.02783
G1 X122.284 Y104.223 E.01313
G1 X122.148 Y105.066 E.03245
G1 X122.149 Y105.681 E.02337
G1 X119.635 Y102.253 E.16157
G1 X119.481 Y102 E.01126
G1 X119.408 Y101.697 E.01185
G1 X119.441 Y101.352 E.01317
G1 X119.646 Y101.022 E.01477
G1 X119.902 Y100.847 E.01179
G1 X120.247 Y100.755 E.01357
G1 X123.892 Y101.158 E.13938
G1 X124.371 Y101.195 E.01826
;WIDTH:0.468065
G1 X124.849 Y101.231 E.01695
;WIDTH:0.43613
G1 X127.106 Y101.467 E.0742
;WIDTH:0.41041
G1 X127.679 Y101.558 E.01773
;WIDTH:0.386541
G1 X128.158 Y101.709 E.01435
G1 X128.721 Y101.99 E.01798
G1 X127.612 Y101.893 E.03181
;WIDTH:0.41041
G1 X127.07 Y101.833 E.01666
;WIDTH:0.43613
G1 X124.811 Y101.623 E.07418
;WIDTH:0.449271
G1 X124.574 Y101.613 E.00801
;WIDTH:0.474635
G1 X124.282 Y101.676 E.01072
;WIDTH:0.499999
G1 X123.99 Y101.738 E.01135
G1 X123.417 Y102.195 E.02786
G1 X123.329 Y102.307 E.00541
M204 S1000
G1 E-1.6 F2100
;WIPE_START
G1 F9600
G1 X123.292 Y102.354 E-.01243
G1 X122.888 Y102.866 E-.13553
G1 X122.677 Y103.221 E-.08582
G1 X122.386 Y103.893 E-.15218
G1 X122.366 Y103.957 E-.01404
;WIPE_END
G1 X120.569 Y100.331 Z.271 F12000
G1 Z.2 F720
G1 E2 F1500
M204 S600
G1 F1200
G1 X127.189 Y101.063 E.25313
G1 X127.799 Y101.176 E.02358
G1 X128.328 Y101.347 E.02113
G1 X128.87 Y101.608 E.02286
G1 X129.454 Y102.003 E.0268
G1 X129.695 Y102.213 E.01215
;WIDTH:0.455392
G1 X129.936 Y102.423 E.01096
;WIDTH:0.410784
G1 X130.178 Y102.633 E.0098
;WIDTH:0.368493
G1 X130.402 Y102.945 E.0104
G1 X130.686 Y103.442 E.0155
;WIDTH:0.367255
G1 X130.969 Y104.195 E.02169
;WIDTH:0.370049
G1 X131.08 Y104.699 E.01404
G1 X131.103 Y104.97 E.0074
;WIDTH:0.363041
G1 X131.122 Y105.563 E.01579
;WIDTH:0.365521
G1 X131.017 Y106.367 E.02175
G1 X130.842 Y106.921 E.01558
;WIDTH:0.36469
G1 X130.616 Y107.438 E.0151
;WIDTH:0.372565
G1 X130.376 Y107.838 E.01279
G1 X130.028 Y108.289 E.01561
;WIDTH:0.367267
G1 X129.481 Y108.812 E.02041
;WIDTH:0.377102
G1 X129.036 Y109.118 E.01501
G1 X128.503 Y109.39 E.01663
;WIDTH:0.367268
G1 X127.972 Y109.594 E.01534
;WIDTH:0.371665
G1 X127.55 Y109.695 E.01186
G1 X126.865 Y109.76 E.01881
;WIDTH:0.37254
G1 X126.197 Y109.736 E.01832
G1 X125.696 Y109.647 E.01395
;WIDTH:0.371234
G1 X125.048 Y109.423 E.01872
;WIDTH:0.369447
G1 X124.583 Y109.209 E.0139
;WIDTH:0.372112
G1 X124.152 Y108.933 E.01401
G1 X123.557 Y108.414 E.02161
;WIDTH:0.372012
G1 X123.149 Y107.927 E.01738
;WIDTH:0.412434
G1 X122.696 Y107.273 E.02444
;WIDTH:0.456217
G1 X122.549 Y107.036 E.00958
;WIDTH:0.499999
G1 X122.401 Y106.798 E.01065
G1 X119.266 Y102.523 E.20148
G1 X119.135 Y102.314 E.00937
G1 X118.964 Y101.891 E.01734
G1 X118.94 Y101.559 E.01265
G1 X119.045 Y101.115 E.01734
G1 X119.312 Y100.704 E.01863
G1 X119.565 Y100.499 E.01238
G1 X119.864 Y100.362 E.0125
G1 X120.23 Y100.294 E.01415
G1 X120.509 Y100.325 E.01067
M204 S1000
G1 X120.619 Y99.877 F12000
M204 S600
G1 F1200
G1 X127.201 Y100.603 E.25167
G1 X127.936 Y100.74 E.02842
G1 X128.523 Y100.934 E.0235
G1 X129.125 Y101.228 E.02546
G1 X129.761 Y101.664 E.02931
G1 X130.205 Y102.072 E.02292
G1 X130.641 Y102.605 E.02617
G1 X130.936 Y103.085 E.02141
G1 X131.203 Y103.644 E.02354
G1 X131.369 Y104.167 E.02085
G1 X131.471 Y104.674 E.01966
G1 X131.523 Y105.472 E.03039
G1 X131.423 Y106.359 E.03393
G1 X131.279 Y106.89 E.02091
G1 X130.973 Y107.593 E.02914
G1 X130.707 Y108.053 E.0202
G1 X130.373 Y108.488 E.02084
G1 X130.016 Y108.865 E.01973
G1 X129.624 Y109.189 E.01933
G1 X128.862 Y109.667 E.03419
G1 X128.101 Y109.963 E.03103
G1 X127.6 Y110.085 E.0196
G1 X126.856 Y110.148 E.02838
G1 X126.128 Y110.124 E.02768
G1 X125.586 Y110.024 E.02095
G1 X124.891 Y109.777 E.02803
G1 X124.373 Y109.54 E.02165
G1 X123.907 Y109.24 E.02106
G1 X123.275 Y108.69 E.03184
G1 X122.855 Y108.188 E.02488
G1 X118.897 Y102.793 E.25431
G1 X118.642 Y102.378 E.01851
G1 X118.512 Y101.979 E.01595
G1 X118.48 Y101.535 E.01692
G1 X118.559 Y101.091 E.01714
G1 X118.692 Y100.775 E.01303
G1 X118.979 Y100.386 E.01837
G1 X119.322 Y100.108 E.01678
G1 X119.724 Y99.923 E.01682
G1 X120.237 Y99.835 E.01978
G1 X120.559 Y99.87 E.01231
M204 S1000
G1 X120.669 Y99.422 F12000
M204 S600
;TYPE:External perimeter
G1 F1200
G1 X127.3 Y100.154 E.25355
G1 X127.981 Y100.275 E.02629
M73 P2 R13
G1 X128.63 Y100.479 E.02586
M73 P2 R12
G1 X129.296 Y100.792 E.02797
G1 X130.005 Y101.268 E.03246
G1 X130.51 Y101.726 E.02591
G1 X130.845 Y102.109 E.01934
G1 X131.137 Y102.52 E.01916
G1 X131.447 Y103.067 E.0239
G1 X131.648 Y103.535 E.01936
G1 X131.832 Y104.132 E.02374
G1 X131.927 Y104.644 E.01979
G1 X131.982 Y105.483 E.03196
G1 X131.873 Y106.445 E.0368
G1 X131.712 Y107.042 E.0235
G1 X131.347 Y107.88 E.03474
G1 X131.051 Y108.355 E.02127
G1 X130.642 Y108.874 E.02511
G1 X130.011 Y109.475 E.03312
G1 X129.497 Y109.837 E.02389
G1 X129.056 Y110.082 E.01917
G1 X128.203 Y110.414 E.03479
G1 X127.712 Y110.531 E.01918
G1 X127.094 Y110.611 E.02368
G1 X126.124 Y110.587 E.03688
G1 X125.511 Y110.479 E.02366
G1 X125.027 Y110.338 E.01916
G1 X124.191 Y109.966 E.03478
G1 X123.711 Y109.661 E.02161
G1 X123.313 Y109.352 E.01915
G1 X122.941 Y109.003 E.01939
G1 X122.495 Y108.471 E.02638
G1 X118.529 Y103.064 E.25485
G1 X118.223 Y102.567 E.02218
G1 X118.061 Y102.068 E.01994
G1 X118.02 Y101.511 E.02123
G1 X118.118 Y100.96 E.02127
G1 X118.292 Y100.548 E.017
G1 X118.646 Y100.067 E.0227
G1 X119.078 Y99.717 E.02113
G1 X119.585 Y99.484 E.02121
G1 X120.255 Y99.377 E.02579
G1 X120.609 Y99.416 E.01354
M204 S1000
G1 E-1.6 F2100
;WIPE_START
G1 F9600
G1 X120.669 Y99.422 E-.01253
G1 X122.522 Y99.627 E-.38747
;WIPE_END
G1 X123.599 Y101.795 Z.242 F12000
G1 Z.2 F720
G1 E2 F1500
M204 S600
;TYPE:Solid infill
;WIDTH:0.509403
G1 F1200
G1 X123.312 Y101.508 E.01574
G1 X122.57 Y101.426 E.02896
G1 X123.09 Y101.945 E.0285
G1 X122.799 Y102.314 E.01823
G1 X121.829 Y101.344 E.05321
G1 X121.087 Y101.262 E.02896
G1 X122.513 Y102.688 E.07822
G1 X122.398 Y102.859 E.00799
G1 X122.276 Y103.111 E.01086
G1 X120.346 Y101.18 E.1059
G1 X120.262 Y101.171 E.00328
G1 X120.129 Y101.196 E.00525
G1 X120.027 Y101.242 E.00434
G1 X119.946 Y101.309 E.00408
G1 X119.89 Y101.384 E.00363
G1 X122.077 Y103.571 E.11997
G1 X122.004 Y103.739 E.00711
G1 X121.905 Y104.059 E.01299
G1 X119.625 Y101.779 E.12507
M204 S1000
M106 S127.5
;LAYER_CHANGE
;Z:0.4
;HEIGHT:0.2
;BEFORE_LAYER_CHANGE
G92 E0.0
;0.4


G1 E-1.6 F2100
;WIPE_START
G1 F9600
G1 X120.986 Y103.14 E-.4
;WIPE_END
G1 X120.986 Y103.14 Z.2 F12000
G1 X123.568 Y102.597 Z.4 F9526.161
;AFTER_LAYER_CHANGE
;0.4
;@SNAPSHOT
M104 S225 ; set temperature
G1 X123.568 Y102.597 F12000
G1 Z.4 F720
G1 E2 F1500
;TYPE:Perimeter
;WIDTH:0.449999
G1 F2091.94
G1 X123.625 Y102.523 E.00316
G1 F2082.726
G1 X123.933 Y102.228 E.01444
G1 F2075.307
G1 X124.366 Y102.021 E.01625
G1 F2070.079
G1 X124.878 Y101.973 E.01741
G1 F2066.962
G1 X129.154 Y102.347 E.14529
G1 F2038.712
G1 X129.395 Y102.389 E.00828
G1 F2034.824
G1 X129.599 Y102.496 E.0078
;WIDTH:0.421908
G1 F2036.556
G1 X129.802 Y102.603 E.00723
;WIDTH:0.393816
G1 F2040.518
G1 X130.151 Y102.965 E.01467
;WIDTH:0.359547
G1 F2043.696
G1 X130.418 Y103.396 E.01335
G1 F2045.196
G1 X130.688 Y104.029 E.01812
;WIDTH:0.365432
G1 F2043.695
G1 X130.828 Y104.569 E.01496
G1 X130.897 Y105.039 E.01274
;WIDTH:0.358938
G1 X130.907 Y105.559 E.01367
;WIDTH:0.359522
G1 F2042.304
G1 X130.847 Y106.118 E.0148
;WIDTH:0.364694
G1 X130.709 Y106.641 E.01447
G1 F2041.905
G1 X130.431 Y107.322 E.01968
;WIDTH:0.360421
G1 F2044.499
G1 X130.017 Y107.95 E.01986
;WIDTH:0.364001
G1 F2043.478
G1 X129.67 Y108.337 E.01388
G1 F2042.667
G1 X129.254 Y108.703 E.01479
;WIDTH:0.365663
G1 F2044.258
G1 X128.725 Y109.04 E.01683
G1 F2042.678
G1 X128.39 Y109.209 E.01007
;WIDTH:0.361081
G1 X127.907 Y109.384 E.01359
;WIDTH:0.360762
G1 F2044.648
G1 X127.146 Y109.53 E.02048
;WIDTH:0.358873
G1 F2043.346
G1 X127.119 Y109.534 E.00072
;WIDTH:0.36143
G1 F2044.262
G1 X126.171 Y109.51 E.02512
;WIDTH:0.365323
G1 F2043.431
G1 X125.668 Y109.407 E.01376
G1 F2042.239
G1 X125.18 Y109.253 E.01372
;WIDTH:0.356474
G1 F2043.484
G1 X124.652 Y108.993 E.01534
;WIDTH:0.362669
G1 F2044.092
G1 X124.068 Y108.587 E.01891
G1 F2045.317
G1 X123.476 Y107.988 E.02239
;WIDTH:0.381965
G1 F2043.506
G1 X123.039 Y107.346 E.02189
;WIDTH:0.415982
G1 F2041.711
G1 X122.873 Y106.993 E.0121
;WIDTH:0.449999
G1 F2039.489
G1 X122.706 Y106.64 E.01322
G1 F2047.579
G1 X122.542 Y105.872 E.02658
G1 F2061.641
G1 X122.522 Y105.087 E.02658
G1 F2076.74
G1 X122.648 Y104.312 E.02658
G1 F2091.415
G1 X123.008 Y103.396 E.03331
G1 F2097.663
G1 X123.187 Y103.091 E.01197
G1 F2091.94
G1 X123.531 Y102.644 E.01909
G1 X123.875 Y102.866 F12000
G1 F2094.949
G1 X123.947 Y102.771 E.00403
G1 F2088.211
G1 X124.167 Y102.56 E.01032
G1 F2083.885
G1 X124.477 Y102.413 E.01161
G1 F2080.886
G1 X124.842 Y102.378 E.01241
G1 F2078.765
G1 X129.118 Y102.752 E.14529
G1 F2053.179
G1 X129.291 Y102.783 E.00595
G1 F2048.978
G1 X129.593 Y102.919 E.01121
G1 F2045.541
G1 X129.858 Y103.175 E.01247
G1 F2043.137
G1 X130.134 Y103.635 E.01816
G1 F2044.467
G1 X130.354 Y104.166 E.01946
G1 X130.515 Y104.857 E.02402
G1 F2043.201
G1 X130.543 Y105.427 E.01932
G1 F2041.989
G1 X130.488 Y106.068 E.02178
G1 F2043.864
G1 X130.305 Y106.72 E.02292
G1 F2041.674
G1 X130.097 Y107.182 E.01715
G1 F2043.167
G1 X129.723 Y107.747 E.02293
G1 X129.232 Y108.259 E.02401
G1 F2045.511
G1 X128.53 Y108.732 E.02865
G1 F2042.915
G1 X128.267 Y108.868 E.01002
G1 F2041.98
G1 X127.784 Y109.043 E.01739
G1 F2043.991
G1 X127.088 Y109.173 E.02397
G1 F2042.426
G1 X127.068 Y109.176 E.00068
G1 F2043.685
G1 X126.191 Y109.148 E.0297
G1 F2044.503
G1 X125.459 Y108.97 E.0255
G1 F2042.227
G1 X124.812 Y108.67 E.02414
G1 F2043.876
G1 X124.287 Y108.297 E.0218
G1 F2045.179
G1 X123.744 Y107.745 E.02621
G1 F2046.829
G1 X123.357 Y107.15 E.02403
G1 F2053.192
G1 X123.086 Y106.494 E.02402
G1 F2061.443
G1 X122.942 Y105.799 E.02402
G1 F2072.413
G1 X122.929 Y105.09 E.024
G1 F2083.968
G1 X123.047 Y104.39 E.02403
G1 F2094.822
G1 X123.382 Y103.557 E.03039
G1 F2098.864
G1 X123.51 Y103.34 E.00853
G1 F2094.949
G1 X123.838 Y102.913 E.01823
G1 X124.184 Y103.137 F12000
G1 F2097.862
G1 X124.27 Y103.02 E.00492
G1 F2092.651
G1 X124.402 Y102.893 E.0062
G1 F2090.332
G1 X124.715 Y102.783 E.01123
G1 F2088.951
G1 X124.807 Y102.784 E.00311
G1 F2087.971
G1 X129.083 Y103.158 E.14529
G1 F2064.036
G1 X129.367 Y103.258 E.01019
G1 F2060.244
G1 X129.575 Y103.488 E.0105
G1 F2059.934
G1 X129.865 Y104.046 E.02129
G1 X130.011 Y104.43 E.01391
G1 F2060.077
G1 X130.117 Y104.94 E.01763
G1 F2059.314
G1 X130.139 Y105.573 E.02144
G1 F2058.14
G1 X130.072 Y106.079 E.01728
G1 F2059.945
G1 X129.915 Y106.603 E.01852
G1 F2058.257
G1 X129.702 Y107.058 E.01701
