; generated by PrusaSlicer 2.9.3 on 2025-10-13 at 21:22:36 UTC


;
;

;
;

;
;

;
;

;
;
; 

; external perimeters extrusion width = 0.45mm
; perimeters extrusion width = 0.45mm
; infill extrusion width = 0.45mm
; solid infill extrusion width = 0.45mm
; top infill extrusion width = 0.42mm
; first layer extrusion width = 0.50mm

M73 P0 R13

EXCLUDE_OBJECT_DEFINE NAME='a_60dg_lobe_4_stl' CENTER=125.669,104.997 POLYGON=[[127.290,99.000],[128.298,99.094],[129.237,99.343],[129.972,99.659],[130.806,100.176],[131.410,100.687],[132.062,101.432],[132.485,102.090],[132.900,103.013],[133.153,103.993],[133.238,105.000],[133.189,105.762],[132.977,106.750],[132.705,107.471],[132.218,108.346],[131.585,109.136],[131.007,109.668],[129.939,110.358],[128.750,110.806],[127.493,110.995],[126.027,110.877],[125.001,110.567],[118.554,107.735],[117.937,107.371],[117.425,106.871],[116.913,105.931],[116.771,105.229],[116.776,104.691],[116.877,104.164],[117.155,103.504],[117.843,102.683],[118.285,102.378],[125.060,99.409],[126.224,99.086]]

;TYPE:Custom
G90 ; use absolute coordinates
M83 ; extruder relative mode
M104 S170 ; preheat hotend to 170
M140 S65 ; set bed temp
M190 S65 ; wait for bed temp
G28 ; home all
;G29 ; mesh bed leveling
BED_MESH_CALIBRATE
G0 X0 Z0.6 Y-3.0 F1000.0 ; go outside print area for intro line
M104 S215 ; set hotend temp
M109 S215 ; wait for hotend temp
;M104 S0 ; Stops PS/SS from sending temp waits separately
;M140 S0
;PRINT_START BED=65 HOTEND=215
G92 E0.0
G1 X60.0 E9.0 F1000.0 ; intro line
G1 X100.0 E12.5 F1000.0 ; intro line
G92 E0.0
SKEW_PROFILE LOAD=CaliFlower
G21 ; set units to millimeters
G90 ; use absolute coordinates
M83 ; use relative distances for extrusion
M900 K0.05 ; Filament gcode



M142 S36 ; set heatbreak target temp
M107
;LAYER_CHANGE
;Z:0.2
;HEIGHT:0.2
G1 E-2 F2100
G1 Z.8 F720
EXCLUDE_OBJECT_START NAME='a_60dg_lobe_4_stl'
G1 X125.935 Y101.16 F12000
G1 Z.2 F720
G1 E2 F1500
M204 S600
;TYPE:Perimeter
;WIDTH:0.379718
G1 F1200
G1 X126.256 Y101.045 E.00955
;WIDTH:0.369673
G1 X126.489 Y100.998 E.00646
;WIDTH:0.413115
G1 X126.635 Y100.997 E.00449
;WIDTH:0.456557
G1 X126.78 Y100.996 E.00499
;WIDTH:0.499999
G1 X126.926 Y100.995 E.00555
G1 X127.204 Y101.138 E.01188
G1 X130.879 Y103.711 E.1705
G1 X131.067 Y103.876 E.00951
G1 X131.136 Y104.054 E.00726
;WIDTH:0.454523
G1 X131.204 Y104.232 E.00652
;WIDTH:0.409047
G1 X131.272 Y104.41 E.0058
;WIDTH:0.368238
G1 X131.311 Y105.006 E.01616
;WIDTH:0.371516
G1 X131.265 Y105.57 E.01546
G1 X131.118 Y106.219 E.01818
;WIDTH:0.37117
G1 X130.942 Y106.693 E.0138
;WIDTH:0.362318
G1 X130.685 Y107.168 E.01434
G1 X130.356 Y107.618 E.0148
;WIDTH:0.362796
G1 X129.818 Y108.151 E.02014
;WIDTH:0.371876
G1 X129.352 Y108.476 E.01554
G1 X128.703 Y108.803 E.01988
;WIDTH:0.37727
G1 X128.063 Y108.976 E.01843
G1 X127.557 Y109.061 E.01426
;WIDTH:0.365701
G1 X126.999 Y109.067 E.01498
;WIDTH:0.369345
G1 X126.298 Y108.963 E.01924
;WIDTH:0.3701
G1 X125.563 Y108.714 E.02111
;WIDTH:0.411685
G1 X124.868 Y108.341 E.02419
;WIDTH:0.438481
G1 X124.777 Y108.29 E.00343
;WIDTH:0.465276
G1 X124.686 Y108.239 E.00366
;WIDTH:0.499999
G1 X124.26 Y107.878 E.02122
G1 X123.779 Y107.277 E.02926
G1 X123.418 Y106.597 E.02926
G1 X123.188 Y105.862 E.02927
M73 P1 R13
G1 X123.098 Y105.097 E.02928
G1 X123.197 Y104.112 E.03762
G1 X123.442 Y103.345 E.0306
G1 X123.814 Y102.672 E.02923
G1 X124.458 Y101.935 E.0372
G1 X124.644 Y101.773 E.00937
G1 X124.81 Y101.68 E.00723
;WIDTH:0.463311
G1 X124.976 Y101.586 E.00667
;WIDTH:0.426623
G1 X125.142 Y101.493 E.00607
;WIDTH:0.389934
G1 X125.743 Y101.229 E.01894
;WIDTH:0.379718
G1 X125.878 Y101.18 E.00402
M204 S1000
G1 X126.061 Y101.531 F12000
M204 S600
;WIDTH:0.499999
G1 F1200
G1 X126.361 Y101.414 E.01224
G1 X126.511 Y101.389 E.00578
G1 X126.775 Y101.427 E.01014
G1 X127.378 Y101.818 E.02731
G1 X130.617 Y104.086 E.15028
G1 X130.73 Y104.185 E.00571
G1 X130.897 Y104.516 E.01409
G1 X130.92 Y105.017 E.01906
G1 X130.876 Y105.518 E.01911
G1 X130.814 Y105.889 E.0143
G1 X130.639 Y106.419 E.02121
G1 X130.402 Y106.894 E.02018
G1 X130.043 Y107.39 E.02327
G1 X129.552 Y107.868 E.02604
G1 X128.981 Y108.246 E.02603
G1 X128.522 Y108.456 E.01918
G1 X127.553 Y108.671 E.03772
G1 X126.995 Y108.677 E.02121
G1 X126.366 Y108.577 E.02421
G1 X125.702 Y108.347 E.02671
G1 X125.083 Y107.989 E.02718
G1 X124.567 Y107.538 E.02605
G1 X124.143 Y107 E.02603
G1 X123.826 Y106.393 E.02603
G1 X123.628 Y105.737 E.02604
G1 X123.554 Y105.056 E.02603
G1 X123.65 Y104.169 E.03391
G1 X123.873 Y103.499 E.02684
G1 X124.208 Y102.903 E.02598
G1 X124.794 Y102.245 E.03349
G1 X125.372 Y101.823 E.0272
G1 X125.889 Y101.598 E.02143
G1 X126.005 Y101.553 E.00473
M204 S1000
G1 X126.208 Y101.965 F12000
M204 S600
;TYPE:External perimeter
G1 F1200
G1 X126.464 Y101.861 E.0105
G1 X126.624 Y101.858 E.00608
G1 X130.355 Y104.46 E.17288
G1 X130.452 Y104.631 E.00747
G1 X130.465 Y105.137 E.01924
G1 X130.39 Y105.704 E.02174
G1 X130.205 Y106.275 E.02281
G1 X130.002 Y106.67 E.01688
G1 X129.674 Y107.12 E.02116
G1 X129.239 Y107.535 E.02285
G1 X128.735 Y107.861 E.02281
G1 X128.322 Y108.041 E.01712
G1 X127.598 Y108.208 E.02824
G1 X126.991 Y108.22 E.02307
G1 X126.447 Y108.127 E.02098
G1 X125.864 Y107.92 E.02351
G1 X125.322 Y107.599 E.02394
G1 X124.874 Y107.199 E.02283
G1 X124.507 Y106.724 E.02281
G1 X124.235 Y106.188 E.02284
G1 X124.067 Y105.612 E.0228
G1 X124.009 Y105.014 E.02283
G1 X124.103 Y104.227 E.03012
G1 X124.303 Y103.653 E.0231
G1 X124.603 Y103.134 E.02278
G1 X125.129 Y102.555 E.02973
G1 X125.633 Y102.198 E.02347
G1 X126.152 Y101.988 E.02128
M204 S1000
G1 E-1.6 F2100
;WIPE_START
G1 F9600
G1 X126.208 Y101.965 E-.01258
G1 X126.464 Y101.861 E-.05742
G1 X126.624 Y101.858 E-.03326
G1 X127.795 Y102.675 E-.29674
;WIPE_END
G1 X127.908 Y101.136 Z.227 F12000
G1 Z.2 F720
G1 E2 F1500
M204 S600
;TYPE:Perimeter
;WIDTH:0.396902
G1 F1200
G1 X128.546 Y101.3 E.01939
G1 X129.136 Y101.565 E.01904
;WIDTH:0.406913
G1 X129.593 Y101.865 E.01655
G1 X130.015 Y102.213 E.01655
;WIDTH:0.379586
G1 X130.438 Y102.712 E.01831
G1 X130.661 Y103.074 E.0119
G1 X129.798 Y102.47 E.02949
;WIDTH:0.406913
G1 X128.95 Y101.866 E.03151
;WIDTH:0.396902
G1 X127.957 Y101.17 E.03569
M204 S1000
G1 E-1.6 F2100
;WIPE_START
G1 F9600
G1 X127.908 Y101.136 E-.01239
G1 X128.546 Y101.3 E-.13689
G1 X129.136 Y101.565 E-.13441
G1 X129.593 Y101.865 E-.11361
G1 X129.603 Y101.873 E-.0027
;WIPE_END
G1 X123.417 Y102.445 Z.308 F12000
G1 Z.2 F720
G1 E2 F1500
M204 S600
;WIDTH:0.499999
G1 F1200
G1 X123.012 Y103.191 E.03226
G1 X122.743 Y104.054 E.03436
G1 X122.649 Y104.792 E.02828
G1 X122.643 Y105.139 E.01319
G1 X122.748 Y105.987 E.03248
G1 X123.009 Y106.801 E.03249
G1 X123.414 Y107.554 E.0325
G1 X119.555 Y105.858 E.16021
G1 X119.234 Y105.675 E.01404
G1 X119.018 Y105.436 E.01224
G1 X118.901 Y105.082 E.01417
G1 X118.921 Y104.773 E.01177
G1 X119.058 Y104.485 E.01212
G1 X119.29 Y104.253 E.01247
G1 X123.362 Y102.469 E.16896
M204 S1000
G1 E-1.6 F2100
;WIPE_START
G1 F9600
G1 X123.417 Y102.445 E-.01247
G1 X123.012 Y103.191 E-.1764
G1 X122.743 Y104.054 E-.18785
G1 X122.729 Y104.165 E-.02328
;WIPE_END
G1 X118.969 Y103.934 Z.266 F12000
G1 Z.2 F720
G1 E2 F1500
M204 S600
G1 F1200
G1 X119.071 Y103.85 E.00502
G1 X124.48 Y101.48 E.22444
G1 X124.654 Y101.382 E.00759
;WIDTH:0.460545
G1 X124.828 Y101.285 E.00692
;WIDTH:0.421091
G1 X125.002 Y101.187 E.00628
;WIDTH:0.381637
G1 X125.635 Y100.91 E.01946
;WIDTH:0.379718
G1 X126.46 Y100.673 E.02404
;WIDTH:0.413115
G1 X126.765 Y100.672 E.00939
;WIDTH:0.456557
G1 X127.07 Y100.672 E.01049
;WIDTH:0.499999
G1 X127.375 Y100.672 E.01159
G1 X127.968 Y100.733 E.02266
G1 X128.721 Y100.934 E.02962
G1 X129.367 Y101.231 E.02702
G1 X129.872 Y101.564 E.02299
G1 X130.325 Y101.966 E.02302
G1 X130.784 Y102.516 E.02723
G1 X131.088 Y103.02 E.02237
G1 X131.374 Y103.716 E.0286
G1 X131.448 Y103.944 E.00911
;WIDTH:0.454611
G1 X131.522 Y104.171 E.00817
;WIDTH:0.409223
G1 X131.596 Y104.399 E.0073
;WIDTH:0.363834
G1 X131.609 Y104.548 E.00399
;WIDTH:0.364003
G1 X131.632 Y105.098 E.0147
;WIDTH:0.371516
G1 X131.588 Y105.628 E.01453
G1 X131.426 Y106.334 E.01979
;WIDTH:0.37117
G1 X131.128 Y107.051 E.02119
;WIDTH:0.3717
G1 X130.807 Y107.566 E.01659
G1 X130.332 Y108.122 E.01999
;WIDTH:0.370742
G1 X129.84 Y108.547 E.01772
;WIDTH:0.367301
G1 X129.183 Y108.941 E.02066
G1 X128.642 Y109.169 E.01583
;WIDTH:0.37727
G1 X128.127 Y109.304 E.0148
G1 X127.566 Y109.382 E.01575
;WIDTH:0.36768
G1 X126.757 Y109.373 E.02185
;WIDTH:0.369345
G1 X126.242 Y109.284 E.01419
;WIDTH:0.371726
G1 X125.814 Y109.162 E.01217
;WIDTH:0.374107
G1 X125.201 Y108.909 E.01826
;WIDTH:0.419692
G1 X124.844 Y108.728 E.01254
;WIDTH:0.465276
G1 X124.487 Y108.546 E.01407
;WIDTH:0.499999
G1 X123.983 Y108.305 E.02123
G1 X119.371 Y106.277 E.19148
G1 X118.948 Y106.037 E.01848
G1 X118.628 Y105.675 E.01836
G1 X118.464 Y105.276 E.0164
G1 X118.449 Y104.771 E.0192
G1 X118.563 Y104.424 E.01388
G1 X118.782 Y104.089 E.01521
G1 X118.923 Y103.972 E.00696
M204 S1000
G1 X118.698 Y103.573 F12000
M204 S600
G1 F1200
G1 X118.851 Y103.447 E.00753
G1 X125.489 Y100.539 E.27543
G1 X126.369 Y100.289 E.03477
G1 X126.902 Y100.222 E.02042
G1 X127.418 Y100.217 E.01961
G1 X128.081 Y100.29 E.02535
G1 X128.908 Y100.517 E.03259
G1 X129.615 Y100.847 E.02965
G1 X130.172 Y101.219 E.02546
G1 X130.674 Y101.67 E.02565
G1 X131.174 Y102.276 E.02986
G1 X131.51 Y102.845 E.02511
G1 X131.82 Y103.616 E.03158
G1 X131.984 Y104.371 E.02936
G1 X132.029 Y105.002 E.02404
G1 X131.981 Y105.674 E.02561
G1 X131.817 Y106.394 E.02807
G1 X131.624 Y106.882 E.01994
G1 X131.381 Y107.386 E.02127
G1 X131.106 Y107.82 E.01953
G1 X130.59 Y108.419 E.03005
G1 X130.058 Y108.871 E.02653
G1 X129.365 Y109.285 E.03068
G1 X128.782 Y109.536 E.02412
G1 X128.25 Y109.682 E.02097
G1 X127.764 Y109.763 E.01873
G1 X127.182 Y109.791 E.02215
G1 X126.678 Y109.756 E.0192
G1 X125.849 Y109.581 E.0322
G1 X125.292 Y109.38 E.02251
G1 X119.187 Y106.695 E.25348
G1 X118.663 Y106.399 E.02287
M73 P2 R13
G1 X118.323 Y106.052 E.01846
G1 X118.109 Y105.643 E.01754
G1 X117.993 Y105.195 E.01759
G1 X117.996 Y104.696 E.01897
G1 X118.151 Y104.227 E.01877
G1 X118.442 Y103.781 E.02024
G1 X118.651 Y103.61 E.01026
M204 S1000
G1 X118.426 Y103.211 F12000
M204 S600
;TYPE:External perimeter
G1 F1200
G1 X118.632 Y103.044 E.01008
G1 X125.334 Y100.108 E.27809
G1 X126.353 Y99.83 E.04014
G1 X126.958 Y99.76 E.02315
G1 X127.46 Y99.762 E.01908
G1 X128.195 Y99.847 E.02812
G1 X129.095 Y100.1 E.03553
G1 X129.862 Y100.462 E.03223
G1 X130.472 Y100.874 E.02798
G1 X131.022 Y101.375 E.02828
G1 X131.563 Y102.037 E.03249
G1 X131.933 Y102.67 E.02787
G1 X132.265 Y103.515 E.03451
G1 X132.44 Y104.338 E.03198
G1 X132.487 Y105.002 E.0253
G1 X132.434 Y105.741 E.02816
G1 X132.244 Y106.58 E.03269
G1 X131.892 Y107.427 E.03486
G1 X131.505 Y108.057 E.0281
G1 X130.947 Y108.713 E.03273
G1 X130.386 Y109.201 E.02826
G1 X129.962 Y109.486 E.01942
G1 X129.403 Y109.782 E.02404
G1 X128.927 Y109.97 E.01945
G1 X128.317 Y110.137 E.02404
G1 X127.812 Y110.218 E.01944
G1 X127.179 Y110.249 E.02409
G1 X126.669 Y110.219 E.01942
G1 X126.098 Y110.121 E.02202
G1 X125.597 Y109.984 E.01974
G1 X125.117 Y109.803 E.0195
G1 X118.872 Y107.056 E.2593
G1 X118.378 Y106.761 E.02187
G1 X117.96 Y106.335 E.02268
G1 X117.745 Y105.984 E.01564
G1 X117.569 Y105.487 E.02004
G1 X117.513 Y105.037 E.01723
G1 X117.543 Y104.62 E.01589
G1 X117.65 Y104.215 E.01592
G1 X117.83 Y103.838 E.01588
G1 X118.101 Y103.473 E.01728
G1 X118.379 Y103.248 E.01359
M204 S1000
G1 E-1.6 F2100
;WIPE_START
G1 F9600
G1 X118.426 Y103.211 E-.01243
G1 X118.632 Y103.044 E-.05511
G1 X120.097 Y102.402 E-.33246
;WIPE_END
G1 X122.645 Y103.606 Z.249 F12000
G1 Z.2 F720
G1 E2 F1500
M204 S600
;TYPE:Solid infill
;WIDTH:0.535246
G1 F1200
G1 X122.385 Y103.346 E.01505
G1 X121.901 Y103.558 E.02163
G1 X122.336 Y103.993 E.02518
G1 X122.266 Y104.619 E.02579
G1 X121.417 Y103.77 E.04915
G1 X120.933 Y103.982 E.02163
G1 X122.249 Y105.298 E.07619
G1 X122.285 Y105.739 E.01811
G1 X122.352 Y106.098 E.01495
G1 X120.449 Y104.195 E.11017
G1 X119.965 Y104.407 E.02163
G1 X122.076 Y106.518 E.12221
G1 X120.833 Y105.971 E.05559
G1 X119.485 Y104.623 E.07804
G1 X119.37 Y104.754 E.00714
G1 X119.312 Y104.913 E.00693
G1 X119.317 Y105.078 E.00676
G1 X119.369 Y105.203 E.00554
G1 X119.991 Y105.825 E.03601
M204 S1000
M106 S127.5
;LAYER_CHANGE
;Z:0.4
;HEIGHT:0.2
;BEFORE_LAYER_CHANGE
G92 E0.0
;0.4


G1 E-1.6 F2100
;WIPE_START
G1 F9600
G1 X119.369 Y105.203 E-.1828
G1 X119.317 Y105.078 E-.02813
G1 X119.312 Y104.913 E-.0343
G1 X119.37 Y104.754 E-.03517
G1 X119.485 Y104.623 E-.03623
G1 X119.769 Y104.907 E-.08337
;WIPE_END
G1 X119.769 Y104.907 Z.2 F12000
G1 X125.9 Y101.058 Z.4
;AFTER_LAYER_CHANGE
;0.4
;@SNAPSHOT
M104 S225 ; set temperature
G1 Z.4 F720
G1 E2 F1500
;TYPE:Perimeter
;WIDTH:0.370207
G1 F2040.976
G1 X126.205 Y100.951 E.0088
;WIDTH:0.376641
G1 F2038.786
G1 X126.523 Y100.905 E.00892
;WIDTH:0.41332
G1 F2033.338
G1 X126.705 Y100.912 E.00561
;WIDTH:0.449999
G1 F2029.563
G1 X126.887 Y100.918 E.00616
G1 F2036.236
G1 X127.331 Y101.126 E.0166
G1 F2064.877
G1 X130.847 Y103.589 E.14531
G1 F2036.994
G1 X131.063 Y103.774 E.00963
G1 F2030.535
G1 X131.233 Y103.992 E.00936
G1 F2026.819
G1 X131.309 Y104.242 E.00884
;WIDTH:0.405662
G1 F2033.467
G1 X131.385 Y104.493 E.00791
;WIDTH:0.364287
G1 F2042.889
G1 X131.408 Y105.185 E.0185
G1 X131.329 Y105.855 E.01803
;WIDTH:0.3644
G1 F2043.435
G1 X131.163 Y106.417 E.01566
G1 F2041.912
G1 X131.01 Y106.791 E.0108
;WIDTH:0.356916
G1 F2044.69
G1 X130.757 Y107.248 E.01364
;WIDTH:0.358643
G1 F2043.857
G1 X130.427 Y107.7 E.01469
;WIDTH:0.364457
G1 X130.034 Y108.097 E.01494
G1 F2046.585
G1 X129.424 Y108.553 E.02036
;WIDTH:0.363981
G1 F2044.024
G1 X128.756 Y108.893 E.02001
;WIDTH:0.369683
G1 F2042.737
G1 X128.162 Y109.061 E.01677
G1 X127.624 Y109.161 E.01487
;WIDTH:0.359008
G1 F2044.929
G1 X127.019 Y109.171 E.0159
;WIDTH:0.364323
G1 F2043.395
G1 X126.393 Y109.087 E.01688
G1 X126.003 Y108.991 E.01073
;WIDTH:0.362147
G1 F2045.922
G1 X125.506 Y108.803 E.0141
;WIDTH:0.403428
G1 F2041.076
G1 X124.83 Y108.44 E.023
;WIDTH:0.438271
G1 F2038.069
G1 X124.609 Y108.296 E.00867
;WIDTH:0.449999
G1 F2040.549
G1 X124.219 Y107.951 E.01762
G1 F2050.964
G1 X123.724 Y107.341 E.02659
G1 F2065.75
G1 X123.352 Y106.651 E.02653
G1 F2080.74
G1 X123.113 Y105.902 E.02661
G1 F2092.559
G1 X123.018 Y105.124 E.02653
G1 F2096.082
G1 X123.023 Y104.817 E.01039
G1 F2092.39
G1 X123.107 Y104.143 E.02299
G1 F2079.993
G1 X123.356 Y103.34 E.02846
G1 F2061.543
G1 X123.862 Y102.469 E.0341
G1 F2043.573
G1 X124.419 Y101.856 E.02804
G1 F2034.516
G1 X124.622 Y101.686 E.00896
G1 F2032.029
G1 X124.846 Y101.551 E.00885
;WIDTH:0.416025
G1 F2036.221
G1 X125.069 Y101.417 E.00807
;WIDTH:0.38205
G1 F2041.666
G1 X125.73 Y101.118 E.02046
;WIDTH:0.370207
G1 F2040.976
G1 X125.844 Y101.078 E.00329
G1 X126.017 Y101.402 F12000
;WIDTH:0.449999
G1 F2042.503
G1 X126.285 Y101.302 E.00968
G1 F2041.82
G1 X126.52 Y101.276 E.008
G1 F2044.44
G1 X126.78 Y101.311 E.00888
G1 F2050.881
G1 X127.097 Y101.46 E.01186
G1 F2077.369
G1 X130.613 Y103.922 E.14529
G1 F2049.434
G1 X130.889 Y104.21 E.0135
G1 F2043.524
G1 X131.044 Y104.669 E.0164
G1 X131.044 Y105.182 E.01736
G1 X130.972 Y105.796 E.02093
G1 X130.817 Y106.303 E.01795
G1 F2042.375
G1 X130.695 Y106.616 E.01137
G1 X130.442 Y107.073 E.01768
G1 X130.142 Y107.478 E.01706
G1 F2043.58
G1 X129.784 Y107.832 E.01704
G1 F2044.879
G1 X129.507 Y108.068 E.01232
G1 F2043.945
G1 X129.068 Y108.348 E.01762
G1 X128.611 Y108.562 E.01708
G1 F2044.411
G1 X128.079 Y108.703 E.01863
G1 X127.536 Y108.804 E.0187
G1 X127.015 Y108.81 E.01764
G1 F2043.793
G1 X126.457 Y108.728 E.01909
G1 X126.131 Y108.652 E.01133
G1 F2045.209
G1 X125.638 Y108.465 E.01785
G1 F2049.018
G1 X125.03 Y108.112 E.0238
G1 F2052.092
G1 X124.492 Y107.65 E.024
G1 F2060.826
G1 X124.049 Y107.095 E.02404
G1 F2071.967
G1 X123.716 Y106.469 E.024
G1 F2081.939
G1 X123.505 Y105.791 E.02404
G1 F2089.778
G1 X123.423 Y105.087 E.02399
G1 F2095.808
G1 X123.511 Y104.193 E.03041
G1 F2085.646
G1 X123.74 Y103.476 E.02548
G1 F2071.52
G1 X124.207 Y102.686 E.03106
G1 F2057.658
G1 X124.709 Y102.142 E.02506
G1 F2049.021
G1 X125.282 Y101.723 E.02403
G1 F2045.697
