; generated by PrusaSlicer 2.9.3 on 2025-10-13 at 21:21:49 UTC


;
;

;
;

;
;

;
;

;
;
; 

; external perimeters extrusion width = 0.45mm
; perimeters extrusion width = 0.45mm
; infill extrusion width = 0.45mm
; solid infill extrusion width = 0.45mm
; top infill extrusion width = 0.42mm
; first layer extrusion width = 0.50mm

M73 P0 R13

EXCLUDE_OBJECT_DEFINE NAME='a_60dg_lobe_2_stl' CENTER=125.375,104.586 POLYGON=[[121.488,98.758],[127.393,99.410],[128.386,99.606],[129.283,99.942],[129.995,100.337],[130.762,100.926],[131.446,101.659],[132.119,102.727],[132.503,103.725],[132.719,104.950],[132.681,106.173],[132.382,107.399],[131.930,108.375],[131.230,109.348],[130.445,110.089],[129.438,110.730],[128.410,111.135],[127.187,111.357],[125.998,111.328],[124.896,111.085],[123.776,110.594],[122.808,109.911],[122.013,109.077],[117.744,103.253],[117.377,102.438],[117.267,101.731],[117.327,101.017],[117.637,100.179],[118.055,99.598],[118.598,99.132],[119.237,98.808],[119.934,98.644]]

;TYPE:Custom
G90 ; use absolute coordinates
M83 ; extruder relative mode
M104 S170 ; preheat hotend to 170
M140 S65 ; set bed temp
M190 S65 ; wait for bed temp
G28 ; home all
;G29 ; mesh bed leveling
BED_MESH_CALIBRATE
G0 X0 Z0.6 Y-3.0 F1000.0 ; go outside print area for intro line
M104 S215 ; set hotend temp
M109 S215 ; wait for hotend temp
;M104 S0 ; Stops PS/SS from sending temp waits separately
;M140 S0
;PRINT_START BED=65 HOTEND=215
G92 E0.0
G1 X60.0 E9.0 F1000.0 ; intro line
G1 X100.0 E12.5 F1000.0 ; intro line
M73 P0 R12
G92 E0.0
SKEW_PROFILE LOAD=CaliFlower
G21 ; set units to millimeters
G90 ; use absolute coordinates
M83 ; use relative distances for extrusion
M900 K0.05 ; Filament gcode



M142 S36 ; set heatbreak target temp
M107
;LAYER_CHANGE
;Z:0.2
;HEIGHT:0.2
G1 E-2 F2100
G1 Z.8 F720
EXCLUDE_OBJECT_START NAME='a_60dg_lobe_2_stl'
G1 X122.84 Y106.696 F12000
G1 Z.2 F720
G1 E2 F1500
M204 S600
;TYPE:Perimeter
;WIDTH:0.499999
G1 F1200
G1 X122.724 Y106.424 E.01124
G1 X122.686 Y105.847 E.02198
G1 X122.872 Y105.408 E.01812
G1 X125.446 Y101.733 E.17053
G1 X125.817 Y101.395 E.01907
G1 X126.064 Y101.343 E.00959
;WIDTH:0.456619
G1 X126.312 Y101.291 E.00872
;WIDTH:0.413239
G1 X127.04 Y101.31 E.02242
;WIDTH:0.37104
G1 X127.708 Y101.421 E.01848
;WIDTH:0.372056
G1 X128.199 Y101.579 E.01412
G1 X128.685 Y101.797 E.01458
;WIDTH:0.366201
G1 X129.154 Y102.099 E.01499
;WIDTH:0.369861
G1 X129.674 Y102.556 E.01882
;WIDTH:0.377742
G1 X130.116 Y103.126 E.02008
G1 X130.386 Y103.564 E.01432
;WIDTH:0.366274
G1 X130.609 Y104.117 E.01603
;WIDTH:0.370774
G1 X130.755 Y104.742 E.0175
;WIDTH:0.376253
G1 X130.793 Y105.455 E.01979
M73 P1 R12
G1 X130.747 Y106.062 E.01687
;WIDTH:0.365805
G1 X130.618 Y106.605 E.01498
G1 X130.323 Y107.303 E.02034
;WIDTH:0.365535
G1 X129.903 Y107.933 E.02031
;WIDTH:0.372765
G1 X129.533 Y108.326 E.0148
G1 X129.219 Y108.602 E.01147
;WIDTH:0.365865
G1 X128.755 Y108.911 E.01497
G1 X128.064 Y109.222 E.02035
;WIDTH:0.37174
G1 X127.493 Y109.371 E.01613
G1 X127.037 Y109.433 E.01258
;WIDTH:0.369912
G1 X126.516 Y109.44 E.01417
;WIDTH:0.366535
G1 X125.822 Y109.344 E.01885
G1 X125.104 Y109.103 E.02038
;WIDTH:0.365024
G1 X124.44 Y108.739 E.02028
;WIDTH:0.372954
G1 X124.043 Y108.425 E.01389
G1 X123.718 Y108.112 E.01238
;WIDTH:0.370076
G1 X123.37 Y107.675 E.0152
;WIDTH:0.418815
G1 X122.981 Y107.024 E.0237
;WIDTH:0.459407
G1 X122.864 Y106.751 E.01029
M204 S1000
G1 X123.253 Y106.555 F12000
M204 S600
;WIDTH:0.499999
G1 F1200
G1 X123.157 Y106.28 E.01107
G1 X123.135 Y105.934 E.01318
G1 X123.246 Y105.67 E.01088
G1 X125.82 Y101.995 E.17053
G1 X126.043 Y101.792 E.01146
G1 X126.381 Y101.703 E.01328
G1 X127.041 Y101.702 E.02508
G1 X127.632 Y101.806 E.02281
G1 X128.361 Y102.068 E.02944
G1 X128.945 Y102.426 E.02603
G1 X129.406 Y102.842 E.0236
G1 X129.789 Y103.349 E.02415
G1 X130.039 Y103.744 E.01777
G1 X130.247 Y104.262 E.02122
G1 X130.37 Y104.818 E.02164
G1 X130.406 Y105.079 E.01001
G1 X130.39 Y105.823 E.02828
G1 X130.239 Y106.513 E.02684
G1 X129.967 Y107.142 E.02605
G1 X129.584 Y107.71 E.02604
G1 X129.102 Y108.197 E.02604
G1 X128.649 Y108.513 E.02099
G1 X128.409 Y108.655 E.0106
G1 X127.913 Y108.865 E.02047
G1 X127.409 Y108.987 E.01971
G1 X127.025 Y109.041 E.01474
G1 X126.525 Y109.055 E.01901
G1 X125.883 Y108.959 E.02467
G1 X125.234 Y108.739 E.02604
G1 X124.637 Y108.403 E.02604
G1 X124.112 Y107.963 E.02603
G1 X123.678 Y107.432 E.02606
G1 X123.35 Y106.831 E.02602
G1 X123.273 Y106.612 E.00882
M204 S1000
G1 X123.684 Y106.409 F12000
M204 S600
;TYPE:External perimeter
G1 F1200
G1 X123.591 Y106.136 E.01096
G1 X123.621 Y105.933 E.0078
G1 X126.194 Y102.257 E.17053
G1 X126.367 Y102.16 E.00754
G1 X127.041 Y102.159 E.02562
G1 X127.543 Y102.254 E.01942
G1 X128.191 Y102.492 E.02624
G1 X128.7 Y102.811 E.02283
G1 X129.093 Y103.175 E.02036
G1 X129.615 Y103.915 E.03442
G1 X129.823 Y104.433 E.02122
G1 X129.944 Y105.02 E.02278
G1 X129.933 Y105.814 E.03018
G1 X129.795 Y106.405 E.02307
G1 X129.551 Y106.954 E.02283
G1 X129.21 Y107.448 E.02281
G1 X128.783 Y107.87 E.02282
G1 X128.285 Y108.206 E.02283
G1 X127.734 Y108.444 E.02281
G1 X127.148 Y108.576 E.02283
G1 X126.548 Y108.598 E.02282
G1 X125.954 Y108.507 E.02284
G1 X125.388 Y108.309 E.02279
G1 X124.868 Y108.009 E.02282
G1 X124.412 Y107.618 E.02283
G1 X124.037 Y107.149 E.02282
G1 X123.755 Y106.619 E.02282
G1 X123.703 Y106.466 E.00614
M204 S1000
G1 E-1.6 F2100
;WIPE_START
G1 F9600
G1 X123.684 Y106.409 E-.01249
G1 X123.591 Y106.136 E-.05993
G1 X123.621 Y105.933 E-.04264
G1 X124.407 Y104.81 E-.28494
;WIPE_END
G1 X122.24 Y105.805 Z.242 F12000
G1 Z.2 F720
G1 E2 F1500
M204 S600
;TYPE:Perimeter
G1 F1200
G1 X119.635 Y102.253 E.16741
G1 X119.481 Y102 E.01126
G1 X119.408 Y101.697 E.01185
G1 X119.441 Y101.352 E.01317
G1 X119.646 Y101.022 E.01477
G1 X119.902 Y100.847 E.01179
G1 X120.247 Y100.755 E.01357
G1 X125.25 Y101.308 E.1913
G1 X125.071 Y101.471 E.0092
G1 X122.497 Y105.146 E.17053
G1 X122.262 Y105.749 E.0246
M204 S1000
G1 E-1.6 F2100
;WIPE_START
G1 F9600
G1 X122.24 Y105.805 E-.0125
G1 X121.137 Y104.301 E-.3875
;WIPE_END
G1 X127.217 Y101.005 Z.321 F12000
G1 Z.2 F720
G1 E2 F1500
M204 S600
;WIDTH:0.40747
G1 F1200
G1 X127.284 Y101.011 E.00204
;WIDTH:0.370261
G1 X127.789 Y101.104 E.01398
;WIDTH:0.372056
G1 X128.33 Y101.277 E.01554
G1 X128.887 Y101.539 E.01685
;WIDTH:0.367982
G1 X129.532 Y101.983 E.02116
;WIDTH:0.36578
G1 X130.033 Y102.466 E.01868
;WIDTH:0.377742
G1 X130.399 Y102.947 E.01683
G1 X130.7 Y103.473 E.01687
;WIDTH:0.36667
G1 X130.939 Y104.096 E.01796
;WIDTH:0.370774
G1 X131.079 Y104.699 E.01688
G1 X131.104 Y104.974 E.00753
;WIDTH:0.376253
G1 X131.125 Y105.478 E.01398
G1 X131.033 Y106.297 E.02284
;WIDTH:0.370877
G1 X130.842 Y106.922 E.01782
;WIDTH:0.365736
G1 X130.494 Y107.653 E.02173
G1 X130.13 Y108.166 E.01688
;WIDTH:0.372765
G1 X129.768 Y108.558 E.01463
G1 X129.402 Y108.868 E.01315
;WIDTH:0.368358
G1 X128.684 Y109.316 E.0229
G1 X128.148 Y109.529 E.01561
;WIDTH:0.37174
G1 X127.549 Y109.695 E.01699
G1 X127.037 Y109.76 E.01411
;WIDTH:0.369912
G1 X126.344 Y109.747 E.01885
;WIDTH:0.366535
G1 X125.768 Y109.664 E.01566
;WIDTH:0.372003
G1 X125.309 Y109.533 E.01306
G1 X124.777 Y109.302 E.01587
;WIDTH:0.36463
G1 X124.235 Y108.991 E.01672
;WIDTH:0.372954
G1 X123.826 Y108.673 E.01422
G1 X123.469 Y108.315 E.01387
;WIDTH:0.376738
G1 X122.976 Y107.685 E.0222
;WIDTH:0.418815
G1 X122.663 Y107.223 E.01744
;WIDTH:0.459407
G1 X122.477 Y106.935 E.01187
;WIDTH:0.499999
G1 X122.291 Y106.648 E.013
G1 X119.266 Y102.523 E.19441
G1 X119.135 Y102.314 E.00937
G1 X118.964 Y101.891 E.01734
G1 X118.94 Y101.559 E.01265
G1 X119.045 Y101.115 E.01734
G1 X119.312 Y100.704 E.01863
G1 X119.565 Y100.499 E.01238
G1 X119.864 Y100.362 E.0125
G1 X120.23 Y100.294 E.01415
G1 X125.715 Y100.899 E.20973
G1 X126.058 Y100.914 E.01305
;WIDTH:0.453735
G1 X126.401 Y100.928 E.01173
;WIDTH:0.40747
G1 X127.157 Y100.999 E.02302
M204 S1000
G1 X127.26 Y100.611 F12000
M204 S600
;WIDTH:0.499999
G1 F1200
G1 X127.872 Y100.719 E.02362
G1 X128.463 Y100.905 E.02355
G1 X129.07 Y101.191 E.0255
G1 X129.723 Y101.629 E.02988
G1 X130.16 Y102.026 E.02244
G1 X130.503 Y102.415 E.01971
G1 X130.948 Y103.106 E.03124
G1 X131.203 Y103.644 E.02263
G1 X131.369 Y104.167 E.02085
G1 X131.471 Y104.674 E.01966
G1 X131.523 Y105.472 E.03039
G1 X131.423 Y106.359 E.03393
G1 X131.279 Y106.89 E.02091
G1 X130.975 Y107.589 E.02897
G1 X130.707 Y108.053 E.02037
G1 X130.373 Y108.488 E.02084
G1 X130.016 Y108.865 E.01973
G1 X129.626 Y109.187 E.01922
G1 X128.862 Y109.667 E.03429
G1 X128.101 Y109.963 E.03103
G1 X127.6 Y110.085 E.0196
G1 X127.028 Y110.152 E.02189
G1 X126.128 Y110.124 E.03422
G1 X125.419 Y109.976 E.02753
G1 X124.829 Y109.749 E.02403
G1 X124.373 Y109.54 E.01906
G1 X123.827 Y109.177 E.02492
G1 X123.275 Y108.69 E.02798
G1 X122.855 Y108.188 E.02488
G1 X118.897 Y102.793 E.25431
G1 X118.642 Y102.378 E.01851
G1 X118.512 Y101.979 E.01595
G1 X118.48 Y101.535 E.01692
G1 X118.559 Y101.091 E.01714
G1 X118.692 Y100.775 E.01303
G1 X118.979 Y100.386 E.01837
G1 X119.322 Y100.108 E.01678
G1 X119.724 Y99.923 E.01682
G1 X120.237 Y99.835 E.01978
G1 X127.201 Y100.603 E.26628
M204 S1000
G1 X127.31 Y100.156 F12000
M73 P2 R12
M204 S600
;TYPE:External perimeter
G1 F1200
G1 X127.981 Y100.275 E.0259
G1 X128.63 Y100.479 E.02586
G1 X129.296 Y100.792 E.02797
G1 X130.005 Y101.268 E.03246
G1 X130.51 Y101.726 E.02591
G1 X130.845 Y102.109 E.01934
G1 X131.137 Y102.52 E.01916
G1 X131.447 Y103.067 E.0239
G1 X131.648 Y103.535 E.01936
G1 X131.832 Y104.132 E.02374
G1 X131.927 Y104.644 E.01979
G1 X131.982 Y105.483 E.03196
G1 X131.873 Y106.445 E.0368
G1 X131.712 Y107.042 E.0235
G1 X131.347 Y107.88 E.03474
G1 X131.051 Y108.355 E.02127
G1 X130.618 Y108.898 E.0264
G1 X130.011 Y109.475 E.03183
G1 X129.497 Y109.837 E.02389
G1 X129.056 Y110.082 E.01917
G1 X128.203 Y110.414 E.03479
G1 X127.712 Y110.531 E.01918
G1 X127.094 Y110.611 E.02368
G1 X126.049 Y110.574 E.03974
G1 X125.291 Y110.415 E.02944
G1 X124.643 Y110.167 E.02637
G1 X124.128 Y109.926 E.02161
G1 X123.543 Y109.535 E.02674
G1 X122.941 Y109.003 E.03053
G1 X122.495 Y108.471 E.02638
G1 X118.529 Y103.064 E.25485
G1 X118.223 Y102.567 E.02218
G1 X118.061 Y102.068 E.01994
G1 X118.02 Y101.511 E.02123
G1 X118.118 Y100.96 E.02127
G1 X118.292 Y100.548 E.017
G1 X118.646 Y100.067 E.0227
G1 X119.078 Y99.717 E.02113
G1 X119.585 Y99.484 E.02121
G1 X120.255 Y99.377 E.02579
G1 X127.251 Y100.149 E.26751
M204 S1000
G1 E-1.6 F2100
;WIPE_START
G1 F9600
G1 X127.31 Y100.156 E-.01235
G1 X127.981 Y100.275 E-.14162
G1 X128.63 Y100.479 E-.14138
G1 X129.086 Y100.693 E-.10465
;WIPE_END
G1 X123.768 Y101.351 Z.294 F12000
G1 Z.2 F720
G1 E2 F1500
M204 S600
;TYPE:Solid infill
;WIDTH:0.513177
G1 F1200
G1 X124.288 Y101.872 E.02878
G1 X124.014 Y102.263 E.01867
G1 X123.253 Y101.501 E.04211
G1 X122.505 Y101.419 E.02942
G1 X123.74 Y102.654 E.06829
G1 X123.467 Y103.045 E.01865
G1 X121.757 Y101.336 E.09453
G1 X121.01 Y101.253 E.02939
G1 X123.193 Y103.436 E.12072
G1 X122.919 Y103.827 E.01867
G1 X120.262 Y101.171 E.1469
G1 X120.129 Y101.196 E.00529
G1 X120.027 Y101.242 E.00438
G1 X119.946 Y101.309 E.00411
G1 X119.861 Y101.423 E.00556
G1 X122.645 Y104.218 E.15426
G1 X122.371 Y104.61 E.0187
G1 X119.666 Y101.905 E.14958
M204 S1000
M106 S127.5
;LAYER_CHANGE
;Z:0.4
;HEIGHT:0.2
;BEFORE_LAYER_CHANGE
G92 E0.0
;0.4


G1 E-1.6 F2100
;WIPE_START
G1 F9600
G1 X121.027 Y103.266 E-.4
;WIPE_END
G1 X121.027 Y103.266 Z.2 F12000
G1 X122.749 Y106.726 Z.4
;AFTER_LAYER_CHANGE
;0.4
;@SNAPSHOT
M104 S225 ; set temperature
G1 Z.4 F720
G1 E2 F1500
;TYPE:Perimeter
;WIDTH:0.449999
G1 F2039.291
G1 X122.678 Y106.556 E.00624
G1 F2049.918
G1 X122.628 Y105.832 E.02456
G1 F2065.757
G1 X122.861 Y105.281 E.02025
G1 F2098.879
G1 X125.323 Y101.765 E.14529
G1 F2050.954
G1 X125.792 Y101.34 E.02142
G1 F2038.824
G1 X126.097 Y101.264 E.01064
;WIDTH:0.423185
G1 X126.402 Y101.187 E.00995
;WIDTH:0.39637
G1 F2042.606
G1 X127.033 Y101.206 E.01855
;WIDTH:0.361614
G1 F2048.818
G1 X127.799 Y101.335 E.02058
;WIDTH:0.360869
G1 F2046.218
G1 X128.528 Y101.601 E.02052
;WIDTH:0.369253
G1 F2041.499
G1 X129.16 Y101.987 E.02009
G1 F2042.33
G1 X129.578 Y102.316 E.01443
;WIDTH:0.359817
G1 F2046.355
G1 X129.947 Y102.704 E.01411
;WIDTH:0.360373
G1 F2044.606
G1 X130.388 Y103.349 E.02062
G1 F2045.131
G1 X130.699 Y104.061 E.02051
;WIDTH:0.365533
G1 F2043.828
G1 X130.828 Y104.568 E.01403
G1 X130.9 Y105.115 E.0148
;WIDTH:0.362848
G1 X130.887 Y105.809 E.01847
G1 F2042.658
G1 X130.724 Y106.612 E.0218
;WIDTH:0.361398
G1 X130.429 Y107.325 E.02043
G1 F2044.424
G1 X129.996 Y107.976 E.0207
;WIDTH:0.357352
G1 X129.461 Y108.537 E.02027
;WIDTH:0.365507
G1 X129.034 Y108.855 E.01428
G1 X128.563 Y109.126 E.01458
;WIDTH:0.362098
G1 F2042.558
G1 X127.916 Y109.378 E.01843
G1 F2044.494
G1 X127.113 Y109.534 E.02171
;WIDTH:0.359651
G1 F2043.314
G1 X126.551 Y109.547 E.0148
;WIDTH:0.357537
G1 X125.824 Y109.449 E.01919
;WIDTH:0.364957
G1 F2041.313
G1 X125.301 Y109.292 E.01462
G1 X124.852 Y109.103 E.01304
;WIDTH:0.360689
G1 F2044.243
G1 X124.403 Y108.84 E.01375
;WIDTH:0.359718
G1 X123.802 Y108.347 E.02048
;WIDTH:0.365167
G1 F2043.604
G1 X123.444 Y107.939 E.01454
;WIDTH:0.369402
G1 F2044.757
G1 X123.157 Y107.541 E.01332
;WIDTH:0.408812
G1 F2041.658
G1 X122.898 Y107.088 E.01588
;WIDTH:0.449999
G1 F2039.291
G1 X122.772 Y106.782 E.0112
G1 X123.127 Y106.598 F12000
G1 F2054.506
G1 X123.064 Y106.426 E.0062
G1 F2061.897
G1 X123.028 Y105.908 E.01758
G1 F2071.934
G1 X123.194 Y105.515 E.01444
G1 F2099.739
G1 X125.656 Y101.998 E.14532
G1 F2060.735
G1 X125.991 Y101.695 E.01529
G1 F2051.503
G1 X126.499 Y101.564 E.01776
G1 F2048.37
G1 X127.029 Y101.569 E.01794
G1 X127.729 Y101.69 E.02405
G1 F2045.704
G1 X128.393 Y101.937 E.02398
G1 F2043.168
G1 X128.954 Y102.29 E.02244
G1 X129.316 Y102.564 E.01537
G1 F2045.773
G1 X129.684 Y102.953 E.01813
G1 F2044.479
G1 X130.083 Y103.544 E.02414
G1 X130.364 Y104.195 E.024
G1 X130.519 Y104.887 E.024
G1 F2043.343
G1 X130.532 Y105.406 E.01757
G1 F2042.168
G1 X130.513 Y105.928 E.01768
G1 X130.372 Y106.526 E.0208
G1 X130.098 Y107.175 E.02385
G1 F2043.311
G1 X129.704 Y107.771 E.02418
G1 X129.208 Y108.279 E.02403
G1 F2045.147
G1 X128.628 Y108.687 E.024
G1 F2043.073
G1 X127.785 Y109.04 E.03094
G1 F2044.089
G1 X127.057 Y109.176 E.02507
G1 F2042.906
G1 X126.552 Y109.187 E.0171
G1 X125.88 Y109.093 E.02297
G1 X125.207 Y108.871 E.02399
G1 X124.586 Y108.527 E.02403
G1 F2043.653
G1 X124.039 Y108.075 E.02402
G1 F2044.789
G1 X123.585 Y107.529 E.02404
G1 F2049.496
G1 X123.241 Y106.909 E.024
G1 F2054.506
G1 X123.148 Y106.654 E.00919
G1 X123.511 Y106.468 F12000
G1 F2067.845
G1 X123.449 Y106.295 E.00622
G1 F2072.241
G1 X123.428 Y105.984 E.01055
G1 F2077.498
G1 X123.527 Y105.748 E.00866
G1 F2100
G1 X125.99 Y102.232 E.14531
G1 F2069.538
G1 X126.191 Y102.05 E.00918
G1 F2065.313
G1 X126.496 Y101.971 E.01066
G1 F2062.888
G1 X127.026 Y101.976 E.01794
G1 X127.65 Y102.089 E.02147
G1 F2061.054
G1 X128.242 Y102.315 E.02145
G1 F2059.213
G1 X128.725 Y102.627 E.01946
G1 X129.02 Y102.844 E.0124
G1 F2061.109
G1 X129.388 Y103.233 E.01813
G1 F2059.699
G1 X129.74 Y103.763 E.02154
G1 F2055.658
G1 X129.986 Y104.347 E.02145
G1 F2042.386
G1 X130.12 Y104.967 E.02147
G1 F2039.136
G1 X130.117 Y105.793 E.02796
G1 X129.977 Y106.43 E.02208
G1 X129.727 Y107.008 E.02132
G1 F2041.27
G1 X129.37 Y107.537 E.0216
G1 F2054.251
G1 X128.924 Y107.988 E.02147
G1 F2060.657
G1 X128.402 Y108.348 E.02146
G1 F2059.871
G1 X127.637 Y108.66 E.02797
G1 X126.995 Y108.774 E.02207
G1 X126.458 Y108.773 E.01818
G1 X125.944 Y108.691 E.01762
G1 X125.344 Y108.487 E.02145
G1 X124.791 Y108.176 E.02148
G1 X124.306 Y107.768 E.02145
G1 F2060.471
G1 X123.905 Y107.277 E.02146
G1 F2063.923
G1 X123.602 Y106.72 E.02146
G1 F2067.845
G1 X123.531 Y106.524 E.00706
G1 X123.906 Y106.334 F12000
M204 S800
;TYPE:External perimeter
G1 F2079.562
G1 X123.828 Y106.061 E.00961
G1 F2082.447
G1 X123.861 Y105.982 E.0029
G1 F2089.622
G1 X124.248 Y105.429 E.02285
G1 F2100
G1 X125.936 Y103.018 E.09962
G1 F2085.242
G1 X126.323 Y102.465 E.02285
G1 F2077.634
G1 X126.477 Y102.379 E.00597
G1 F2075.015
G1 X127.022 Y102.383 E.01845
G1 X127.571 Y102.488 E.01892
G1 F2073.759
G1 X128.09 Y102.693 E.01889
G1 F2072.572
