; generated by PrusaSlicer 2.9.3 on 2025-10-13 at 21:19:52 UTC


;
;

;
;

;
;

;
;

;
;
; 

; external perimeters extrusion width = 0.45mm
; perimeters extrusion width = 0.45mm
; infill extrusion width = 0.45mm
; solid infill extrusion width = 0.45mm
; top infill extrusion width = 0.42mm
; first layer extrusion width = 0.50mm

M73 P0 R31

EXCLUDE_OBJECT_DEFINE NAME='a_depressor_x4_stl' CENTER=122.719,106.294 POLYGON=[[123.168,86.001],[123.170,94.450],[126.518,97.208],[130.609,96.306],[131.374,96.203],[132.728,96.324],[133.917,96.777],[134.584,97.216],[135.094,97.677],[135.543,98.222],[135.918,98.847],[136.348,100.144],[136.423,100.938],[136.386,101.593],[136.089,102.750],[135.480,103.847],[134.702,104.671],[133.702,105.315],[132.722,105.659],[131.531,105.785],[126.712,105.203],[123.174,108.094],[123.177,116.063],[123.608,116.423],[123.777,116.979],[123.772,120.677],[123.598,121.789],[123.286,122.635],[122.830,123.412],[122.244,124.096],[121.547,124.667],[120.760,125.106],[119.908,125.400],[119.017,125.540],[118.116,125.520],[117.018,125.273],[115.811,124.669],[114.956,123.937],[114.172,122.839],[113.758,121.792],[113.599,120.905],[113.582,116.884],[113.745,116.426],[114.177,116.066],[114.176,113.691],[118.077,105.652],[118.538,104.454],[118.850,103.208],[119.026,101.291],[119.064,85.161],[119.314,84.744],[119.826,84.471],[123.168,84.450]]

;TYPE:Custom
G90 ; use absolute coordinates
M83 ; extruder relative mode
M104 S170 ; preheat hotend to 170
M140 S65 ; set bed temp
M190 S65 ; wait for bed temp
G28 ; home all
;G29 ; mesh bed leveling
BED_MESH_CALIBRATE
G0 X0 Z0.6 Y-3.0 F1000.0 ; go outside print area for intro line
M104 S215 ; set hotend temp
M109 S215 ; wait for hotend temp
;M104 S0 ; Stops PS/SS from sending temp waits separately
;M140 S0
;PRINT_START BED=65 HOTEND=215
G92 E0.0
G1 X60.0 E9.0 F1000.0 ; intro line
G1 X100.0 E12.5 F1000.0 ; intro line
G92 E0.0
SKEW_PROFILE LOAD=CaliFlower
G21 ; set units to millimeters
G90 ; use absolute coordinates
M83 ; use relative distances for extrusion
M900 K0.05 ; Filament gcode



M142 S36 ; set heatbreak target temp
M107
;LAYER_CHANGE
;Z:0.2
;HEIGHT:0.2
G1 E-2 F2100
G1 Z.8 F720
EXCLUDE_OBJECT_START NAME='a_depressor_x4_stl'
G1 X121.956 Y118.027 F12000
G1 Z.2 F720
G1 E2 F1500
M204 S600
;TYPE:Perimeter
;WIDTH:0.499999
G1 F1200
G1 X121.956 Y120.269 E.08521
G1 X121.867 Y121.189 E.03513
G1 X121.702 Y121.705 E.02059
G1 X121.423 Y122.231 E.02263
G1 X121.067 Y122.687 E.02199
G1 X120.623 Y123.084 E.02264
G1 X120.055 Y123.406 E.02482
G1 X119.536 Y123.604 E.02111
G1 X118.932 Y123.702 E.02326
G1 X118.335 Y123.707 E.02269
G1 X117.751 Y123.589 E.02264
G1 X117.197 Y123.371 E.02263
G1 X116.654 Y123.007 E.02485
G1 X116.244 Y122.632 E.02112
G1 X115.886 Y122.136 E.02325
G1 X115.614 Y121.604 E.02271
G1 X115.458 Y121.03 E.02261
G1 X115.4 Y120.38 E.0248
G1 X115.398 Y117.802 E.09798
G1 X121.956 Y117.801 E.24925
G1 X121.956 Y117.967 E.00631
M204 S1000
G1 X122.413 Y117.427 F12000
M204 S600
G1 F1200
G1 X122.413 Y120.269 E.10801
G1 X122.401 Y120.527 E.00982
G1 X122.313 Y121.289 E.02915
G1 X122.122 Y121.887 E.02386
G1 X121.808 Y122.481 E.02554
G1 X121.402 Y123 E.02504
G1 X121.118 Y123.254 E.01448
G1 X120.704 Y123.576 E.01993
G1 X120.151 Y123.863 E.02368
G1 X119.656 Y124.045 E.02004
G1 X118.983 Y124.157 E.02593
G1 X118.279 Y124.162 E.02676
G1 X117.621 Y124.029 E.02551
G1 X117.267 Y123.89 E.01445
G1 X116.793 Y123.664 E.01996
G1 X116.282 Y123.292 E.02402
G1 X115.904 Y122.937 E.01971
G1 X115.503 Y122.385 E.02593
G1 X115.183 Y121.759 E.02672
G1 X115.006 Y121.111 E.02553
G1 X114.943 Y120.401 E.02709
G1 X114.941 Y117.346 E.11611
G1 X122.413 Y117.343 E.28398
G1 X122.413 Y117.367 E.00091
M204 S1000
G1 X122.789 Y116.912 F12000
M204 S600
G1 F1200
G1 X122.811 Y116.917 E.00086
G1 X122.87 Y117.024 E.00464
G1 X122.87 Y120.419 E.12903
G1 X122.817 Y121.015 E.02274
G1 X122.724 Y121.544 E.02041
G1 X122.543 Y122.069 E.02111
G1 X122.193 Y122.73 E.02843
G1 X121.737 Y123.314 E.02816
G1 X121.18 Y123.812 E.0284
G1 X120.726 Y124.107 E.02058
G1 X120.037 Y124.415 E.02868
G1 X119.515 Y124.557 E.02056
G1 X118.764 Y124.641 E.02872
G1 X118.224 Y124.617 E.02054
G1 X117.491 Y124.469 E.02842
G1 X116.795 Y124.195 E.02843
G1 X116.329 Y123.921 E.02055
G1 X115.744 Y123.443 E.02871
G1 X115.383 Y123.04 E.02056
G1 X114.972 Y122.407 E.02868
G1 X114.751 Y121.913 E.02057
G1 X114.554 Y121.192 E.02841
G1 X114.486 Y120.421 E.02942
G1 X114.484 Y117.072 E.12728
G1 X114.504 Y116.95 E.0047
G1 X114.649 Y116.889 E.00598
G1 X122.663 Y116.886 E.30458
G1 X122.731 Y116.9 E.00264
M204 S1000
G1 X122.877 Y116.471 F12000
M204 S600
;TYPE:External perimeter
G1 F1200
G1 X123.033 Y116.501 E.00604
G1 X123.232 Y116.682 E.01022
G1 X123.281 Y116.799 E.00482
G1 X123.327 Y117.024 E.00873
G1 X123.327 Y120.439 E.12979
G1 X123.272 Y121.056 E.02354
G1 X123.164 Y121.669 E.02366
G1 X122.963 Y122.252 E.02344
G1 X122.578 Y122.98 E.0313
G1 X122.072 Y123.627 E.03122
G1 X121.459 Y124.177 E.0313
G1 X120.945 Y124.51 E.02328
G1 X120.191 Y124.847 E.03139
G1 X119.601 Y125.008 E.02324
G1 X118.78 Y125.099 E.03139
G1 X118.168 Y125.072 E.02328
G1 X117.361 Y124.909 E.03129
G1 X116.594 Y124.607 E.03133
G1 X116.067 Y124.297 E.02324
G1 X115.427 Y123.775 E.03139
G1 X115.019 Y123.319 E.02326
G1 X114.569 Y122.626 E.0314
G1 X114.319 Y122.067 E.02327
G1 X114.103 Y121.273 E.03127
G1 X114.029 Y120.442 E.03171
G1 X114.027 Y117.072 E.12808
G1 X114.073 Y116.773 E.0115
G1 X114.191 Y116.596 E.00808
G1 X114.368 Y116.478 E.00808
G1 X114.605 Y116.431 E.00918
G1 X122.662 Y116.429 E.30622
G1 X122.818 Y116.459 E.00604
M204 S1000
G1 E-1.6 F2100
;WIPE_START
G1 F9600
G1 X122.877 Y116.471 E-.01251
G1 X123.033 Y116.501 E-.03301
G1 X123.232 Y116.682 E-.0559
G1 X123.281 Y116.799 E-.02636
G1 X123.327 Y117.024 E-.04772
G1 X123.327 Y118.104 E-.2245
;WIPE_END
G1 X120.803 Y118.007 Z.244 F12000
G1 Z.2 F720
G1 E2 F1500
M204 S600
;TYPE:Solid infill
;WIDTH:0.511154
G1 F1200
G1 X121.544 Y118.748 E.0408
G1 X121.544 Y119.411 E.02581
G1 X120.346 Y118.212 E.06599
G1 X119.684 Y118.213 E.02577
G1 X121.544 Y120.073 E.10241
G1 X121.511 Y120.701 E.02448
G1 X119.022 Y118.213 E.13702
G1 X118.36 Y118.213 E.02577
G1 X121.417 Y121.269 E.16829
G1 X121.323 Y121.54 E.01117
G1 X121.22 Y121.735 E.00859
G1 X117.698 Y118.213 E.19392
G1 X117.036 Y118.213 E.02577
G1 X120.968 Y122.145 E.2165
G1 X120.765 Y122.405 E.01284
G1 X120.66 Y122.499 E.00549
G1 X116.374 Y118.214 E.23596
G1 X115.81 Y118.214 E.02196
G1 X115.81 Y118.312 E.00382
G1 X120.301 Y122.803 E.24728
G1 X120.091 Y122.939 E.00974
G1 X119.873 Y123.036 E.00929
G1 X115.81 Y118.974 E.22368
G1 X115.811 Y119.637 E.02581
G1 X119.391 Y123.217 E.19712
G1 X119.266 Y123.251 E.00504
G1 X118.814 Y123.302 E.01771
G1 X115.811 Y120.299 E.16535
G1 X115.864 Y120.957 E.0257
G1 X115.886 Y121.036 E.00319
G1 X118.087 Y123.237 E.12119
G1 X117.868 Y123.193 E.0087
G1 X117.377 Y123 E.02054
G1 X117.088 Y122.83 E.01305
G1 X116.701 Y122.513 E.01948
G1 X115.878 Y121.691 E.04529
M204 S1000
G1 E-1.6 F2100
;WIPE_START
G1 F9600
G1 X116.701 Y122.513 E-.24173
G1 X117.088 Y122.83 E-.10396
G1 X117.313 Y122.962 E-.05431
;WIPE_END
G1 X130.805 Y98.141 Z.693 F12000
G1 Z.2 F720
G1 E2 F1500
M204 S600
;TYPE:Perimeter
;WIDTH:0.499999
G1 F1200
G1 X131.079 Y98.073 E.01073
G1 X131.672 Y98.022 E.02262
G1 X132.229 Y98.094 E.02135
G1 X132.78 Y98.261 E.02188
G1 X133.168 Y98.463 E.01663
G1 X133.694 Y98.881 E.02554
G1 X134.075 Y99.329 E.02235
G1 X134.33 Y99.789 E.01999
G1 X134.507 Y100.322 E.02135
G1 X134.581 Y100.907 E.02241
G1 X134.546 Y101.535 E.0239
G1 X134.371 Y102.107 E.02273
G1 X134.216 Y102.449 E.01427
G1 X133.869 Y102.935 E.0227
G1 X133.439 Y103.34 E.02245
G1 X132.98 Y103.622 E.02047
G1 X132.443 Y103.844 E.02208
G1 X131.835 Y103.95 E.02346
G1 X131.299 Y103.938 E.02038
G1 X131.034 Y103.888 E.01025
G1 X131.284 Y103.267 E.02544
G1 X131.398 Y102.851 E.01639
G1 X131.537 Y102.198 E.02537
G1 X131.571 Y101.601 E.02273
G1 X131.579 Y100.773 E.03147
G1 X131.504 Y100.27 E.01933
G1 X131.376 Y99.626 E.02495
G1 X131.133 Y98.894 E.02931
G1 X130.786 Y98.174 E.03038
M204 S1000
G1 X130.139 Y97.911 F12000
M204 S600
G1 F1200
G1 X130.381 Y97.803 E.01007
G1 X131.019 Y97.619 E.02524
G1 X131.697 Y97.564 E.02585
G1 X132.418 Y97.658 E.02763
G1 X132.925 Y97.828 E.02032
G1 X133.327 Y98.014 E.01683
G1 X133.887 Y98.416 E.0262
G1 X134.369 Y98.935 E.02692
G1 X134.693 Y99.459 E.02341
G1 X134.924 Y100.057 E.02436
G1 X135.008 Y100.528 E.01818
G1 X135.038 Y100.918 E.01487
G1 X134.971 Y101.753 E.03184
G1 X134.805 Y102.251 E.01995
G1 X134.608 Y102.686 E.01815
G1 X134.215 Y103.237 E.02572
G1 X133.718 Y103.704 E.02592
G1 X133.1 Y104.084 E.02757
G1 X132.564 Y104.287 E.02178
G1 X131.87 Y104.408 E.02677
G1 X131.231 Y104.394 E.02429
G1 X130.715 Y104.289 E.02001
G1 X130.395 Y104.175 E.01291
G1 X130.523 Y103.932 E.01044
G1 X130.86 Y103.096 E.03426
G1 X130.951 Y102.755 E.01341
G1 X131.086 Y102.124 E.02452
G1 X131.125 Y100.832 E.04913
G1 X131.052 Y100.337 E.01902
G1 X130.938 Y99.759 E.02239
G1 X130.722 Y99.092 E.02665
G1 X130.35 Y98.322 E.0325
G1 X130.106 Y97.942 E.01716
M204 S1000
G1 X129.506 Y97.819 F12000
M204 S600
G1 F1200
G1 X129.489 Y97.781 E.00158
G1 X129.562 Y97.709 E.0039
G1 X130.004 Y97.463 E.01923
G1 X130.45 Y97.287 E.01822
G1 X130.96 Y97.166 E.01992
M73 P1 R31
G1 X131.722 Y97.106 E.02905
G1 X132.521 Y97.211 E.03063
G1 X133.07 Y97.395 E.02201
G1 X133.565 Y97.622 E.0207
G1 X134.191 Y98.072 E.0293
G1 X134.734 Y98.657 E.03034
G1 X135.104 Y99.255 E.02673
G1 X135.366 Y99.934 E.02766
G1 X135.458 Y100.448 E.01985
G1 X135.495 Y100.929 E.01834
G1 X135.486 Y101.312 E.01456
G1 X135.415 Y101.867 E.02127
G1 X135.239 Y102.396 E.02119
G1 X135 Y102.923 E.02199
G1 X134.561 Y103.539 E.02875
G1 X133.997 Y104.069 E.02941
G1 X133.302 Y104.497 E.03102
G1 X132.685 Y104.73 E.02507
G1 X131.905 Y104.866 E.03009
G1 X131.18 Y104.85 E.02756
G1 X130.624 Y104.737 E.02156
G1 X130.336 Y104.643 E.01151
G1 X129.799 Y104.403 E.02235
G1 X129.846 Y104.211 E.00751
G1 X130.099 Y103.761 E.01962
G1 X130.436 Y102.925 E.03426
G1 X130.643 Y101.969 E.03718
G1 X130.672 Y101.168 E.03046
G1 X130.638 Y100.66 E.01935
G1 X130.531 Y99.99 E.02579
G1 X130.384 Y99.505 E.01926
G1 X130.217 Y99.098 E.01672
G1 X129.887 Y98.432 E.02825
G1 X129.569 Y97.966 E.02144
G1 X129.53 Y97.874 E.0038
M204 S1000
G1 X129.083 Y97.995 F12000
M204 S600
;TYPE:External perimeter
G1 F1200
G1 X129.051 Y97.913 E.00335
G1 X129.04 Y97.693 E.00837
G1 X129.17 Y97.43 E.01115
G1 X129.437 Y97.243 E.01239
G1 X130.054 Y96.95 E.02596
G1 X130.713 Y96.749 E.02619
G1 X131.225 Y96.67 E.01969
G1 X131.747 Y96.648 E.01986
G1 X132.624 Y96.763 E.03362
G1 X133.215 Y96.961 E.02369
G1 X133.804 Y97.231 E.02463
G1 X134.495 Y97.728 E.03235
G1 X135.099 Y98.379 E.03375
G1 X135.515 Y99.05 E.03001
G1 X135.809 Y99.81 E.03097
G1 X135.959 Y100.652 E.03251
G1 X135.952 Y100.94 E.01095
G1 X135.943 Y101.323 E.01456
G1 X135.859 Y101.98 E.02517
G1 X135.672 Y102.54 E.02244
G1 X135.392 Y103.161 E.02589
G1 X134.907 Y103.841 E.03174
G1 X134.277 Y104.434 E.03288
G1 X133.504 Y104.909 E.03448
G1 X132.805 Y105.172 E.02838
G1 X131.939 Y105.324 E.03342
G1 X131.13 Y105.306 E.03075
G1 X130.533 Y105.185 E.02315
G1 X130.172 Y105.069 E.01441
G1 X129.55 Y104.797 E.0258
G1 X129.399 Y104.623 E.00876
G1 X129.324 Y104.369 E.01007
G1 X129.39 Y104.087 E.01101
G1 X129.661 Y103.619 E.02055
G1 X129.85 Y103.156 E.01901
G1 X130.058 Y102.562 E.02392
G1 X130.186 Y101.949 E.0238
G1 X130.214 Y101.167 E.02974
G1 X130.186 Y100.727 E.01676
G1 X130.064 Y100.025 E.02708
G1 X129.806 Y99.297 E.02935
G1 X129.51 Y98.689 E.0257
G1 X129.151 Y98.163 E.0242
G1 X129.106 Y98.051 E.00459
M204 S1000
G1 E-1.6 F2100
;WIPE_START
G1 F9600
G1 X129.083 Y97.995 E-.01258
G1 X129.051 Y97.913 E-.01829
G1 X129.04 Y97.693 E-.04578
G1 X129.17 Y97.43 E-.06097
G1 X129.437 Y97.243 E-.06774
G1 X130.054 Y96.95 E-.14194
G1 X130.297 Y96.876 E-.0527
;WIPE_END
G1 X132.644 Y98.433 Z.249 F12000
G1 Z.2 F720
G1 E2 F1500
M204 S600
;TYPE:Solid infill
;WIDTH:0.54028
G1 F1200
G1 X133.674 Y99.464 E.06027
G1 X133.912 Y99.848 E.01868
G1 X134.084 Y100.293 E.01973
G1 X134.146 Y100.638 E.0145
G1 X131.985 Y98.477 E.12639
G1 X131.675 Y98.437 E.01293
G1 X131.375 Y98.449 E.01242
G1 X131.489 Y98.685 E.01084
G1 X134.159 Y101.364 E.15642
G1 X134.127 Y101.538 E.00732
G1 X134.005 Y101.904 E.01595
G1 X131.828 Y99.727 E.12732
G1 X131.955 Y100.557 E.03472
G1 X133.767 Y102.369 E.10598
G1 X133.557 Y102.663 E.01494
G1 X133.454 Y102.76 E.00585
G1 X131.99 Y101.296 E.08562
G1 X131.969 Y101.978 E.02822
G1 X133.073 Y103.082 E.06457
G1 X132.716 Y103.301 E.01732
G1 X132.624 Y103.336 E.00407
G1 X131.874 Y102.587 E.04384
G1 X131.747 Y103.162 E.02435
G1 X132.252 Y103.668 E.02956
M204 S1000
G1 E-1.6 F2100
;WIPE_START
G1 F9600
G1 X131.747 Y103.162 E-.14856
G1 X131.874 Y102.587 E-.12237
G1 X132.313 Y103.026 E-.12907
;WIPE_END
G1 X126.223 Y103.516 Z.307 F12000
G1 Z.2 F720
G1 E2 F1500
M204 S600
;TYPE:Perimeter
;WIDTH:0.477719
G1 F1200
G1 X126.154 Y103.557 E.0029
;WIDTH:0.499999
G1 X125.634 Y103.727 E.02079
G1 X125.197 Y103.768 E.01668
G1 X124.586 Y103.693 E.0234
G1 X124.052 Y103.493 E.02167
G1 X123.542 Y103.149 E.02338
G1 X123.168 Y102.736 E.02118
G1 X123.019 Y102.486 E.01106
G1 X122.883 Y102.221 E.01132
G1 X122.736 Y101.713 E.0201
G1 X122.716 Y101.056 E.02498
G1 X122.848 Y100.451 E.02353
G1 X123.112 Y99.924 E.0224
G1 X123.469 Y99.496 E.02118
G1 X123.965 Y99.132 E.02338
G1 X124.491 Y98.911 E.02168
G1 X125.084 Y98.812 E.02285
G1 X125.849 Y98.905 E.02929
G1 X126.034 Y98.962 E.00736
G1 X126.289 Y99.111 E.01122
;WIDTH:0.467317
G1 X126.545 Y99.26 E.01045
;WIDTH:0.434634
G1 X126.984 Y99.65 E.01913
;WIDTH:0.424248
G1 X127.336 Y100.143 E.01921
G1 X127.544 Y100.685 E.01841
;WIDTH:0.436112
G1 X127.603 Y101.123 E.01445
G1 X127.588 Y101.68 E.01822
;WIDTH:0.430038
G1 X127.457 Y102.171 E.01636
;WIDTH:0.424595
G1 X127.222 Y102.633 E.01645
;WIDTH:0.422438
G1 X126.936 Y102.982 E.01424
;WIDTH:0.436238
G1 X126.514 Y103.344 E.01818
;WIDTH:0.477719
G1 X126.274 Y103.486 E.01008
M204 S1000
G1 X126.037 Y103.121 F12000
M204 S600
;TYPE:External perimeter
;WIDTH:0.499999
G1 F1200
G1 X126.014 Y103.134 E.001
G1 X125.577 Y103.274 E.01744
G1 X125.234 Y103.312 E.01312
G1 X124.746 Y103.265 E.01863
G1 X124.212 Y103.065 E.02167
G1 X123.793 Y102.764 E.01961
G1 X123.56 Y102.502 E.01333
G1 X123.412 Y102.252 E.01104
G1 X123.253 Y101.868 E.0158
G1 X123.187 Y101.628 E.00946
G1 X123.173 Y101.045 E.02216
G1 X123.31 Y100.517 E.02073
G1 X123.539 Y100.104 E.01795
G1 X123.805 Y99.813 E.01498
G1 X124.142 Y99.553 E.01618
G1 X124.668 Y99.332 E.02168
G1 X125.202 Y99.267 E.02045
G1 X125.778 Y99.357 E.02216
G1 X126.242 Y99.565 E.01933
G1 X126.71 Y99.965 E.0234
G1 X126.994 Y100.388 E.01936
G1 X127.16 Y100.865 E.0192
G1 X127.197 Y101.454 E.02243
G1 X127.092 Y101.96 E.01964
G1 X126.868 Y102.408 E.01904
G1 X126.662 Y102.668 E.01261
G1 X126.303 Y102.974 E.01793
G1 X126.09 Y103.092 E.00925
M204 S1000
G1 E-1.6 F2100
;WIPE_START
G1 F9600
G1 X126.037 Y103.121 E-.01256
G1 X126.014 Y103.134 E-.00549
G1 X125.577 Y103.274 E-.09536
G1 X125.234 Y103.312 E-.07172
G1 X124.746 Y103.265 E-.10188
G1 X124.237 Y103.074 E-.11299
;WIPE_END
G1 X121.095 Y86.525 Z.494 F12000
G1 Z.2 F720
G1 E2 F1500
M204 S600
;TYPE:Perimeter
;WIDTH:0.40394
G1 F1200
G1 X121.097 Y94.697 E.24531
;WIDTH:0.427454
G1 X121.109 Y94.967 E.00864
M204 S1000
G1 X121.208 Y95.369 F12000
M204 S600
;WIDTH:0.499999
G1 F1200
G1 X121.218 Y95.412 E.00168
G1 X121.632 Y95.931 E.02523
G1 X124.204 Y98.05 E.12665
G1 X123.611 Y98.289 E.0243
G1 X123.23 Y98.516 E.01686
G1 X122.897 Y98.783 E.01622
G1 X122.487 Y99.225 E.02291
G1 X122.104 Y99.863 E.02828
;WIDTH:0.543782
G1 X122 Y100.114 E.01132
;WIDTH:0.587565
G1 X121.896 Y100.364 E.01226
;WIDTH:0.631348
G1 X121.791 Y100.614 E.01327
G1 X121.756 Y101.286 E.03292
;WIDTH:0.625573
G1 X121.768 Y101.843 E.02699
G1 X121.849 Y102.059 E.01118
;WIDTH:0.583715
G1 X121.929 Y102.275 E.01036
;WIDTH:0.541857
G1 X122.01 Y102.492 E.00961
;WIDTH:0.499999
G1 X122.233 Y102.953 E.01946
G1 X122.515 Y103.393 E.01986
G1 X122.854 Y103.763 E.01907
G1 X123.342 Y104.138 E.02339
G1 X123.732 Y104.349 E.01685
G1 X124.193 Y104.522 E.01871
G1 X121.713 Y106.549 E.12173
