; generated by PrusaSlicer 2.9.3 on 2025-10-13 at 21:19:31 UTC


;
;

;
;

;
;

;
;

;
;
; 

; external perimeters extrusion width = 0.45mm
; perimeters extrusion width = 0.45mm
; infill extrusion width = 0.45mm
; solid infill extrusion width = 0.45mm
; top infill extrusion width = 0.42mm
; first layer extrusion width = 0.50mm

M73 P0 R13

EXCLUDE_OBJECT_DEFINE NAME='a_lobe_1_stl' CENTER=125.373,104.584 POLYGON=[[121.334,98.741],[127.393,99.410],[128.386,99.606],[129.283,99.942],[129.995,100.337],[130.762,100.926],[131.446,101.659],[132.030,102.552],[132.496,103.698],[132.716,104.910],[132.703,105.983],[132.462,107.160],[132.052,108.154],[131.351,109.206],[130.499,110.046],[129.586,110.653],[128.431,111.129],[127.261,111.351],[126.141,111.344],[124.936,111.098],[123.845,110.632],[122.899,109.988],[122.050,109.124],[117.744,103.253],[117.430,102.609],[117.278,101.910],[117.296,101.194],[117.483,100.503],[117.828,99.876],[118.452,99.236],[119.070,98.874],[119.756,98.670],[120.292,98.626]]

;TYPE:Custom
G90 ; use absolute coordinates
M83 ; extruder relative mode
M104 S170 ; preheat hotend to 170
M140 S65 ; set bed temp
M190 S65 ; wait for bed temp
G28 ; home all
;G29 ; mesh bed leveling
BED_MESH_CALIBRATE
G0 X0 Z0.6 Y-3.0 F1000.0 ; go outside print area for intro line
M104 S215 ; set hotend temp
M109 S215 ; wait for hotend temp
;M104 S0 ; Stops PS/SS from sending temp waits separately
;M140 S0
;PRINT_START BED=65 HOTEND=215
G92 E0.0
G1 X60.0 E9.0 F1000.0 ; intro line
G1 X100.0 E12.5 F1000.0 ; intro line
G92 E0.0
SKEW_PROFILE LOAD=CaliFlower
G21 ; set units to millimeters
G90 ; use absolute coordinates
M83 ; use relative distances for extrusion
M900 K0.05 ; Filament gcode



M142 S36 ; set heatbreak target temp
M107
;LAYER_CHANGE
;Z:0.2
;HEIGHT:0.2
G1 E-2 F2100
G1 Z.8 F720
EXCLUDE_OBJECT_START NAME='a_lobe_1_stl'
G1 X123.115 Y103.388 F12000
G1 Z.2 F720
G1 E2 F1500
M204 S600
;TYPE:Perimeter
;WIDTH:0.499999
G1 F1200
G1 X123.314 Y103.044 E.0151
G1 X123.787 Y102.47 E.02827
G1 X124.402 Y101.952 E.03056
G1 X124.875 Y101.672 E.02089
G1 X125.774 Y101.349 E.03631
G1 X126.015 Y101.296 E.00938
G1 X126.289 Y101.29 E.01042
;WIDTH:0.452351
G1 X126.563 Y101.284 E.00933
;WIDTH:0.404703
G1 X127.143 Y101.326 E.01749
;WIDTH:0.373595
G1 X127.696 Y101.421 E.01543
;WIDTH:0.371651
G1 X128.2 Y101.57 E.01437
;WIDTH:0.368299
G1 X128.725 Y101.821 E.01574
;WIDTH:0.370507
G1 X129.282 Y102.2 E.01835
;WIDTH:0.37218
G1 X129.664 Y102.551 E.0142
G1 X130.046 Y103.005 E.01624
;WIDTH:0.373099
G1 X130.376 Y103.563 E.0178
G1 X130.528 Y103.892 E.00995
;WIDTH:0.369179
G1 X130.687 Y104.385 E.01405
;WIDTH:0.368028
G1 X130.798 Y105.14 E.02063
;WIDTH:0.358849
G1 X130.77 Y105.897 E.0199
;WIDTH:0.366571
G1 X130.608 Y106.636 E.02036
;WIDTH:0.375793
G1 X130.291 Y107.336 E.02127
G1 X130.068 Y107.716 E.0122
;WIDTH:0.365941
G1 X129.716 Y108.149 E.01499
;WIDTH:0.372053
G1 X129.278 Y108.55 E.01625
;WIDTH:0.372785
G1 X128.88 Y108.829 E.01333
G1 X128.311 Y109.125 E.01759
;WIDTH:0.366751
G1 X127.548 Y109.366 E.02155
;WIDTH:0.371825
G1 X127.028 Y109.431 E.01433
G1 X126.254 Y109.421 E.02117
;WIDTH:0.365362
G1 X125.652 Y109.306 E.01643
;WIDTH:0.366387
G1 X125.431 Y109.236 E.00624
;WIDTH:0.410925
G1 X125.255 Y109.111 E.00661
;WIDTH:0.455462
G1 X125.078 Y108.986 E.00743
;WIDTH:0.499999
G1 X124.901 Y108.861 E.00824
M73 P1 R13
G1 X124.544 Y108.117 E.03136
G1 X122.937 Y104.669 E.14458
G1 X122.834 Y104.292 E.01485
G1 X122.857 Y103.936 E.01356
G1 X122.967 Y103.643 E.01189
G1 X123.085 Y103.44 E.00892
M204 S1000
G1 X123.513 Y103.607 F12000
M204 S600
G1 F1200
G1 X123.578 Y103.473 E.00566
G1 X124.14 Y102.76 E.0345
G1 X124.684 Y102.312 E.02678
G1 X125.098 Y102.071 E.01821
G1 X125.92 Y101.782 E.03312
G1 X126.608 Y101.691 E.02638
G1 X127.113 Y101.718 E.01922
G1 X127.593 Y101.8 E.01851
G1 X128.08 Y101.943 E.01929
G1 X128.554 Y102.173 E.02002
G1 X129.048 Y102.515 E.02284
G1 X129.375 Y102.818 E.01694
G1 X129.709 Y103.202 E.01934
G1 X130.085 Y103.844 E.02828
G1 X130.315 Y104.505 E.0266
G1 X130.415 Y105.189 E.02627
G1 X130.385 Y105.874 E.02606
G1 X130.23 Y106.541 E.02603
G1 X129.938 Y107.159 E.02598
G1 X129.765 Y107.47 E.01353
G1 X129.413 Y107.904 E.02124
G1 X129.023 Y108.25 E.01981
G1 X128.695 Y108.482 E.01527
G1 X128.129 Y108.782 E.02435
G1 X127.444 Y108.99 E.02721
G1 X126.761 Y109.059 E.02609
G1 X126.213 Y109.023 E.02087
G1 X125.59 Y108.88 E.02429
G1 X125.247 Y108.543 E.01828
G1 X123.351 Y104.476 E.17054
G1 X123.29 Y104.25 E.0089
G1 X123.303 Y104.036 E.00815
G1 X123.487 Y103.661 E.01588
M204 S1000
G1 X123.911 Y103.825 F12000
M204 S600
;TYPE:External perimeter
G1 F1200
G1 X123.98 Y103.69 E.00576
G1 X124.493 Y103.05 E.03117
G1 X124.967 Y102.671 E.02307
G1 X125.321 Y102.47 E.01547
G1 X126.065 Y102.215 E.02989
G1 X126.657 Y102.146 E.02265
G1 X127.267 Y102.189 E.02324
G1 X127.848 Y102.343 E.02284
G1 X128.355 Y102.584 E.02134
G1 X128.776 Y102.882 E.0196
G1 X129.285 Y103.393 E.02741
G1 X129.642 Y103.993 E.02654
G1 X129.88 Y104.646 E.02642
G1 X129.961 Y105.246 E.02301
G1 X129.929 Y105.846 E.02284
G1 X129.786 Y106.429 E.02281
G1 X129.409 Y107.183 E.03204
G1 X129.058 Y107.616 E.02118
G1 X128.603 Y108.007 E.0228
G1 X127.869 Y108.397 E.03159
G1 X127.321 Y108.549 E.02161
G1 X126.723 Y108.603 E.02282
G1 X126.286 Y108.572 E.01665
G1 X125.777 Y108.463 E.01978
G1 X125.662 Y108.35 E.00613
G1 X123.765 Y104.283 E.17056
G1 X123.749 Y104.136 E.00562
G1 X123.883 Y103.878 E.01105
M204 S1000
G1 X122.716 Y103.17 F12000
M204 S600
;TYPE:Perimeter
G1 F1200
G1 X122.565 Y103.425 E.01126
G1 X122.411 Y103.836 E.01668
G1 X122.379 Y104.335 E.019
G1 X122.522 Y104.862 E.02075
G1 X124.074 Y108.189 E.13953
G1 X123.944 Y108.065 E.00683
G1 X123.574 Y107.624 E.02188
G1 X119.635 Y102.253 E.25314
G1 X119.481 Y102 E.01126
G1 X119.408 Y101.697 E.01185
G1 X119.441 Y101.352 E.01317
G1 X119.646 Y101.022 E.01477
G1 X119.902 Y100.847 E.01179
G1 X120.247 Y100.755 E.01357
G1 X124.708 Y101.248 E.17058
G1 X124.12 Y101.593 E.02591
G1 X123.433 Y102.18 E.03434
G1 X122.961 Y102.754 E.02824
G1 X122.746 Y103.118 E.01607
M204 S1000
G1 E-1.6 F2100
;WIPE_START
G1 F9600
G1 X122.716 Y103.17 E-.01248
G1 X122.565 Y103.425 E-.06159
G1 X122.411 Y103.836 E-.09121
G1 X122.379 Y104.335 E-.10391
G1 X122.522 Y104.862 E-.11348
G1 X122.557 Y104.938 E-.01733
;WIPE_END
G1 X120.569 Y100.331 Z.288 F12000
G1 Z.2 F720
G1 E2 F1500
M204 S600
G1 F1200
G1 X126.015 Y100.932 E.20824
G1 X126.217 Y100.936 E.00768
;WIDTH:0.463007
G1 X126.419 Y100.94 E.00706
;WIDTH:0.426015
G1 X126.62 Y100.943 E.0064
;WIDTH:0.389023
G1 X127.185 Y100.998 E.01634
;WIDTH:0.373595
G1 X127.789 Y101.105 E.01687
;WIDTH:0.371651
G1 X128.396 Y101.305 E.01747
;WIDTH:0.365366
G1 X129.064 Y101.653 E.02019
;WIDTH:0.370507
G1 X129.489 Y101.947 E.01408
;WIDTH:0.37218
G1 X129.908 Y102.33 E.01554
;WIDTH:0.374365
G1 X130.396 Y102.939 E.02151
G1 X130.662 Y103.397 E.0146
;WIDTH:0.373099
G1 X130.836 Y103.784 E.01165
;WIDTH:0.369179
G1 X130.997 Y104.286 E.0143
;WIDTH:0.371312
G1 X131.079 Y104.699 E.0115
G1 X131.129 Y105.478 E.02132
;WIDTH:0.370325
G1 X131.033 Y106.297 E.02245
G1 X130.813 Y106.988 E.01974
;WIDTH:0.375793
G1 X130.588 Y107.487 E.01515
G1 X130.321 Y107.916 E.01399
;WIDTH:0.365688
G1 X129.891 Y108.435 E.01809
;WIDTH:0.372053
G1 X129.479 Y108.81 E.01525
;WIDTH:0.372785
G1 X129.037 Y109.119 E.01479
G1 X128.443 Y109.414 E.01819
;WIDTH:0.372638
G1 X127.938 Y109.603 E.01478
G1 X127.383 Y109.72 E.01555
;WIDTH:0.36447
G1 X126.611 Y109.756 E.02066
;WIDTH:0.363683
G1 X126.056 Y109.716 E.01484
;WIDTH:0.366387
G1 X125.3 Y109.532 E.02093
;WIDTH:0.410925
G1 X125.07 Y109.404 E.00805
;WIDTH:0.455462
G1 X124.841 Y109.277 E.00898
;WIDTH:0.499999
G1 X124.182 Y108.875 E.02934
G1 X123.61 Y108.377 E.02882
G1 X123.215 Y107.906 E.02336
G1 X119.266 Y102.523 E.25374
G1 X119.135 Y102.314 E.00937
G1 X118.964 Y101.891 E.01734
G1 X118.94 Y101.559 E.01265
G1 X119.045 Y101.115 E.01734
G1 X119.312 Y100.704 E.01863
G1 X119.565 Y100.499 E.01238
G1 X119.864 Y100.362 E.0125
G1 X120.23 Y100.294 E.01415
G1 X120.509 Y100.324 E.01066
M204 S1000
G1 X120.619 Y99.877 F12000
M204 S600
G1 F1200
G1 X127.235 Y100.607 E.25298
G1 X127.872 Y100.719 E.02458
G1 X128.463 Y100.905 E.02355
G1 X129.032 Y101.173 E.0239
G1 X129.753 Y101.657 E.033
G1 X130.204 Y102.071 E.02327
G1 X130.727 Y102.724 E.0318
G1 X131.002 Y103.2 E.02089
G1 X131.203 Y103.644 E.01852
G1 X131.369 Y104.168 E.02089
G1 X131.471 Y104.674 E.01962
G1 X131.523 Y105.472 E.03039
G1 X131.423 Y106.359 E.03393
G1 X131.279 Y106.89 E.02091
G1 X130.955 Y107.635 E.03088
G1 X130.707 Y108.053 E.01847
G1 X130.373 Y108.488 E.02084
G1 X130.016 Y108.865 E.01973
G1 X129.354 Y109.379 E.03185
G1 X128.862 Y109.667 E.02167
G1 X128.336 Y109.872 E.02146
G1 X127.629 Y110.081 E.02802
G1 X127.07 Y110.153 E.02142
G1 X126.17 Y110.131 E.03422
G1 X125.645 Y110.038 E.02026
G1 X125.141 Y109.888 E.01999
G1 X124.366 Y109.536 E.03235
G1 X123.897 Y109.232 E.02124
G1 X123.275 Y108.69 E.03136
G1 X122.855 Y108.188 E.02488
G1 X118.897 Y102.793 E.25431
G1 X118.642 Y102.378 E.01851
G1 X118.512 Y101.979 E.01595
G1 X118.48 Y101.535 E.01692
G1 X118.559 Y101.091 E.01714
G1 X118.692 Y100.775 E.01303
G1 X118.979 Y100.386 E.01837
G1 X119.322 Y100.108 E.01678
G1 X119.724 Y99.923 E.01682
G1 X120.237 Y99.835 E.01978
G1 X120.559 Y99.87 E.01231
M204 S1000
G1 X120.669 Y99.422 F12000
M204 S600
;TYPE:External perimeter
G1 F1200
G1 X127.3 Y100.154 E.25355
G1 X127.981 Y100.275 E.02629
G1 X128.63 Y100.479 E.02586
G1 X129.296 Y100.792 E.02797
M73 P2 R13
G1 X130.005 Y101.268 E.03246
G1 X130.51 Y101.726 E.02591
G1 X130.845 Y102.109 E.01934
G1 X131.137 Y102.52 E.01916
G1 X131.447 Y103.067 E.0239
G1 X131.648 Y103.535 E.01936
G1 X131.833 Y104.138 E.02397
G1 X131.927 Y104.644 E.01956
G1 X131.982 Y105.483 E.03196
G1 X131.873 Y106.445 E.0368
G1 X131.739 Y106.938 E.01942
G1 X131.588 Y107.325 E.01579
G1 X131.311 Y107.939 E.0256
G1 X130.993 Y108.431 E.02226
G1 X130.413 Y109.114 E.03406
G1 X130.011 Y109.475 E.02053
G1 X129.497 Y109.837 E.02389
G1 X129.056 Y110.082 E.01917
G1 X128.203 Y110.414 E.03479
G1 X127.712 Y110.531 E.01918
G1 X127.094 Y110.611 E.02368
G1 X126.124 Y110.587 E.03688
G1 X125.511 Y110.479 E.02366
G1 X125.027 Y110.338 E.01916
G1 X124.191 Y109.966 E.03478
G1 X123.721 Y109.668 E.02115
G1 X123.315 Y109.353 E.01953
G1 X122.941 Y109.002 E.01949
G1 X122.495 Y108.471 E.02636
G1 X118.529 Y103.064 E.25485
G1 X118.223 Y102.567 E.02218
G1 X118.061 Y102.068 E.01994
G1 X118.02 Y101.511 E.02123
G1 X118.118 Y100.96 E.02127
G1 X118.292 Y100.548 E.017
G1 X118.646 Y100.067 E.0227
G1 X119.078 Y99.717 E.02113
G1 X119.585 Y99.484 E.02121
G1 X120.255 Y99.377 E.02579
G1 X120.609 Y99.416 E.01354
M204 S1000
G1 E-1.6 F2100
;WIPE_START
G1 F9600
G1 X120.669 Y99.422 E-.01253
G1 X122.522 Y99.627 E-.38747
;WIPE_END
G1 X123.538 Y101.791 Z.242 F12000
G1 Z.2 F720
G1 E2 F1500
M204 S600
;TYPE:Solid infill
;WIDTH:0.51565
G1 F1200
G1 X123.247 Y101.5 E.01618
G1 X122.496 Y101.417 E.0297
G1 X123.062 Y101.984 E.03149
G1 X122.76 Y102.351 E.01868
G1 X121.744 Y101.335 E.05648
G1 X120.993 Y101.252 E.0297
G1 X122.478 Y102.737 E.08255
G1 X122.238 Y103.165 E.01929
G1 X120.246 Y101.174 E.11071
G1 X120.129 Y101.196 E.00468
G1 X120.027 Y101.242 E.0044
G1 X119.946 Y101.309 E.00413
G1 X119.861 Y101.423 E.00559
G1 X119.854 Y101.45 E.0011
G1 X122.047 Y103.643 E.12191
G1 X122.007 Y103.747 E.00438
G1 X121.976 Y104.241 E.01946
G1 X119.696 Y101.961 E.12674
M204 S1000
M106 S127.5
;LAYER_CHANGE
;Z:0.4
;HEIGHT:0.2
;BEFORE_LAYER_CHANGE
G92 E0.0
;0.4


G1 E-1.6 F2100
;WIPE_START
G1 F9600
G1 X121.057 Y103.322 E-.4
;WIPE_END
G1 X121.057 Y103.322 Z.2 F12000
G1 X123.043 Y103.349 Z.4 F7185.205
;AFTER_LAYER_CHANGE
;0.4
;@SNAPSHOT
M104 S225 ; set temperature
G1 X123.043 Y103.349 F12000
G1 Z.4 F720
G1 E2 F1500
;TYPE:Perimeter
;WIDTH:0.449999
G1 F2095.339
G1 X123.1 Y103.223 E.00468
G1 F2092.274
G1 X123.706 Y102.436 E.03362
G1 F2076.76
G1 X124.336 Y101.899 E.02802
G1 F2062.144
G1 X124.824 Y101.606 E.01927
G1 F2047.661
G1 X125.724 Y101.278 E.03242
G1 F2036.469
G1 X126.023 Y101.212 E.01036
G1 F2033.296
G1 X126.276 Y101.198 E.00858
;WIDTH:0.422748
G1 F2035.957
G1 X126.529 Y101.184 E.008
;WIDTH:0.395496
G1 F2039.305
G1 X127.151 Y101.222 E.01827
;WIDTH:0.366222
G1 F2044.7
G1 X127.677 Y101.308 E.01433
;WIDTH:0.363377
G1 X128.21 Y101.463 E.01479
;WIDTH:0.358034
G1 X128.788 Y101.737 E.01676
;WIDTH:0.360868
G1 X129.427 Y102.179 E.02054
;WIDTH:0.362357
G1 F2045.599
G1 X129.937 Y102.695 E.01927
;WIDTH:0.369775
G1 F2043.441
G1 X130.315 Y103.246 E.01816
G1 F2041.997
G1 X130.582 Y103.743 E.01533
;WIDTH:0.360559
G1 F2043.758
G1 X130.781 Y104.337 E.01655
G1 F2044.076
G1 X130.902 Y105.109 E.02064
;WIDTH:0.365415
G1 F2041.789
G1 X130.898 Y105.633 E.01405
G1 F2040.929
G1 X130.84 Y106.138 E.01363
;WIDTH:0.358826
G1 F2045.269
G1 X130.713 Y106.643 E.01368
;WIDTH:0.365102
G1 F2040.932
G1 X130.506 Y107.156 E.01482
G1 F2042.893
G1 X130.256 Y107.614 E.01398
;WIDTH:0.359177
G1 F2045.049
G1 X129.834 Y108.169 E.01833
;WIDTH:0.365213
G1 F2044.227
G1 X129.45 Y108.541 E.01433
G1 X128.985 Y108.888 E.01555
;WIDTH:0.364808
G1 X128.416 Y109.193 E.01728
;WIDTH:0.365011
G1 F2041.687
G1 X127.898 Y109.38 E.01475
G1 F2043.701
G1 X127.339 Y109.505 E.01534
;WIDTH:0.359697
G1 X126.82 Y109.55 E.01372
G1 X126.52 Y109.542 E.0079
;WIDTH:0.362435
G1 X125.823 Y109.449 E.01868
G1 X125.596 Y109.393 E.00621
;WIDTH:0.388767
G1 F2039.394
G1 X125.206 Y109.22 E.01227
;WIDTH:0.419383
G1 F2034.147
G1 X125.036 Y109.075 E.00699
;WIDTH:0.449999
G1 F2031.449
G1 X124.865 Y108.93 E.00759
G1 F2042.972
G1 X124.526 Y108.272 E.02505
G1 F2072.044
G1 X122.903 Y104.792 E.12997
G1 F2083.791
G1 X122.776 Y104.318 E.01661
G1 F2088.486
G1 X122.806 Y103.871 E.01516
G1 F2095.339
G1 X123.018 Y103.404 E.01736
G1 X123.398 Y103.544 F12000
G1 F2097.549
G1 X123.457 Y103.419 E.00468
G1 F2094.944
G1 X124.021 Y102.694 E.03109
G1 F2083.194
G1 X124.588 Y102.219 E.02504
G1 F2072.138
G1 X125.023 Y101.961 E.01712
G1 F2060.941
G1 X125.854 Y101.663 E.02988
G1 F2050.337
G1 X126.571 Y101.561 E.02451
G1 F2045.519
G1 X127.123 Y101.586 E.0187
G1 X127.582 Y101.659 E.01573
G1 F2044.784
G1 X128.081 Y101.8 E.01755
G1 F2043.597
G1 X128.63 Y102.062 E.02059
G1 X129.211 Y102.47 E.02403
G1 F2045.564
G1 X129.671 Y102.941 E.02228
G1 F2044.898
G1 X129.999 Y103.432 E.01999
G1 F2043.531
G1 X130.247 Y103.877 E.01724
G1 X130.436 Y104.449 E.02039
G1 X130.544 Y105.154 E.02414
G1 F2041.969
G1 X130.519 Y105.863 E.02401
G1 F2042.589
G1 X130.406 Y106.382 E.01798
G1 F2041.773
G1 X130.3 Y106.734 E.01244
G1 X130.082 Y107.206 E.0176
G1 F2045.144
G1 X129.548 Y107.948 E.03094
G1 X128.999 Y108.445 E.02507
G1 X128.542 Y108.714 E.01795
G1 F2042.828
G1 X128.075 Y108.95 E.01771
G1 X127.495 Y109.113 E.02039
G1 F2043.851
G1 X126.991 Y109.173 E.01718
G1 X126.569 Y109.184 E.01429
G1 X125.868 Y109.088 E.02395
G1 X125.703 Y109.051 E.00572
G1 F2044.567
G1 X125.423 Y108.912 E.01058
G1 F2046.571
G1 X125.192 Y108.687 E.01092
G1 F2056.628
G1 X124.895 Y108.099 E.0223
G1 F2082.322
G1 X123.272 Y104.62 E.12994
G1 F2090.927
G1 X123.181 Y104.282 E.01185
G1 F2093.446
G1 X123.203 Y103.962 E.01086
G1 F2097.549
G1 X123.373 Y103.599 E.01357
G1 X123.754 Y103.739 F12000
G1 F2099.138
G1 X123.831 Y103.583 E.00589
G1 F2096.89
G1 X124.335 Y102.953 E.02731
G1 F2088.588
G1 X124.839 Y102.539 E.02208
G1 F2079.89
G1 X125.325 Y102.27 E.0188
G1 F2071.429
G1 X125.983 Y102.049 E.0235
G1 F2064.367
G1 X126.615 Y101.966 E.02158
G1 F2055.054
G1 X127.261 Y102.005 E.02191
G1 F2041.53
G1 X127.871 Y102.159 E.0213
G1 F2038.375
G1 X128.453 Y102.428 E.0217
G1 F2039.581
G1 X128.968 Y102.797 E.02144
G1 X129.372 Y103.218 E.01975
G1 F2036.954
G1 X129.648 Y103.638 E.01701
G1 X129.883 Y104.067 E.01656
G1 F2040.41
G1 X130.049 Y104.575 E.01809
G1 F2052.97
G1 X130.14 Y105.205 E.02155
G1 F2058.379
G1 X130.113 Y105.839 E.02148
G1 F2059.617
G1 X129.968 Y106.456 E.02145
G1 F2058.222
G1 X129.712 Y107.036 E.02146
G1 F2060.718
G1 X129.224 Y107.702 E.02795
G1 X128.736 Y108.135 E.02208
G1 X128.055 Y108.511 E.02633
G1 F2059.083
G1 X127.387 Y108.721 E.0237
G1 X126.757 Y108.784 E.02143
G1 F2058.739
G1 X126.624 Y108.78 E.0045
G1 F2059.386
G1 X125.925 Y108.685 E.02388
G1 F2060.527
