; generated by PrusaSlicer 2.9.3 on 2025-10-13 at 21:19:15 UTC


;
;

;
;

;
;

;
;

;
;
; 

; external perimeters extrusion width = 0.45mm
; perimeters extrusion width = 0.45mm
; infill extrusion width = 0.45mm
; solid infill extrusion width = 0.45mm
; top infill extrusion width = 0.42mm
; first layer extrusion width = 0.50mm

M73 P0 R28

EXCLUDE_OBJECT_DEFINE NAME='a_slide_stl' CENTER=125.187,106.524 POLYGON=[[136.087,97.352],[136.741,97.509],[137.357,97.967],[137.695,98.543],[137.847,99.528],[137.986,99.882],[138.463,100.412],[139.000,100.649],[152.900,100.649],[153.500,101.249],[153.500,112.049],[152.900,112.649],[97.100,112.649],[96.500,112.049],[96.500,101.249],[97.100,100.649],[132.700,100.649],[133.151,100.343],[133.681,99.810],[134.076,99.170],[134.425,98.278],[134.763,97.842],[135.336,97.476]]

;TYPE:Custom
G90 ; use absolute coordinates
M83 ; extruder relative mode
M104 S170 ; preheat hotend to 170
M140 S65 ; set bed temp
M190 S65 ; wait for bed temp
G28 ; home all
;G29 ; mesh bed leveling
BED_MESH_CALIBRATE
G0 X0 Z0.6 Y-3.0 F1000.0 ; go outside print area for intro line
M104 S215 ; set hotend temp
M109 S215 ; wait for hotend temp
;M104 S0 ; Stops PS/SS from sending temp waits separately
;M140 S0
;PRINT_START BED=65 HOTEND=215
G92 E0.0
G1 X60.0 E9.0 F1000.0 ; intro line
G1 X100.0 E12.5 F1000.0 ; intro line
G92 E0.0
SKEW_PROFILE LOAD=CaliFlower
G21 ; set units to millimeters
G90 ; use absolute coordinates
M83 ; use relative distances for extrusion
M900 K0.05 ; Filament gcode



M142 S36 ; set heatbreak target temp
M107
;LAYER_CHANGE
;Z:0.2
;HEIGHT:0.2
G1 E-2 F2100
G1 Z.8 F720
EXCLUDE_OBJECT_START NAME='a_slide_stl'
G1 X140.299 Y107.548 F12000
G1 Z.2 F720
G1 E2 F1500
M204 S600
;TYPE:Perimeter
;WIDTH:0.499999
G1 F1200
G1 X140.125 Y107.473 E.0072
G1 X139.692 Y107.414 E.01661
G1 X98.822 Y107.409 E1.55332
G1 X98.824 Y103.871 E.13447
G1 X151.179 Y103.876 E1.98982
G1 X151.179 Y106.032 E.08194
G1 X151.179 Y107.439 E.05347
G1 X150.679 Y107.542 E.0194
G1 X150.335 Y107.744 E.01516
G1 X150.177 Y107.882 E.00797
G1 X148.294 Y109.765 E.10121
G1 X142.706 Y109.765 E.21238
G1 X140.823 Y107.882 E.10121
G1 X140.513 Y107.64 E.01495
G1 X140.354 Y107.572 E.00657
M204 S1000
G1 X140.125 Y107.967 F12000
M204 S600
G1 F1200
G1 X140.001 Y107.913 E.00514
G1 X139.692 Y107.871 E.01185
G1 X98.365 Y107.866 E1.57069
G1 X98.367 Y103.414 E.1692
G1 X151.636 Y103.419 E2.02456
G1 X151.636 Y106.032 E.09931
M73 P1 R28
G1 X151.636 Y107.87 E.06986
G1 X151.304 Y107.871 E.01262
G1 X150.859 Y107.963 E.01727
G1 X150.5 Y108.205 E.01645
G1 X148.483 Y110.222 E.10841
G1 X142.517 Y110.222 E.22675
G1 X140.5 Y108.205 E.10841
G1 X140.278 Y108.033 E.01067
G1 X140.18 Y107.99 E.00407
M204 S1000
G1 X139.946 Y108.398 F12000
M204 S600
G1 F1200
G1 X139.692 Y108.328 E.01001
G1 X97.907 Y108.323 E1.58809
G1 X97.91 Y102.957 E.20394
M73 P1 R27
G1 X152.093 Y102.961 E2.05929
G1 X152.093 Y106.032 E.11672
G1 X152.093 Y108.325 E.08715
G1 X151.306 Y108.328 E.02991
G1 X151.039 Y108.383 E.01036
G1 X150.823 Y108.529 E.00991
G1 X148.673 Y110.679 E.11556
G1 X142.327 Y110.679 E.24119
G1 X140.177 Y108.528 E.11559
G1 X140.044 Y108.425 E.00639
G1 X140.004 Y108.414 E.00158
M204 S1000
G1 X139.773 Y108.818 F12000
M204 S600
;TYPE:External perimeter
G1 F1200
G1 X139.692 Y108.785 E.00332
G1 X97.45 Y108.78 E1.60546
G1 X97.453 Y102.5 E.23868
G1 X152.55 Y102.504 E2.09403
G1 X152.55 Y106.032 E.13409
G1 X152.55 Y108.781 E.10448
G1 X151.307 Y108.785 E.04724
G1 X151.147 Y108.852 E.00659
G1 X148.862 Y111.137 E.12282
G1 X142.138 Y111.137 E.25555
G1 X139.853 Y108.852 E.12282
G1 X139.828 Y108.841 E.00104
M204 S1000
G1 E-1.6 F2100
;WIPE_START
G1 F9600
G1 X139.773 Y108.818 E-.01239
G1 X139.692 Y108.785 E-.01818
G1 X137.914 Y108.785 E-.36943
;WIPE_END
G1 X150.045 Y104.081 Z.427 F12000
G1 Z.2 F720
G1 E2 F1500
M204 S600
;TYPE:Solid infill
;WIDTH:0.501777
G1 F1200
G1 X150.767 Y104.803 E.03896
G1 X150.767 Y105.452 E.02476
G1 X149.602 Y104.287 E.06286
G1 X148.953 Y104.287 E.02476
G1 X150.767 Y106.101 E.09788
G1 X150.767 Y106.75 E.02476
G1 X148.304 Y104.287 E.1329
G1 X147.655 Y104.287 E.02476
G1 X150.527 Y107.159 E.15497
G1 X150.117 Y107.397 E.01809
G1 X147.006 Y104.287 E.16784
G1 X146.357 Y104.286 E.02476
G1 X149.774 Y107.703 E.18437
G1 X149.45 Y108.028 E.01751
G1 X145.708 Y104.286 E.20191
G1 X145.059 Y104.286 E.02476
G1 X149.125 Y108.352 E.21939
G1 X148.801 Y108.677 E.01751
G1 X144.41 Y104.286 E.23693
G1 X143.761 Y104.286 E.02476
M73 P2 R27
G1 X148.476 Y109.001 E.25441
G1 X148.152 Y109.326 E.01751
G1 X143.112 Y104.286 E.27195
G1 X142.463 Y104.286 E.02476
G1 X147.531 Y109.354 E.27346
G1 X146.882 Y109.354 E.02476
G1 X141.814 Y104.286 E.27346
G1 X141.165 Y104.286 E.02476
G1 X146.233 Y109.354 E.27346
G1 X145.584 Y109.354 E.02476
G1 X140.516 Y104.286 E.27346
G1 X139.867 Y104.286 E.02476
G1 X144.935 Y109.354 E.27346
G1 X144.286 Y109.354 E.02476
G1 X139.218 Y104.286 E.27346
G1 X138.569 Y104.286 E.02476
G1 X143.637 Y109.354 E.27346
G1 X142.989 Y109.354 E.02472
G1 X137.92 Y104.286 E.27349
G1 X137.271 Y104.286 E.02476
G1 X140.033 Y107.048 E.14903
G1 X139.705 Y107.002 E.01264
G1 X139.339 Y107.002 E.01396
G1 X136.622 Y104.286 E.14658
G1 X135.973 Y104.286 E.02476
G1 X138.69 Y107.002 E.14658
G1 X138.041 Y107.002 E.02476
G1 X135.324 Y104.286 E.14658
G1 X134.675 Y104.285 E.02476
G1 X137.392 Y107.002 E.1466
G1 X136.743 Y107.002 E.02476
G1 X134.026 Y104.285 E.1466
G1 X133.377 Y104.285 E.02476
G1 X136.094 Y107.002 E.1466
G1 X135.445 Y107.002 E.02476
G1 X132.728 Y104.285 E.1466
G1 X132.08 Y104.285 E.02472
G1 X134.796 Y107.002 E.14658
G1 X134.147 Y107.002 E.02476
G1 X131.431 Y104.285 E.14658
G1 X130.782 Y104.285 E.02476
G1 X133.498 Y107.001 E.14655
G1 X132.849 Y107.001 E.02476
G1 X130.133 Y104.285 E.14655
G1 X129.484 Y104.285 E.02476
G1 X132.2 Y107.001 E.14655
G1 X131.551 Y107.001 E.02476
G1 X128.835 Y104.285 E.14655
G1 X128.186 Y104.285 E.02476
G1 X130.902 Y107.001 E.14655
G1 X130.253 Y107.001 E.02476
G1 X127.537 Y104.285 E.14655
G1 X126.888 Y104.285 E.02476
G1 X129.604 Y107.001 E.14655
G1 X128.955 Y107.001 E.02476
G1 X126.239 Y104.285 E.14655
G1 X125.59 Y104.285 E.02476
G1 X128.306 Y107.001 E.14655
G1 X127.657 Y107.001 E.02476
G1 X124.941 Y104.285 E.14655
G1 X124.292 Y104.285 E.02476
G1 X127.008 Y107.001 E.14655
G1 X126.359 Y107.001 E.02476
G1 X123.643 Y104.284 E.14658
G1 X122.994 Y104.284 E.02476
G1 X125.71 Y107.001 E.14658
G1 X125.061 Y107 E.02476
G1 X122.345 Y104.284 E.14655
G1 X121.696 Y104.284 E.02476
G1 X124.412 Y107 E.14655
G1 X123.763 Y107 E.02476
G1 X121.047 Y104.284 E.14655
G1 X120.398 Y104.284 E.02476
G1 X123.114 Y107 E.14655
G1 X122.465 Y107 E.02476
G1 X119.749 Y104.284 E.14655
G1 X119.1 Y104.284 E.02476
G1 X121.816 Y107 E.14655
G1 X121.167 Y107 E.02476
G1 X118.451 Y104.284 E.14655
G1 X117.802 Y104.284 E.02476
G1 X120.518 Y107 E.14655
G1 X119.869 Y107 E.02476
G1 X117.153 Y104.284 E.14655
G1 X116.504 Y104.284 E.02476
G1 X119.22 Y107 E.14655
G1 X118.571 Y107 E.02476
G1 X115.855 Y104.284 E.14655
G1 X115.206 Y104.284 E.02476
G1 X117.922 Y107 E.14655
G1 X117.273 Y107 E.02476
G1 X114.557 Y104.284 E.14655
G1 X113.908 Y104.284 E.02476
G1 X116.624 Y106.999 E.14652
G1 X115.975 Y106.999 E.02476
G1 X113.259 Y104.284 E.14652
G1 X112.61 Y104.283 E.02476
G1 X115.326 Y106.999 E.14655
G1 X114.677 Y106.999 E.02476
G1 X111.961 Y104.283 E.14655
G1 X111.312 Y104.283 E.02476
G1 X114.028 Y106.999 E.14655
G1 X113.379 Y106.999 E.02476
G1 X110.663 Y104.283 E.14655
G1 X110.014 Y104.283 E.02476
G1 X112.73 Y106.999 E.14655
G1 X112.081 Y106.999 E.02476
G1 X109.365 Y104.283 E.14655
G1 X108.716 Y104.283 E.02476
G1 X111.432 Y106.999 E.14655
G1 X110.783 Y106.999 E.02476
G1 X108.067 Y104.283 E.14655
G1 X107.418 Y104.283 E.02476
G1 X110.134 Y106.999 E.14655
G1 X109.485 Y106.999 E.02476
G1 X106.769 Y104.283 E.14655
G1 X106.12 Y104.283 E.02476
G1 X108.836 Y106.999 E.14655
G1 X108.187 Y106.998 E.02476
G1 X105.471 Y104.283 E.14652
G1 X104.822 Y104.283 E.02476
G1 X107.538 Y106.998 E.14652
G1 X106.889 Y106.998 E.02476
G1 X104.173 Y104.283 E.14652
G1 X103.524 Y104.283 E.02476
G1 X106.24 Y106.998 E.14652
G1 X105.591 Y106.998 E.02476
M73 P3 R27
G1 X102.875 Y104.283 E.14652
G1 X102.226 Y104.283 E.02476
G1 X104.942 Y106.998 E.14652
G1 X104.293 Y106.998 E.02476
G1 X101.577 Y104.282 E.14655
G1 X100.928 Y104.282 E.02476
G1 X103.644 Y106.998 E.14655
G1 X102.995 Y106.998 E.02476
G1 X100.279 Y104.282 E.14655
G1 X99.631 Y104.282 E.02472
G1 X102.346 Y106.998 E.14652
G1 X101.697 Y106.998 E.02476
G1 X99.235 Y104.536 E.13284
G1 X99.235 Y105.184 E.02472
G1 X101.048 Y106.998 E.09785
G1 X100.399 Y106.998 E.02476
G1 X99.234 Y105.833 E.06286
G1 X99.234 Y106.481 E.02472
G1 X99.956 Y107.203 E.03896
M204 S1000
M106 S127.5
;LAYER_CHANGE
;Z:0.4
;HEIGHT:0.2
;BEFORE_LAYER_CHANGE
G92 E0.0
;0.4


G1 E-1.6 F2100
;WIPE_START
G1 F9600
G1 X99.234 Y106.481 E-.21219
G1 X99.234 Y105.833 E-.13466
G1 X99.415 Y106.014 E-.05315
;WIPE_END
G1 X99.415 Y106.014 Z.2 F12000
G1 X133.744 Y107.762 Z.8
G1 X140.353 Y108.099 Z.8
;AFTER_LAYER_CHANGE
;0.4
;@SNAPSHOT
M104 S225 ; set temperature
G1 Z.4 F720
G1 E2 F1500
;TYPE:Perimeter
;WIDTH:0.449999
G1 F3804.583
G1 X140.101 Y108.019 E.00895
G1 F3810.724
G1 X139.809 Y107.989 E.00994
G1 F4200
G1 X98.246 Y107.989 E1.40686
G1 F3056.142
G1 X98.246 Y103.296 E.15885
G1 F4200
G1 X151.754 Y103.296 E1.81118
G1 F3071.043
G1 X151.754 Y107.989 E.15885
G1 F3051.361
G1 X151.191 Y107.989 E.01906
G1 F3041.047
G1 X150.75 Y108.059 E.01511
G1 F3059.996
G1 X150.465 Y108.188 E.01059
G1 F3077.704
G1 X150.184 Y108.406 E.01204
G1 F3534.024
G1 X148.209 Y110.381 E.09454
G1 F2995.28
G1 X142.791 Y110.381 E.18339
G1 F3616.361
G1 X140.816 Y108.406 E.09454
G1 F3798.726
G1 X140.616 Y108.239 E.00882
G1 F3800.554
G1 X140.407 Y108.124 E.00807
G1 X140.194 Y108.475 F12000
G1 F3699.846
G1 X139.809 Y108.396 E.0133
G1 F4200
G1 X97.839 Y108.396 E1.42063
G1 F2754.475
G1 X97.839 Y102.889 E.18641
G1 F4200
G1 X152.161 Y102.889 E1.83873
G1 F2773.306
G1 X152.161 Y108.396 E.18641
G1 F2748.433
G1 X151.191 Y108.396 E.03283
G1 F2740.989
G1 X150.876 Y108.446 E.0108
G1 F2761.167
G1 X150.672 Y108.538 E.00757
G1 F2782.826
G1 X150.471 Y108.694 E.00861
G1 F3446.734
G1 X148.377 Y110.788 E.10024
G1 F2677.562
G1 X142.623 Y110.788 E.19477
G1 F3467.96
G1 X140.529 Y108.694 E.10024
G1 F3690.718
G1 X140.246 Y108.502 E.01158
G1 X140.04 Y108.851 F12000
G1 F3587.231
G1 X139.809 Y108.803 E.00799
G1 F3629.827
G1 X139.389 Y108.803 E.01422
G1 F4200
G1 X97.9 Y108.803 E1.40435
G1 F2396.141
G1 X97.432 Y108.803 E.01584
G1 F2408.199
G1 X97.432 Y108.335 E.01584
G1 F2417.542
G1 X97.432 Y102.949 E.18231
G1 F2395.756
G1 X97.432 Y102.482 E.01581
G1 F2407.156
G1 X97.9 Y102.482 E.01584
G1 F4200
G1 X152.1 Y102.482 E1.8346
G1 F2390.784
G1 X152.568 Y102.482 E.01584
G1 F2414.555
G1 X152.568 Y102.949 E.01581
G1 F2440.763
G1 X152.568 Y108.335 E.18231
G1 F2418.788
G1 X152.568 Y108.803 E.01584
G1 X151.191 Y108.803 E.04661
G1 F2406.792
G1 X151.002 Y108.833 E.00648
G1 F2433.18
G1 X150.759 Y108.982 E.00965
G1 F3339.415
G1 X148.546 Y111.195 E.10593
G1 F2250.059
G1 X148.038 Y111.195 E.0172
G1 F2322.703
G1 X142.962 Y111.195 E.17182
G1 F2250.292
G1 X142.454 Y111.195 E.0172
G1 F3339.518
G1 X140.241 Y108.982 E.10593
G1 F3574.946
G1 X140.091 Y108.88 E.00614
G1 X139.881 Y109.24 F12000
M204 S800
;TYPE:External perimeter
G1 F2145.641
G1 X139.809 Y109.21 E.00264
G1 F1359.994
G1 X139.074 Y109.21 E.02488
G1 X98.091 Y109.21 E1.38722
G1 X97.216 Y109.21 E.02962
G1 X97.025 Y108.939 E.01122
G1 X97.025 Y108.064 E.02962
G1 X97.025 Y103.22 E.16396
G1 X97.025 Y102.345 E.02962
G1 X97.216 Y102.074 E.01122
G1 X98.091 Y102.074 E.02962
G1 X151.909 Y102.074 E1.82167
G1 X152.784 Y102.074 E.02962
G1 X152.975 Y102.345 E.01122
G1 F1360
G1 X152.975 Y103.22 E.02962
G1 X152.975 Y108.064 E.16396
G1 X152.975 Y108.939 E.02962
G1 F1359.994
G1 X152.784 Y109.21 E.01122
G1 X151.191 Y109.21 E.05392
G1 F1960.125
G1 X151.047 Y109.269 E.00527
G1 F1200
G1 X148.73 Y111.587 E.11094
G1 F1159.798
G1 X148.714 Y111.602 E.00074
G1 X147.799 Y111.602 E.03097
G1 F1164.497
G1 X143.201 Y111.602 E.15564
G1 F1159.795
G1 X142.286 Y111.602 E.03097
G1 X142.27 Y111.587 E.00074
G1 F1200
G1 X139.953 Y109.269 E.11094
G1 F2145.641
G1 X139.936 Y109.263 E.00061
M204 S1000
G1 E-1.6 F2100
;WIPE_START
G1 F9600
G1 X139.881 Y109.24 E-.01239
G1 X139.809 Y109.21 E-.01621
G1 X139.074 Y109.21 E-.15274
G1 X138.022 Y109.21 E-.21866
;WIPE_END
G1 X103.982 Y104.433 Z1 F12000
G1 X98.723 Y103.695
G1 Z.4 F720
G1 E2 F1500
M204 S1500
;TYPE:Solid infill
;WIDTH:0.548766
G1 F8895.988
G1 X98.678 Y103.65 E.00268
G1 X98.617 Y103.667 E.00266
G1 X98.601 Y103.728 E.00265
G1 X98.646 Y103.773 E.00268
G1 X98.707 Y103.756 E.00266
;WIDTH:0.449999
G1 F11054.364
G1 X98.613 Y104.406 E.02223
G1 X99.357 Y103.662 E.03561
G1 X99.933 Y103.662 E.0195
G1 X98.613 Y104.982 E.06319
G1 X98.613 Y105.558 E.0195
G1 X100.508 Y103.662 E.09074
G1 X101.084 Y103.662 E.0195
G1 X98.613 Y106.133 E.11829
G1 X98.613 Y106.709 E.0195
G1 X101.66 Y103.662 E.14586
G1 X102.235 Y103.662 E.01946
G1 X98.613 Y107.285 E.17341
G1 X98.555 Y107.74 E.01553
;WIDTH:0.38292
G1 F12000
G1 X98.514 Y107.751 E.0012
G1 X98.495 Y107.68 E.00208
G1 X98.566 Y107.699 E.00208
;WIDTH:0.41646
G1 X98.709 Y107.66 E.0046
;WIDTH:0.449999
G1 F11054.364
G1 X98.851 Y107.622 E.00498
G1 X102.811 Y103.662 E.18956
G1 X103.387 Y103.662 E.0195
G1 X99.427 Y107.622 E.18956
G1 X100.002 Y107.622 E.01946
M73 P4 R27
G1 X103.963 Y103.662 E.18959
G1 X104.538 Y103.662 E.01946
G1 X100.578 Y107.622 E.18956
G1 X101.154 Y107.622 E.0195
G1 X105.114 Y103.662 E.18956
G1 X105.69 Y103.662 E.0195
G1 X101.73 Y107.622 E.18956
G1 X102.305 Y107.622 E.01946
G1 X106.265 Y103.662 E.18956
G1 X106.841 Y103.662 E.0195
G1 X102.881 Y107.622 E.18956
G1 X103.457 Y107.622 E.0195
G1 X107.417 Y103.662 E.18956
G1 X107.992 Y103.662 E.01946
G1 X104.032 Y107.622 E.18956
G1 X104.608 Y107.622 E.0195
G1 X108.568 Y103.662 E.18956
G1 X109.144 Y103.662 E.0195
G1 X105.184 Y107.622 E.18956
G1 X105.759 Y107.622 E.01946
G1 X109.719 Y103.662 E.18956
G1 X110.295 Y103.662 E.0195
G1 X106.335 Y107.622 E.18956
G1 X106.911 Y107.622 E.0195
G1 X110.871 Y103.662 E.18956
G1 X111.447 Y103.662 E.0195
G1 X107.486 Y107.622 E.18959
G1 X108.062 Y107.622 E.0195
G1 X112.022 Y103.662 E.18956
G1 X112.598 Y103.662 E.0195
G1 X108.638 Y107.622 E.18956
G1 X109.214 Y107.622 E.0195
G1 X113.174 Y103.662 E.18956
G1 X113.749 Y103.662 E.01946
G1 X109.789 Y107.622 E.18956
G1 X110.365 Y107.622 E.0195
G1 X114.325 Y103.662 E.18956
G1 X114.901 Y103.662 E.0195
G1 X110.941 Y107.622 E.18956
G1 X111.516 Y107.622 E.01946
G1 X115.476 Y103.662 E.18956
G1 X116.052 Y103.662 E.0195
G1 X112.092 Y107.622 E.18956
G1 X112.668 Y107.622 E.0195
G1 X116.628 Y103.662 E.18956
G1 X117.204 Y103.662 E.0195
G1 X113.243 Y107.622 E.18959
G1 X113.819 Y107.622 E.0195
G1 X117.779 Y103.662 E.18956
G1 X118.355 Y103.662 E.0195
G1 X114.395 Y107.622 E.18956
G1 X114.971 Y107.622 E.0195
G1 X118.931 Y103.662 E.18956
G1 X119.506 Y103.662 E.01946
G1 X115.546 Y107.622 E.18956
G1 X116.122 Y107.622 E.0195
G1 X120.082 Y103.662 E.18956
G1 X120.658 Y103.662 E.0195
G1 X116.698 Y107.622 E.18956
G1 X117.273 Y107.622 E.01946
G1 X121.233 Y103.662 E.18956
G1 X121.809 Y103.662 E.0195
G1 X117.849 Y107.622 E.18956
G1 X118.425 Y107.622 E.0195
G1 X122.385 Y103.662 E.18956
G1 X122.96 Y103.662 E.01946
G1 X119 Y107.622 E.18956
G1 X119.576 Y107.622 E.0195
G1 X123.536 Y103.662 E.18956
G1 X124.112 Y103.662 E.0195
G1 X120.152 Y107.622 E.18956
G1 X120.728 Y107.622 E.0195
G1 X124.688 Y103.662 E.18956
G1 X125.263 Y103.662 E.01946
G1 X121.303 Y107.622 E.18956
G1 X121.879 Y107.622 E.0195
G1 X125.839 Y103.662 E.18956
G1 X126.415 Y103.662 E.0195
G1 X122.455 Y107.622 E.18956
G1 X123.03 Y107.622 E.01946
G1 X126.99 Y103.662 E.18956
G1 X127.566 Y103.662 E.0195
G1 X123.606 Y107.622 E.18956
G1 X124.182 Y107.622 E.0195
G1 X128.142 Y103.662 E.18956
G1 X128.717 Y103.662 E.01946
G1 X124.757 Y107.622 E.18956
G1 X125.333 Y107.622 E.0195
G1 X129.293 Y103.662 E.18956
G1 X129.869 Y103.662 E.0195
G1 X125.909 Y107.622 E.18956
G1 X126.484 Y107.622 E.01946
G1 X130.445 Y103.662 E.18959
G1 X131.02 Y103.662 E.01946
G1 X127.06 Y107.622 E.18956
G1 X127.636 Y107.622 E.0195
