; generated by PrusaSlicer 2.9.3 on 2025-10-13 at 21:11:16 UTC


;
;

;
;

;
;

;
;

;
;
; 

; external perimeters extrusion width = 0.45mm
; perimeters extrusion width = 0.45mm
; infill extrusion width = 0.45mm
; solid infill extrusion width = 0.45mm
; top infill extrusion width = 0.42mm
; first layer extrusion width = 0.50mm

M73 P0 R4

EXCLUDE_OBJECT_DEFINE NAME='board_offsets_x4_stl_(Instance_1)' CENTER=94.392,74.375 POLYGON=[[94.482,70.976],[95.190,71.069],[95.755,71.260],[96.376,71.613],[96.909,72.089],[97.332,72.666],[97.585,73.205],[97.759,73.899],[97.790,74.494],[97.690,75.201],[97.495,75.765],[97.136,76.383],[96.743,76.831],[96.278,77.203],[95.645,77.535],[95.074,77.705],[94.362,77.774],[93.652,77.693],[93.084,77.513],[92.556,77.236],[91.998,76.789],[91.547,76.235],[91.220,75.599],[91.034,74.909],[90.993,74.315],[91.055,73.722],[91.265,73.039],[91.547,72.513],[91.998,71.960],[92.556,71.513],[93.084,71.236],[93.769,71.032]]
EXCLUDE_OBJECT_DEFINE NAME='board_offsets_x4_stl_(Instance_2)' CENTER=155.635,74.374 POLYGON=[[155.724,70.976],[156.433,71.069],[156.998,71.260],[157.520,71.545],[158.070,72.002],[158.512,72.564],[158.784,73.094],[158.960,73.664],[159.035,74.374],[158.982,74.968],[158.784,75.655],[158.447,76.285],[157.986,76.831],[157.420,77.268],[156.887,77.535],[156.316,77.705],[155.605,77.774],[154.895,77.693],[154.327,77.513],[153.799,77.236],[153.241,76.789],[152.789,76.235],[152.463,75.599],[152.277,74.909],[152.235,74.315],[152.323,73.605],[152.508,73.039],[152.856,72.415],[153.241,71.960],[153.799,71.513],[154.327,71.236],[155.012,71.032]]
EXCLUDE_OBJECT_DEFINE NAME='board_offsets_x4_stl_(Instance_3)' CENTER=155.634,135.626 POLYGON=[[155.724,132.227],[156.433,132.321],[156.997,132.511],[157.520,132.797],[158.070,133.253],[158.512,133.815],[158.784,134.345],[158.982,135.032],[159.032,135.745],[158.959,136.336],[158.737,137.016],[158.447,137.536],[157.985,138.082],[157.420,138.519],[156.887,138.786],[156.199,138.978],[155.485,139.022],[154.895,138.944],[154.217,138.716],[153.602,138.352],[153.158,137.955],[152.789,137.487],[152.463,136.851],[152.277,136.160],[152.235,135.566],[152.323,134.857],[152.508,134.290],[152.789,133.765],[153.241,133.211],[153.799,132.764],[154.327,132.487],[155.012,132.283]]
EXCLUDE_OBJECT_DEFINE NAME='board_offsets_x4_stl_(Instance_4)' CENTER=94.392,135.625 POLYGON=[[94.482,132.227],[95.190,132.321],[95.755,132.511],[96.376,132.864],[96.909,133.340],[97.332,133.917],[97.585,134.456],[97.759,135.150],[97.790,135.745],[97.717,136.336],[97.495,137.016],[97.136,137.634],[96.743,138.082],[96.278,138.455],[95.645,138.786],[94.956,138.978],[94.243,139.022],[93.652,138.944],[92.975,138.716],[92.360,138.351],[91.835,137.866],[91.483,137.385],[91.179,136.738],[91.034,136.160],[90.997,135.447],[91.109,134.741],[91.314,134.181],[91.684,133.570],[92.085,133.128],[92.556,132.764],[93.195,132.443],[93.887,132.263]]

;TYPE:Custom
G90 ; use absolute coordinates
M83 ; extruder relative mode
M104 S170 ; preheat hotend to 170
M140 S65 ; set bed temp
M190 S65 ; wait for bed temp
G28 ; home all
;G29 ; mesh bed leveling
BED_MESH_CALIBRATE
G0 X0 Z0.6 Y-3.0 F1000.0 ; go outside print area for intro line
M104 S215 ; set hotend temp
M109 S215 ; wait for hotend temp
;M104 S0 ; Stops PS/SS from sending temp waits separately
;M140 S0
;PRINT_START BED=65 HOTEND=215
G92 E0.0
G1 X60.0 E9.0 F1000.0 ; intro line
G1 X100.0 E12.5 F1000.0 ; intro line
M73 P1 R4
G92 E0.0
SKEW_PROFILE LOAD=CaliFlower
G21 ; set units to millimeters
G90 ; use absolute coordinates
M83 ; use relative distances for extrusion
M900 K0.05 ; Filament gcode



M142 S36 ; set heatbreak target temp
M107
;LAYER_CHANGE
;Z:0.2
;HEIGHT:0.2
G1 E-2 F2100
M73 P2 R4
G1 Z.8 F720
EXCLUDE_OBJECT_START NAME='board_offsets_x4_stl_(Instance_2)'
G1 X155.6 Y72.227 F12000
G1 Z.2 F720
G1 E2 F1500
M204 S600
;TYPE:External perimeter
;WIDTH:0.499999
G1 F1200
G1 X155.613 Y72.225 E.0005
G1 X156.051 Y72.273 E.01675
G1 X156.485 Y72.409 E.01729
G1 X156.886 Y72.637 E.01753
G1 X157.161 Y72.871 E.01372
G1 X157.394 Y73.147 E.01373
G1 X157.616 Y73.557 E.01772
G1 X157.728 Y73.898 E.01364
G1 X157.779 Y74.36 E.01767
G1 X157.756 Y74.716 E.01356
G1 X157.629 Y75.165 E.01773
G1 X157.462 Y75.506 E.01443
G1 X157.192 Y75.853 E.01671
G1 X156.843 Y76.147 E.01734
G1 X156.436 Y76.362 E.01749
G1 X156.096 Y76.472 E.01358
G1 X155.637 Y76.519 E.01754
G1 X155.179 Y76.468 E.01751
G1 X154.832 Y76.365 E.01376
G1 X154.48 Y76.187 E.01499
G1 X154.143 Y75.921 E.01632
G1 X153.897 Y75.639 E.01422
G1 X153.64 Y75.16 E.02066
G1 X153.533 Y74.819 E.01358
G1 X153.489 Y74.359 E.01756
G1 X153.544 Y73.902 E.01749
G1 X153.647 Y73.56 E.01357
G1 X153.873 Y73.152 E.01773
G1 X154.103 Y72.867 E.01392
G1 X154.429 Y72.595 E.01614
G1 X154.802 Y72.393 E.01612
G1 X155.218 Y72.267 E.01652
G1 X155.54 Y72.233 E.01231
M204 S1000
G1 X155.603 Y71.835 F12000
M204 S600
;TYPE:Perimeter
;WIDTH:0.379306
G1 F1200
G1 X156.041 Y71.864 E.01228
;WIDTH:0.37556
G1 X156.526 Y71.994 E.01389
;WIDTH:0.373608
G1 X156.976 Y72.216 E.0138
;WIDTH:0.378006
G1 X157.376 Y72.52 E.014
;WIDTH:0.381122
G1 X157.708 Y72.898 E.01415
G1 X157.956 Y73.335 E.01413
;WIDTH:0.38692
G1 X158.124 Y73.839 E.0152
;WIDTH:0.389214
G1 X158.18 Y74.379 E.01563
G1 X158.159 Y74.689 E.00895
;WIDTH:0.377322
G1 X158.045 Y75.179 E.01399
;WIDTH:0.378336
G1 X157.843 Y75.638 E.01399
G1 X157.549 Y76.046 E.01403
;WIDTH:0.373612
G1 X157.182 Y76.39 E.01383
;WIDTH:0.372168
G1 X156.756 Y76.654 E.01372
;WIDTH:0.376804
G1 X156.287 Y76.833 E.01394
G1 X155.79 Y76.911 E.01397
;WIDTH:0.371892
G1 X155.289 Y76.891 E.01372
;WIDTH:0.376584
G1 X154.8 Y76.777 E.01393
;WIDTH:0.37878
G1 X154.343 Y76.567 E.01405
G1 X153.939 Y76.268 E.01404
;WIDTH:0.374096
G1 X153.6 Y75.897 E.01384
M73 P3 R4
;WIDTH:0.372532
G1 X153.341 Y75.467 E.01376
;WIDTH:0.377104
G1 X153.168 Y74.996 E.01394
G1 X153.097 Y74.499 E.01395
;WIDTH:0.37223
G1 X153.122 Y73.997 E.01376
;WIDTH:0.37685
G1 X153.243 Y73.51 E.01393
G1 X153.462 Y73.058 E.01395
;WIDTH:0.377726
G1 X153.761 Y72.654 E.01399
;WIDTH:0.380676
G1 X154.134 Y72.318 E.0141
G1 X154.569 Y72.065 E.01413
;WIDTH:0.376158
G1 X155.044 Y71.902 E.01392
;WIDTH:0.379306
G1 X155.54 Y71.831 E.01401
G1 X155.543 Y71.831 E.00008
M204 S1000
G1 X155.607 Y71.437 F12000
M204 S600
;TYPE:External perimeter
;WIDTH:0.499999
G1 F1200
G1 X155.674 Y71.432 E.00255
G1 X156.266 Y71.498 E.02264
G1 X156.854 Y71.694 E.02356
G1 X157.386 Y72.006 E.02344
G1 X157.77 Y72.344 E.01944
G1 X158.091 Y72.75 E.01967
G1 X158.378 Y73.303 E.02368
G1 X158.522 Y73.797 E.01956
G1 X158.58 Y74.415 E.02359
G1 X158.528 Y74.925 E.01948
G1 X158.348 Y75.521 E.02366
G1 X158.093 Y75.992 E.02036
G1 X157.714 Y76.459 E.02286
G1 X157.233 Y76.848 E.02351
G1 X156.682 Y77.128 E.02349
G1 X156.189 Y77.267 E.01947
G1 X155.567 Y77.318 E.02372
G1 X154.954 Y77.24 E.02349
G1 X154.469 Y77.08 E.01941
G1 X153.989 Y76.813 E.02088
G1 X153.532 Y76.436 E.02252
G1 X153.148 Y75.951 E.02351
G1 X152.872 Y75.398 E.02349
G1 X152.737 Y74.903 E.0195
G1 X152.692 Y74.281 E.0237
G1 X152.775 Y73.669 E.02347
G1 X152.941 Y73.184 E.01948
G1 X153.251 Y72.644 E.02366
G1 X153.588 Y72.255 E.01956
G1 X154.046 Y71.901 E.022
G1 X154.568 Y71.633 E.0223
G1 X155.134 Y71.471 E.02238
G1 X155.547 Y71.441 E.01574
M204 S1000
G1 E-1.6 F2100
;WIPE_START
G1 F9600
G1 X155.607 Y71.437 E-.0125
G1 X155.674 Y71.432 E-.01396
G1 X156.266 Y71.498 E-.12379
G1 X156.854 Y71.694 E-.1288
G1 X157.356 Y71.988 E-.12095
;WIPE_END
G1 X122.982 Y72.118 Z.8 F12000
EXCLUDE_OBJECT_END NAME='board_offsets_x4_stl_(Instance_2)'
EXCLUDE_OBJECT_START NAME='board_offsets_x4_stl_(Instance_1)'
G1 X94.357 Y72.227
G1 Z.2 F720
G1 E2 F1500
M204 S600
G1 F1200
G1 X94.37 Y72.225 E.0005
G1 X94.808 Y72.273 E.01675
G1 X95.243 Y72.409 E.01732
G1 X95.643 Y72.637 E.0175
G1 X95.918 Y72.871 E.01372
G1 X96.152 Y73.147 E.01375
G1 X96.373 Y73.557 E.0177
G1 X96.485 Y73.898 E.01364
G1 X96.536 Y74.36 E.01767
G1 X96.514 Y74.716 E.01356
G1 X96.387 Y75.165 E.01773
G1 X96.219 Y75.506 E.01445
G1 X95.95 Y75.853 E.01669
G1 X95.601 Y76.147 E.01734
G1 X95.193 Y76.362 E.01753
G1 X94.853 Y76.472 E.01358
G1 X94.395 Y76.519 E.0175
G1 X93.936 Y76.468 E.01755
G1 X93.589 Y76.365 E.01376
G1 X93.238 Y76.187 E.01496
G1 X92.9 Y75.921 E.01635
G1 X92.654 Y75.639 E.01422
G1 X92.397 Y75.16 E.02066
G1 X92.29 Y74.819 E.01358
G1 X92.247 Y74.359 E.01756
G1 X92.301 Y73.902 E.01749
G1 X92.405 Y73.56 E.01359
G1 X92.63 Y73.152 E.01771
G1 X92.86 Y72.867 E.01392
G1 X93.186 Y72.595 E.01614
G1 X93.56 Y72.393 E.01616
G1 X93.976 Y72.267 E.01652
G1 X94.297 Y72.233 E.01227
M73 P4 R4
M204 S1000
G1 X94.36 Y71.835 F12000
M204 S600
;TYPE:Perimeter
;WIDTH:0.379306
G1 F1200
G1 X94.798 Y71.864 E.01228
;WIDTH:0.37556
G1 X95.283 Y71.994 E.01389
;WIDTH:0.373608
G1 X95.733 Y72.216 E.0138
;WIDTH:0.378006
G1 X96.134 Y72.52 E.01402
;WIDTH:0.381122
G1 X96.466 Y72.898 E.01415
G1 X96.713 Y73.335 E.01412
;WIDTH:0.38692
G1 X96.882 Y73.839 E.01521
;WIDTH:0.389214
G1 X96.937 Y74.379 E.01563
G1 X96.916 Y74.689 E.00895
;WIDTH:0.377322
G1 X96.803 Y75.179 E.01398
;WIDTH:0.378336
G1 X96.6 Y75.638 E.014
G1 X96.306 Y76.046 E.01403
;WIDTH:0.373612
G1 X95.94 Y76.39 E.01381
;WIDTH:0.372168
G1 X95.513 Y76.654 E.01374
;WIDTH:0.376804
G1 X95.044 Y76.833 E.01394
G1 X94.548 Y76.911 E.01394
;WIDTH:0.371892
G1 X94.046 Y76.891 E.01374
;WIDTH:0.376584
G1 X93.557 Y76.777 E.01393
;WIDTH:0.37878
G1 X93.101 Y76.567 E.01402
G1 X92.696 Y76.268 E.01406
;WIDTH:0.374096
G1 X92.358 Y75.897 E.01382
;WIDTH:0.372532
G1 X92.099 Y75.467 E.01376
;WIDTH:0.377104
G1 X91.926 Y74.996 E.01394
G1 X91.854 Y74.499 E.01395
;WIDTH:0.37223
G1 X91.88 Y73.997 E.01376
;WIDTH:0.37685
G1 X92 Y73.51 E.01393
G1 X92.219 Y73.058 E.01395
;WIDTH:0.377726
G1 X92.518 Y72.654 E.01399
;WIDTH:0.380676
G1 X92.892 Y72.318 E.01412
G1 X93.326 Y72.065 E.01411
;WIDTH:0.376158
G1 X93.802 Y71.902 E.01394
;WIDTH:0.379306
G1 X94.297 Y71.831 E.01399
G1 X94.3 Y71.831 E.00008
M204 S1000
G1 X94.364 Y71.437 F12000
M204 S600
;TYPE:External perimeter
;WIDTH:0.499999
G1 F1200
G1 X94.432 Y71.432 E.00259
G1 X95.024 Y71.498 E.02264
G1 X95.611 Y71.694 E.02352
G1 X96.144 Y72.006 E.02347
G1 X96.527 Y72.344 E.01941
G1 X96.849 Y72.75 E.01969
G1 X97.136 Y73.303 E.02368
G1 X97.28 Y73.797 E.01956
G1 X97.338 Y74.415 E.02359
G1 X97.285 Y74.925 E.01949
G1 X97.106 Y75.521 E.02365
G1 X96.851 Y75.992 E.02036
G1 X96.472 Y76.459 E.02286
G1 X95.99 Y76.848 E.02354
G1 X95.44 Y77.128 E.02346
G1 X94.946 Y77.267 E.0195
G1 X94.324 Y77.318 E.02372
G1 X93.712 Y77.24 E.02345
G1 X93.226 Y77.08 E.01945
G1 X92.746 Y76.813 E.02088
G1 X92.29 Y76.436 E.02249
G1 X91.905 Y75.951 E.02353
G1 X91.63 Y75.398 E.02347
G1 X91.495 Y74.903 E.0195
G1 X91.449 Y74.281 E.0237
G1 X91.532 Y73.669 E.02347
G1 X91.698 Y73.184 E.01948
G1 X92.008 Y72.644 E.02366
G1 X92.346 Y72.255 E.01959
G1 X92.804 Y71.901 E.022
G1 X93.325 Y71.633 E.02227
G1 X93.892 Y71.471 E.02241
G1 X94.304 Y71.441 E.0157
M204 S1000
G1 E-1.6 F2100
;WIPE_START
G1 F9600
G1 X94.364 Y71.437 E-.0125
G1 X94.432 Y71.432 E-.01417
G1 X95.024 Y71.498 E-.12379
G1 X95.611 Y71.694 E-.12861
G1 X96.113 Y71.988 E-.12093
;WIPE_END
G1 X95.132 Y106.348 Z.8 F12000
EXCLUDE_OBJECT_END NAME='board_offsets_x4_stl_(Instance_1)'
EXCLUDE_OBJECT_START NAME='board_offsets_x4_stl_(Instance_4)'
G1 X94.357 Y133.478
G1 Z.2 F720
G1 E2 F1500
M204 S600
G1 F1200
G1 X94.37 Y133.476 E.0005
G1 X94.808 Y133.524 E.01675
G1 X95.243 Y133.66 E.01732
G1 X95.643 Y133.888 E.0175
G1 X95.918 Y134.122 E.01372
G1 X96.152 Y134.398 E.01375
G1 X96.373 Y134.808 E.0177
M73 P5 R4
G1 X96.485 Y135.149 E.01364
G1 X96.536 Y135.611 E.01767
G1 X96.514 Y135.967 E.01356
G1 X96.387 Y136.416 E.01773
G1 X96.219 Y136.758 E.01448
G1 X95.95 Y137.104 E.01666
G1 X95.601 Y137.398 E.01734
G1 X95.193 Y137.614 E.01755
G1 X94.853 Y137.723 E.01357
G1 X94.395 Y137.771 E.0175
G1 X93.936 Y137.72 E.01755
G1 X93.589 Y137.617 E.01376
G1 X93.238 Y137.438 E.01497
G1 X92.9 Y137.172 E.01635
G1 X92.654 Y136.89 E.01422
G1 X92.397 Y136.411 E.02066
G1 X92.29 Y136.07 E.01358
G1 X92.247 Y135.611 E.01752
G1 X92.301 Y135.153 E.01753
G1 X92.405 Y134.811 E.01359
G1 X92.63 Y134.403 E.01771
G1 X92.86 Y134.118 E.01392
G1 X93.186 Y133.846 E.01614
G1 X93.56 Y133.644 E.01616
G1 X93.976 Y133.518 E.01652
G1 X94.297 Y133.484 E.01227
M204 S1000
G1 X94.36 Y133.086 F12000
M204 S600
;TYPE:Perimeter
;WIDTH:0.379306
G1 F1200
G1 X94.798 Y133.115 E.01228
;WIDTH:0.37556
G1 X95.283 Y133.245 E.01389
;WIDTH:0.373608
G1 X95.733 Y133.467 E.0138
;WIDTH:0.378006
G1 X96.134 Y133.771 E.01402
;WIDTH:0.381122
G1 X96.466 Y134.149 E.01415
G1 X96.713 Y134.586 E.01412
;WIDTH:0.38692
G1 X96.882 Y135.09 E.01521
;WIDTH:0.389214
G1 X96.937 Y135.631 E.01566
G1 X96.916 Y135.941 E.00895
;WIDTH:0.377322
G1 X96.803 Y136.43 E.01396
;WIDTH:0.378336
G1 X96.6 Y136.89 E.01402
G1 X96.306 Y137.298 E.01403
;WIDTH:0.373612
G1 X95.94 Y137.641 E.01379
;WIDTH:0.372168
G1 X95.513 Y137.905 E.01374
;WIDTH:0.376804
G1 X95.044 Y138.084 E.01394
G1 X94.548 Y138.162 E.01394
;WIDTH:0.371892
G1 X94.046 Y138.142 E.01374
;WIDTH:0.376584
G1 X93.557 Y138.028 E.01393
;WIDTH:0.37878
G1 X93.101 Y137.818 E.01402
G1 X92.696 Y137.519 E.01406
;WIDTH:0.374096
G1 X92.358 Y137.148 E.01382
;WIDTH:0.372532
G1 X92.099 Y136.719 E.01373
;WIDTH:0.377104
G1 X91.926 Y136.247 E.01397
G1 X91.854 Y135.75 E.01395
;WIDTH:0.37223
G1 X91.88 Y135.248 E.01376
;WIDTH:0.37685
G1 X92 Y134.761 E.01393
G1 X92.219 Y134.309 E.01395
;WIDTH:0.377726
G1 X92.518 Y133.905 E.01399
;WIDTH:0.380676
G1 X92.892 Y133.569 E.01412
G1 X93.326 Y133.317 E.01409
;WIDTH:0.376158
G1 X93.802 Y133.153 E.01395
;WIDTH:0.379306
G1 X94.297 Y133.082 E.01399
G1 X94.3 Y133.082 E.00008
M204 S1000
G1 X94.364 Y132.688 F12000
M204 S600
;TYPE:External perimeter
;WIDTH:0.499999
G1 F1200
G1 X94.432 Y132.683 E.00259
G1 X95.024 Y132.75 E.02264
G1 X95.611 Y132.945 E.02351
G1 X96.144 Y133.257 E.02347
G1 X96.527 Y133.595 E.01941
G1 X96.849 Y134.001 E.01969
G1 X97.136 Y134.554 E.02368
G1 X97.28 Y135.048 E.01956
G1 X97.338 Y135.666 E.02359
G1 X97.285 Y136.176 E.01949
G1 X97.106 Y136.772 E.02365
G1 X96.851 Y137.243 E.02036
G1 X96.472 Y137.71 E.02286
G1 X95.99 Y138.099 E.02354
G1 X95.44 Y138.379 E.02346
G1 X94.946 Y138.518 E.0195
G1 X94.324 Y138.569 E.02372
G1 X93.712 Y138.492 E.02344
G1 X93.226 Y138.331 E.01946
G1 X92.746 Y138.064 E.02088
G1 X92.29 Y137.687 E.02249
G1 X91.905 Y137.202 E.02353
G1 X91.63 Y136.649 E.02347
G1 X91.495 Y136.154 E.0195
G1 X91.449 Y135.532 E.0237
G1 X91.532 Y134.92 E.02347
G1 X91.698 Y134.435 E.01948
G1 X92.008 Y133.895 E.02366
G1 X92.346 Y133.506 E.01959
G1 X92.804 Y133.152 E.022
G1 X93.325 Y132.884 E.02227
G1 X93.892 Y132.723 E.0224
G1 X94.304 Y132.693 E.0157
M204 S1000
G1 E-1.6 F2100
;WIPE_START
G1 F9600
G1 X94.364 Y132.688 E-.01251
G1 X94.432 Y132.683 E-.01417
G1 X95.024 Y132.75 E-.12381
G1 X95.611 Y132.945 E-.12854
G1 X96.113 Y133.239 E-.12097
;WIPE_END
G1 X130.487 Y133.377 Z.8 F12000
EXCLUDE_OBJECT_END NAME='board_offsets_x4_stl_(Instance_4)'
EXCLUDE_OBJECT_START NAME='board_offsets_x4_stl_(Instance_3)'
G1 X155.6 Y133.478
M73 P6 R4
G1 Z.2 F720
G1 E2 F1500
M204 S600
G1 F1200
G1 X155.613 Y133.476 E.0005
G1 X156.051 Y133.524 E.01675
G1 X156.485 Y133.66 E.01729
G1 X156.885 Y133.888 E.0175
G1 X157.161 Y134.122 E.01375
G1 X157.394 Y134.398 E.01373
G1 X157.616 Y134.808 E.01772
G1 X157.728 Y135.149 E.01364
G1 X157.779 Y135.611 E.01767
G1 X157.756 Y135.967 E.01356
G1 X157.629 Y136.416 E.01773
G1 X157.461 Y136.758 E.01448
G1 X157.192 Y137.104 E.01666
G1 X156.843 Y137.398 E.01734
G1 X156.436 Y137.614 E.01751
G1 X156.096 Y137.723 E.01357
G1 X155.637 Y137.771 E.01754
G1 X155.179 Y137.72 E.01751
G1 X154.832 Y137.617 E.01376
G1 X154.48 Y137.438 E.01501
G1 X154.143 Y137.172 E.01632
G1 X153.897 Y136.89 E.01422
G1 X153.64 Y136.411 E.02066
G1 X153.533 Y136.07 E.01358
G1 X153.489 Y135.611 E.01752
G1 X153.544 Y135.153 E.01753
G1 X153.647 Y134.811 E.01357
G1 X153.872 Y134.403 E.01771
G1 X154.103 Y134.118 E.01394
G1 X154.429 Y133.846 E.01614
G1 X154.802 Y133.644 E.01612
G1 X155.218 Y133.518 E.01652
G1 X155.54 Y133.484 E.01231
M204 S1000
G1 X155.603 Y133.086 F12000
M204 S600
;TYPE:Perimeter
;WIDTH:0.379306
G1 F1200
G1 X156.041 Y133.116 E.01228
;WIDTH:0.37556
