; generated by PrusaSlicer 2.9.3 on 2025-10-13 at 21:10:46 UTC


;
;

;
;

;
;

;
;

;
;
; 

; external perimeters extrusion width = 0.45mm
; perimeters extrusion width = 0.45mm
; infill extrusion width = 0.45mm
; solid infill extrusion width = 0.45mm
; top infill extrusion width = 0.42mm
; first layer extrusion width = 0.50mm

M73 P0 R16

EXCLUDE_OBJECT_DEFINE NAME='led_retainer_stl' CENTER=124.995,105.004 POLYGON=[[167.314,97.516],[168.220,97.759],[168.763,98.073],[169.229,98.493],[169.741,99.280],[169.934,99.876],[170.000,100.500],[170.000,109.500],[169.934,110.124],[169.598,111.000],[169.007,111.729],[168.220,112.241],[167.314,112.484],[83.000,112.500],[82.073,112.353],[81.500,112.098],[80.993,111.729],[80.573,111.263],[80.259,110.720],[80.016,109.814],[80.000,100.500],[80.066,99.876],[80.402,99.000],[80.993,98.271],[81.780,97.759],[82.686,97.516]]

;TYPE:Custom
G90 ; use absolute coordinates
M83 ; extruder relative mode
M104 S170 ; preheat hotend to 170
M140 S65 ; set bed temp
M190 S65 ; wait for bed temp
G28 ; home all
;G29 ; mesh bed leveling
BED_MESH_CALIBRATE
G0 X0 Z0.6 Y-3.0 F1000.0 ; go outside print area for intro line
M104 S215 ; set hotend temp
M109 S215 ; wait for hotend temp
;M104 S0 ; Stops PS/SS from sending temp waits separately
;M140 S0
;PRINT_START BED=65 HOTEND=215
G92 E0.0
G1 X60.0 E9.0 F1000.0 ; intro line
G1 X100.0 E12.5 F1000.0 ; intro line
G92 E0.0
SKEW_PROFILE LOAD=CaliFlower
G21 ; set units to millimeters
G90 ; use absolute coordinates
M83 ; use relative distances for extrusion
M900 K0.05 ; Filament gcode



M142 S36 ; set heatbreak target temp
M107
;LAYER_CHANGE
;Z:0.2
;HEIGHT:0.2
G1 E-2 F2100
G1 Z.8 F720
EXCLUDE_OBJECT_START NAME='led_retainer_stl'
G1 X127.958 Y102.055 F12000
G1 Z.2 F720
G1 E2 F1500
M204 S600
;TYPE:Perimeter
;WIDTH:0.499999
G1 F1200
G1 X128.236 Y102.383 E.01634
G1 X128.46 Y102.69 E.01444
G1 X128.72 Y103.24 E.02312
G1 X128.871 Y103.625 E.01572
G1 X128.999 Y104.316 E.02671
G1 X129.028 Y104.921 E.02302
G1 X128.956 Y105.539 E.02365
G1 X128.856 Y105.939 E.01567
G1 X128.629 Y106.517 E.0236
G1 X128.429 Y106.878 E.01569
G1 X128.061 Y107.38 E.02366
G1 X127.791 Y107.665 E.01492
G1 X127.353 Y108.028 E.02162
G1 X127.001 Y108.249 E.0158
G1 X126.387 Y108.531 E.02568
G1 X126.007 Y108.651 E.01515
G1 X125.449 Y108.753 E.02156
G1 X125.065 Y108.776 E.01462
G1 X124.497 Y108.742 E.02163
G1 X124.115 Y108.672 E.01476
G1 X123.521 Y108.485 E.02367
G1 X123.147 Y108.312 E.01566
G1 X122.621 Y107.981 E.02362
G1 X122.304 Y107.718 E.01565
G1 X121.88 Y107.263 E.02364
G1 X121.649 Y106.944 E.01497
G1 X121.375 Y106.446 E.0216
G1 X121.2 Y105.974 E.01913
G1 X121.07 Y105.481 E.01938
G1 X121.017 Y104.996 E.01854
G1 X121.017 Y104.452 E.02068
G1 X121.07 Y104.043 E.01567
G1 X121.229 Y103.441 E.02366
G1 X121.375 Y103.078 E.01487
G1 X121.649 Y102.58 E.0216
G1 X121.88 Y102.261 E.01497
G1 X122.304 Y101.806 E.02364
G1 X122.621 Y101.543 E.01565
G1 X123.147 Y101.212 E.02362
G1 X123.503 Y101.044 E.01496
G1 X124.044 Y100.868 E.02162
G1 X124.427 Y100.793 E.01483
G1 X125.048 Y100.749 E.02366
G1 X125.46 Y100.773 E.01569
G1 X126.069 Y100.888 E.02355
G1 X126.461 Y101.017 E.01568
G1 X127.023 Y101.285 E.02366
G1 X127.353 Y101.496 E.01489
G1 X127.791 Y101.859 E.02162
G1 X127.919 Y102.009 E.00749
M204 S1000
G1 X127.626 Y102.363 F12000
M204 S600
G1 F1200
G1 X127.868 Y102.654 E.01438
G1 X128.203 Y103.175 E.02354
G1 X128.43 Y103.753 E.0236
G1 X128.545 Y104.374 E.024
G1 X128.574 Y104.868 E.01881
G1 X128.502 Y105.486 E.02365
G1 X128.43 Y105.772 E.01121
G1 X128.203 Y106.349 E.02357
G1 X128.061 Y106.607 E.01119
G1 X127.692 Y107.109 E.02368
G1 X127.062 Y107.676 E.03221
G1 X126.81 Y107.834 E.0113
G1 X126.196 Y108.116 E.02568
G1 X125.367 Y108.304 E.03231
G1 X124.525 Y108.286 E.03201
G1 X123.658 Y108.049 E.03416
G1 X123.391 Y107.926 E.01117
G1 X122.865 Y107.594 E.02364
G1 X122.638 Y107.407 E.01118
G1 X122.214 Y106.951 E.02367
G1 X122.05 Y106.724 E.01064
G1 X121.775 Y106.225 E.02165
G1 X121.642 Y105.857 E.01487
G1 X121.512 Y105.364 E.01938
G1 X121.474 Y104.897 E.01781
G1 X121.497 Y104.225 E.02556
G1 X121.671 Y103.558 E.0262
G1 X121.958 Y102.967 E.02497
G1 X122.214 Y102.573 E.01786
G1 X122.638 Y102.118 E.02364
G1 X122.865 Y101.93 E.0112
G1 X123.391 Y101.599 E.02362
G1 X124.186 Y101.302 E.03225
G1 X124.46 Y101.249 E.01061
G1 X125.081 Y101.205 E.02366
G1 X125.375 Y101.222 E.01119
G1 X125.984 Y101.338 E.02356
G1 X126.264 Y101.429 E.01119
G1 X126.826 Y101.698 E.02368
G1 X127.5 Y102.211 E.03219
G1 X127.588 Y102.317 E.00524
M204 S1000
G1 X127.293 Y102.672 F12000
M204 S600
G1 F1200
G1 X127.692 Y103.187 E.02476
G1 X128.005 Y103.92 E.03029
G1 X128.092 Y104.432 E.01974
G1 X128.12 Y104.815 E.0146
G1 X128.048 Y105.433 E.02365
G1 X127.79 Y106.15 E.02896
G1 X127.692 Y106.337 E.00802
G1 X127.324 Y106.839 E.02366
G1 X126.77 Y107.324 E.02798
G1 X126.005 Y107.701 E.03241
G1 X125.285 Y107.854 E.02798
G1 X124.552 Y107.83 E.02787
G1 X123.795 Y107.613 E.02993
G1 X123.109 Y107.208 E.03028
G1 X122.549 Y106.64 E.03032
G1 X122.175 Y106.005 E.02801
G1 X121.954 Y105.248 E.02997
G1 X121.931 Y104.452 E.03027
M73 P1 R16
G1 X122.113 Y103.675 E.03033
G1 X122.358 Y103.187 E.02075
G1 X122.549 Y102.884 E.01361
G1 X122.973 Y102.429 E.02364
G1 X123.634 Y101.985 E.03026
G1 X124.328 Y101.737 E.02801
G1 X125.113 Y101.661 E.02997
G1 X125.899 Y101.787 E.03025
G1 X126.629 Y102.11 E.03034
G1 X127.209 Y102.563 E.02797
G1 X127.256 Y102.625 E.00296
M204 S1000
G1 X126.964 Y102.977 F12000
M204 S600
;TYPE:External perimeter
G1 F1200
G1 X127.324 Y103.458 E.02283
G1 X127.58 Y104.087 E.02581
G1 X127.666 Y104.706 E.02375
G1 X127.604 Y105.292 E.0224
G1 X127.58 Y105.437 E.00559
G1 X127.352 Y106.015 E.02361
G1 X126.973 Y106.545 E.02476
G1 X126.479 Y106.972 E.02482
G1 X125.814 Y107.285 E.02793
G1 X125.203 Y107.404 E.02366
G1 X124.58 Y107.373 E.02371
G1 X123.932 Y107.177 E.02573
G1 X123.352 Y106.821 E.02586
G1 X122.883 Y106.328 E.02586
G1 X122.576 Y105.784 E.02374
G1 X122.396 Y105.131 E.02574
G1 X122.388 Y104.452 E.02581
G1 X122.555 Y103.792 E.02587
G1 X122.85 Y103.241 E.02375
G1 X123.307 Y102.741 E.02574
G1 X123.878 Y102.372 E.02584
G1 X124.47 Y102.171 E.02376
G1 X125.145 Y102.117 E.02574
G1 X125.814 Y102.236 E.02583
G1 X126.432 Y102.522 E.02588
G1 X126.917 Y102.915 E.02372
G1 X126.928 Y102.929 E.00068
M204 S1000
G1 E-1.6 F2100
;WIPE_START
G1 F9600
G1 X126.964 Y102.977 E-.01247
G1 X127.324 Y103.458 E-.12485
G1 X127.58 Y104.087 E-.14113
G1 X127.661 Y104.666 E-.12155
;WIPE_END
G1 X108.912 Y99.929 Z.538 F12000
G1 Z.2 F720
G1 E2 F1500
M204 S600
;TYPE:Perimeter
G1 F1200
G1 X109.138 Y99.811 E.00969
;WIDTH:0.494868
G1 X109.335 Y99.799 E.00742
;WIDTH:0.484595
G1 X116.302 Y99.799 E.25587
;WIDTH:0.499999
G1 X116.786 Y99.899 E.01878
G1 X117.15 Y100.168 E.0172
G1 X117.795 Y100.881 E.03654
G1 X118.386 Y101.791 E.04124
G1 X118.74 Y102.611 E.03395
G1 X118.87 Y102.973 E.01462
G1 X119.061 Y103.839 E.0337
G1 X119.127 Y105.034 E.04549
G1 X119.002 Y106.025 E.03796
G1 X118.865 Y106.518 E.01945
G1 X118.695 Y107.063 E.0217
G1 X118.215 Y108.034 E.04117
G1 X117.576 Y108.908 E.04115
G1 X117.12 Y109.389 E.02519
G1 X116.763 Y109.636 E.0165
G1 X116.302 Y109.733 E.0179
G1 X109.335 Y109.733 E.26479
G1 X108.851 Y109.626 E.01884
G1 X108.487 Y109.356 E.01722
G1 X107.843 Y108.643 E.03652
G1 X107.251 Y107.733 E.04126
G1 X106.937 Y107.01 E.02996
G1 X106.767 Y106.551 E.0186
G1 X106.576 Y105.685 E.0337
G1 X106.527 Y104.955 E.02781
G1 X106.52 Y104.378 E.02193
G1 X106.636 Y103.499 E.0337
G1 X106.943 Y102.461 E.04114
G1 X107.422 Y101.49 E.04115
G1 X108.061 Y100.616 E.04115
G1 X108.518 Y100.135 E.02522
G1 X108.859 Y99.957 E.01462
M204 S1000
G1 X109.081 Y100.33 F12000
M204 S600
G1 F1200
G1 X109.217 Y100.259 E.00583
G1 X109.335 Y100.248 E.0045
G1 X116.303 Y100.248 E.26483
G1 X116.593 Y100.313 E.0113
G1 X116.811 Y100.474 E.0103
G1 X117.455 Y101.188 E.03654
G1 X117.999 Y102.034 E.03823
G1 X118.424 Y103.072 E.04263
G1 X118.615 Y103.938 E.0337
G1 X118.667 Y105.067 E.04295
G1 X118.548 Y105.966 E.03447
G1 X118.259 Y106.925 E.03807
G1 X117.808 Y107.825 E.03826
G1 X117.212 Y108.633 E.03816
G1 X116.793 Y109.069 E.02298
G1 X116.579 Y109.218 E.00991
G1 X116.302 Y109.276 E.01076
G1 X109.335 Y109.276 E.26479
G1 X109.045 Y109.211 E.0113
G1 X108.826 Y109.05 E.01033
G1 X108.182 Y108.337 E.03652
G1 X107.638 Y107.49 E.03826
G1 X107.213 Y106.453 E.04259
G1 X107.022 Y105.586 E.03374
G1 X106.984 Y104.935 E.02478
G1 X106.973 Y104.438 E.01889
G1 X107.089 Y103.559 E.0337
G1 X107.379 Y102.597 E.03819
G1 X107.829 Y101.699 E.03818
G1 X108.426 Y100.891 E.03818
G1 X108.845 Y100.455 E.02298
G1 X109.028 Y100.358 E.00787
M204 S1000
G1 X109.253 Y100.74 F12000
M204 S600
;TYPE:External perimeter
G1 F1200
G1 X109.335 Y100.705 E.00339
G1 X116.302 Y100.705 E.26479
G1 X116.399 Y100.727 E.00378
G1 X117.116 Y101.494 E.0399
G1 X117.612 Y102.277 E.03523
G1 X117.978 Y103.17 E.03668
G1 X118.169 Y104.036 E.0337
G1 X118.211 Y105.026 E.03766
G1 X118.095 Y105.906 E.03373
G1 X117.823 Y106.789 E.03512
G1 X117.402 Y107.616 E.03527
G1 X116.847 Y108.357 E.03519
G1 X116.466 Y108.75 E.0208
G1 X116.302 Y108.819 E.00676
G1 X109.335 Y108.819 E.26479
G1 X109.165 Y108.743 E.00708
G1 X108.521 Y108.03 E.03652
G1 X108.026 Y107.247 E.03521
G1 X107.66 Y106.354 E.03668
G1 X107.469 Y105.488 E.0337
G1 X107.426 Y104.498 E.03766
G1 X107.542 Y103.618 E.03373
G1 X107.815 Y102.733 E.0352
G1 X108.235 Y101.908 E.03518
G1 X108.791 Y101.167 E.03521
G1 X109.172 Y100.774 E.0208
G1 X109.198 Y100.763 E.00107
M204 S1000
G1 E-1.6 F2100
;WIPE_START
G1 F9600
G1 X109.253 Y100.74 E-.01239
G1 X109.335 Y100.705 E-.01853
G1 X111.111 Y100.705 E-.36908
;WIPE_END
G1 X98.435 Y108.116 Z.456 F12000
G1 Z.2 F720
G1 E2 F1500
M204 S600
;TYPE:Perimeter
G1 F1200
G1 X98.221 Y107.981 E.00962
G1 X97.904 Y107.718 E.01565
G1 X97.402 Y107.173 E.02816
G1 X96.975 Y106.446 E.03204
G1 X96.8 Y105.974 E.01913
G1 X96.67 Y105.481 E.01938
G1 X96.617 Y104.996 E.01854
G1 X96.617 Y104.452 E.02068
G1 X96.67 Y104.043 E.01567
G1 X96.829 Y103.441 E.02366
G1 X96.975 Y103.078 E.01487
G1 X97.249 Y102.58 E.0216
G1 X97.48 Y102.261 E.01497
G1 X97.904 Y101.806 E.02364
G1 X98.221 Y101.543 E.01565
G1 X98.747 Y101.212 E.02362
G1 X99.103 Y101.044 E.01496
G1 X99.644 Y100.868 E.02162
G1 X100.027 Y100.793 E.01483
G1 X100.648 Y100.749 E.02366
G1 X101.06 Y100.773 E.01569
G1 X101.669 Y100.888 E.02355
G1 X102.061 Y101.017 E.01568
G1 X102.623 Y101.285 E.02366
G1 X102.953 Y101.496 E.01489
G1 X103.391 Y101.859 E.02162
G1 X103.836 Y102.383 E.02613
G1 X104.06 Y102.69 E.01444
G1 X104.32 Y103.24 E.02312
G1 X104.471 Y103.625 E.01572
G1 X104.599 Y104.316 E.02671
G1 X104.628 Y104.921 E.02302
G1 X104.556 Y105.539 E.02365
G1 X104.456 Y105.939 E.01567
G1 X104.229 Y106.517 E.0236
G1 X104.029 Y106.878 E.01569
G1 X103.661 Y107.38 E.02366
G1 X103.391 Y107.665 E.01492
G1 X102.953 Y108.028 E.02162
G1 X102.601 Y108.249 E.0158
G1 X101.987 Y108.531 E.02568
G1 X101.607 Y108.651 E.01515
G1 X101.049 Y108.753 E.02156
G1 X100.665 Y108.776 E.01462
G1 X100.097 Y108.742 E.02163
G1 X99.715 Y108.672 E.01476
G1 X99.121 Y108.485 E.02367
G1 X98.747 Y108.312 E.01566
G1 X98.486 Y108.148 E.01172
M204 S1000
G1 X98.682 Y107.731 F12000
M204 S600
G1 F1200
G1 X98.465 Y107.594 E.00975
G1 X98.238 Y107.407 E.01118
G1 X97.759 Y106.888 E.02684
G1 X97.375 Y106.225 E.02912
G1 X97.242 Y105.857 E.01487
G1 X97.112 Y105.364 E.01938
G1 X97.074 Y104.897 E.01781
G1 X97.097 Y104.225 E.02556
G1 X97.271 Y103.558 E.0262
G1 X97.558 Y102.967 E.02497
G1 X97.814 Y102.573 E.01786
G1 X98.238 Y102.118 E.02364
G1 X98.465 Y101.93 E.0112
G1 X98.991 Y101.599 E.02362
G1 X99.786 Y101.302 E.03225
G1 X100.06 Y101.249 E.01061
G1 X100.681 Y101.205 E.02366
G1 X100.975 Y101.222 E.01119
G1 X101.584 Y101.338 E.02356
G1 X101.864 Y101.429 E.01119
G1 X102.426 Y101.698 E.02368
G1 X103.1 Y102.211 E.03219
G1 X103.467 Y102.653 E.02183
G1 X103.803 Y103.175 E.02359
G1 X104.03 Y103.753 E.0236
G1 X104.145 Y104.374 E.024
G1 X104.174 Y104.868 E.01881
G1 X104.102 Y105.486 E.02365
G1 X104.03 Y105.772 E.01121
G1 X103.803 Y106.349 E.02357
G1 X103.661 Y106.607 E.01119
G1 X103.292 Y107.109 E.02368
G1 X102.662 Y107.676 E.03221
G1 X102.41 Y107.834 E.0113
G1 X101.796 Y108.116 E.02568
G1 X100.967 Y108.304 E.03231
G1 X100.125 Y108.286 E.03201
G1 X99.258 Y108.049 E.03416
G1 X98.991 Y107.926 E.01117
G1 X98.733 Y107.763 E.0116
M204 S1000
G1 X98.933 Y107.34 F12000
M204 S600
G1 F1200
G1 X98.709 Y107.208 E.00988
G1 X98.116 Y106.602 E.03222
G1 X97.775 Y106.005 E.02613
M73 P2 R16
G1 X97.554 Y105.248 E.02997
G1 X97.531 Y104.452 E.03027
G1 X97.713 Y103.675 E.03033
G1 X97.958 Y103.187 E.02075
G1 X98.149 Y102.884 E.01361
G1 X98.573 Y102.429 E.02364
G1 X99.234 Y101.985 E.03026
G1 X99.928 Y101.737 E.02801
G1 X100.713 Y101.661 E.02997
G1 X101.499 Y101.787 E.03025
G1 X102.229 Y102.11 E.03034
G1 X102.809 Y102.563 E.02797
G1 X103.292 Y103.187 E.02999
G1 X103.605 Y103.92 E.03029
G1 X103.692 Y104.432 E.01974
G1 X103.72 Y104.815 E.0146
G1 X103.648 Y105.433 E.02365
G1 X103.39 Y106.151 E.029
G1 X103.292 Y106.337 E.00799
G1 X102.924 Y106.839 E.02366
G1 X102.37 Y107.324 E.02798
G1 X101.605 Y107.701 E.03241
G1 X100.885 Y107.854 E.02798
G1 X100.152 Y107.83 E.02787
G1 X99.395 Y107.613 E.02993
G1 X98.985 Y107.371 E.01809
M204 S1000
G1 X99.178 Y106.96 F12000
M204 S600
;TYPE:External perimeter
G1 F1200
G1 X98.952 Y106.821 E.01008
G1 X98.472 Y106.316 E.02648
G1 X98.176 Y105.784 E.02314
G1 X97.996 Y105.131 E.02574
G1 X97.988 Y104.452 E.02581
G1 X98.155 Y103.792 E.02587
G1 X98.45 Y103.241 E.02375
G1 X98.907 Y102.741 E.02574
G1 X99.478 Y102.372 E.02584
G1 X100.07 Y102.171 E.02376
G1 X100.745 Y102.117 E.02574
G1 X101.414 Y102.236 E.02583
G1 X102.032 Y102.522 E.02588
G1 X102.517 Y102.915 E.02372
G1 X102.924 Y103.458 E.02579
G1 X103.18 Y104.087 E.02581
G1 X103.266 Y104.706 E.02375
G1 X103.18 Y105.437 E.02797
G1 X102.953 Y106.015 E.0236
G1 X102.573 Y106.545 E.02479
G1 X102.079 Y106.972 E.02482
G1 X101.414 Y107.285 E.02793
G1 X100.803 Y107.404 E.02366
G1 X100.18 Y107.373 E.02371
G1 X99.532 Y107.177 E.02573
G1 X99.229 Y106.991 E.01351
M204 S1000
G1 E-1.6 F2100
;WIPE_START
G1 F9600
G1 X99.178 Y106.96 E-.0124
G1 X98.952 Y106.821 E-.05514
G1 X98.472 Y106.316 E-.14479
G1 X98.176 Y105.784 E-.12652
G1 X98.098 Y105.5 E-.06115
;WIPE_END
G1 X84.499 Y109.636 Z.448 F12000
G1 Z.2 F720
G1 E2 F1500
M204 S600
;TYPE:Perimeter
G1 F1200
G1 X84.451 Y109.626 E.00186
G1 X84.087 Y109.356 E.01722
G1 X83.443 Y108.643 E.03652
G1 X83.323 Y108.485 E.00754
G1 X82.851 Y107.733 E.03374
G1 X82.425 Y106.738 E.04114
G1 X82.317 Y106.208 E.02056
;WIDTH:0.467234
G1 X82.208 Y105.678 E.01909
;WIDTH:0.434468
G1 X82.164 Y104.575 E.03594
;WIDTH:0.426523
G1 X82.21 Y104.038 E.01719
;WIDTH:0.458095
G1 X82.257 Y103.502 E.01857
;WIDTH:0.499999
G1 X82.543 Y102.461 E.04103
G1 X83.022 Y101.49 E.04115
G1 X83.407 Y100.953 E.02511
G1 X83.756 Y100.506 E.02155
G1 X84.118 Y100.135 E.0197
G1 X84.738 Y99.811 E.02659
;WIDTH:0.495222
G1 X84.935 Y99.799 E.00742
;WIDTH:0.484946
G1 X91.902 Y99.799 E.25607
;WIDTH:0.499999
G1 X92.386 Y99.899 E.01878
G1 X92.75 Y100.168 E.0172
G1 X93.395 Y100.881 E.03654
G1 X93.986 Y101.791 E.04124
G1 X94.34 Y102.611 E.03395
G1 X94.47 Y102.973 E.01462
G1 X94.661 Y103.839 E.0337
G1 X94.727 Y105.034 E.04549
G1 X94.602 Y106.025 E.03796
G1 X94.295 Y107.063 E.04114
G1 X93.815 Y108.034 E.04117
G1 X93.176 Y108.908 E.04115
G1 X92.72 Y109.389 E.02519
G1 X92.363 Y109.636 E.0165
G1 X91.902 Y109.733 E.0179
G1 X84.935 Y109.733 E.26479
G1 X84.557 Y109.649 E.01472
M204 S1000
G1 X84.674 Y109.218 F12000
M204 S600
G1 F1200
G1 X84.645 Y109.211 E.00113
G1 X84.426 Y109.05 E.01033
G1 X83.71 Y108.242 E.04103
G1 X83.238 Y107.49 E.03374
G1 X82.848 Y106.565 E.03815
G1 X82.622 Y105.586 E.03819
G1 X82.568 Y104.557 E.03916
G1 X82.689 Y103.559 E.03821
G1 X82.979 Y102.597 E.03819
G1 X83.429 Y101.699 E.03818
G1 X84.083 Y100.825 E.04149
G1 X84.445 Y100.455 E.01967
G1 X84.817 Y100.259 E.01598
G1 X84.935 Y100.248 E.0045
G1 X91.903 Y100.248 E.26483
G1 X92.193 Y100.313 E.0113
G1 X92.411 Y100.474 E.0103
G1 X93.055 Y101.188 E.03654
G1 X93.599 Y102.034 E.03823
G1 X94.024 Y103.072 E.04263
G1 X94.215 Y103.938 E.0337
G1 X94.267 Y105.067 E.04295
G1 X94.148 Y105.966 E.03447
