; generated by PrusaSlicer 2.9.3 on 2025-10-13 at 21:10:05 UTC


;
;

;
;

;
;

;
;

;
;
; 

; external perimeters extrusion width = 0.45mm
; perimeters extrusion width = 0.45mm
; infill extrusion width = 0.45mm
; solid infill extrusion width = 0.45mm
; top infill extrusion width = 0.42mm
; first layer extrusion width = 0.50mm

M73 P0 R11

EXCLUDE_OBJECT_DEFINE NAME='pulley_tool_stl' CENTER=124.999,105.002 POLYGON=[[144.308,95.275],[144.846,95.401],[145.329,95.670],[145.720,96.061],[146.047,96.719],[146.123,97.266],[146.115,99.185],[145.988,99.722],[145.720,100.205],[145.176,100.700],[144.491,100.966],[140.455,101.037],[139.660,101.231],[138.922,101.582],[138.077,102.270],[137.448,103.160],[137.084,104.186],[137.009,105.273],[137.231,106.340],[137.732,107.307],[138.476,108.103],[139.160,108.552],[139.921,108.852],[140.727,108.991],[144.491,109.034],[145.015,109.210],[145.601,109.653],[145.914,110.109],[146.089,110.633],[146.115,112.919],[145.988,113.456],[145.720,113.939],[145.329,114.330],[145.015,114.524],[144.671,114.658],[144.123,114.734],[105.877,114.734],[105.329,114.658],[104.824,114.434],[104.398,114.081],[104.086,113.625],[103.885,112.919],[103.885,110.815],[104.086,110.109],[104.529,109.522],[104.985,109.210],[105.509,109.034],[109.273,108.991],[110.079,108.852],[110.840,108.552],[111.730,107.923],[112.418,107.078],[112.852,106.079],[112.991,105.273],[112.916,104.186],[112.552,103.160],[111.923,102.270],[111.078,101.582],[110.340,101.231],[109.545,101.037],[105.509,100.966],[104.824,100.700],[104.280,100.205],[104.012,99.722],[103.885,99.185],[103.911,96.899],[104.086,96.375],[104.280,96.061],[104.671,95.670],[104.985,95.476],[105.329,95.342],[105.877,95.266]]

;TYPE:Custom
G90 ; use absolute coordinates
M83 ; extruder relative mode
M104 S170 ; preheat hotend to 170
M140 S65 ; set bed temp
M190 S65 ; wait for bed temp
G28 ; home all
;G29 ; mesh bed leveling
BED_MESH_CALIBRATE
G0 X0 Z0.6 Y-3.0 F1000.0 ; go outside print area for intro line
M104 S215 ; set hotend temp
M109 S215 ; wait for hotend temp
;M104 S0 ; Stops PS/SS from sending temp waits separately
;M140 S0
;PRINT_START BED=65 HOTEND=215
G92 E0.0
G1 X60.0 E9.0 F1000.0 ; intro line
G1 X100.0 E12.5 F1000.0 ; intro line
G92 E0.0
SKEW_PROFILE LOAD=CaliFlower
G21 ; set units to millimeters
G90 ; use absolute coordinates
M83 ; use relative distances for extrusion
M900 K0.05 ; Filament gcode



M142 S36 ; set heatbreak target temp
M107
;LAYER_CHANGE
;Z:0.2
;HEIGHT:0.2
G1 E-2 F2100
G1 Z.8 F720
EXCLUDE_OBJECT_START NAME='pulley_tool_stl'
G1 X134.689 Y104.943 F12000
G1 Z.2 F720
M73 P1 R11
G1 E2 F1500
M204 S600
;TYPE:Perimeter
;WIDTH:0.499999
G1 F1200
G1 X134.682 Y105.102 E.00605
G1 X134.746 Y105.904 E.03058
G1 X134.912 Y106.692 E.03061
G1 X135.177 Y107.452 E.03059
G1 X135.53 Y108.163 E.03017
G1 X135.973 Y108.823 E.03021
G1 X136.751 Y109.677 E.04391
G1 X137.374 Y110.175 E.03031
G1 X138.052 Y110.585 E.03011
G1 X139.167 Y111.044 E.04583
G1 X140.298 Y111.28 E.04391
G1 X140.992 Y111.321 E.02642
G1 X143.794 Y111.328 E.10649
G1 X143.794 Y112.413 E.04124
G1 X106.2 Y112.413 E1.42881
G1 X106.204 Y111.328 E.04124
G1 X109.008 Y111.321 E.10657
G1 X109.897 Y111.255 E.03388
G1 X110.671 Y111.09 E.03008
G1 X111.798 Y110.662 E.04582
G1 X112.785 Y110.06 E.04394
G1 X113.398 Y109.538 E.0306
G1 X113.938 Y108.942 E.03057
G1 X114.399 Y108.282 E.0306
G1 X114.769 Y107.578 E.03023
G1 X115.032 Y106.882 E.02828
G1 X115.222 Y106.1 E.03059
G1 X115.299 Y105.504 E.02284
G1 X115.312 Y105 E.01916
G1 X115.299 Y104.496 E.01916
G1 X115.184 Y103.699 E.0306
G1 X114.971 Y102.933 E.03022
G1 X114.662 Y102.202 E.03016
G1 X114.06 Y101.215 E.04394
G1 X113.538 Y100.602 E.0306
G1 X112.942 Y100.062 E.03057
G1 X112.29 Y99.605 E.03026
G1 X111.587 Y99.239 E.03012
G1 X110.444 Y98.852 E.04586
G1 X109.555 Y98.709 E.03422
G1 X109.007 Y98.679 E.02086
G1 X106.206 Y98.672 E.10646
G1 X106.206 Y97.587 E.04124
G1 X143.801 Y97.588 E1.42885
G1 X143.796 Y98.67 E.04112
G1 X140.991 Y98.679 E.10661
G1 X140.103 Y98.745 E.03384
G1 X139.329 Y98.91 E.03008
G1 X138.202 Y99.338 E.04582
G1 X137.215 Y99.94 E.04394
G1 X136.602 Y100.462 E.0306
G1 X136.037 Y101.093 E.03219
G1 X135.436 Y102.006 E.04154
M73 P2 R11
G1 X135.1 Y102.737 E.03058
G1 X134.86 Y103.506 E.03062
G1 X134.72 Y104.298 E.03057
G1 X134.692 Y104.883 E.02226
M204 S1000
G1 X135.144 Y104.957 F12000
M204 S600
G1 F1200
G1 X135.138 Y105.073 E.00441
G1 X135.195 Y105.817 E.02836
G1 X135.346 Y106.548 E.02837
G1 X135.589 Y107.255 E.02841
G1 X135.915 Y107.917 E.02805
G1 X136.316 Y108.521 E.02755
G1 X137.042 Y109.325 E.04117
G1 X137.619 Y109.79 E.02816
G1 X138.236 Y110.167 E.02748
G1 X139.268 Y110.598 E.04251
G1 X140.327 Y110.824 E.04115
G1 X140.993 Y110.864 E.02536
G1 X143.254 Y110.87 E.08593
G1 X144.175 Y110.893 E.03501
G1 X144.251 Y111.021 E.00566
G1 X144.251 Y112.663 E.06241
G1 X144.222 Y112.815 E.00588
G1 X144.056 Y112.87 E.00665
G1 X105.961 Y112.87 E1.44785
G1 X105.794 Y112.82 E.00663
G1 X105.742 Y112.69 E.00532
G1 X105.774 Y110.934 E.06675
G1 X105.895 Y110.872 E.00517
G1 X109.007 Y110.864 E.11828
G1 X109.812 Y110.806 E.03067
G1 X110.519 Y110.659 E.02745
G1 X111.567 Y110.268 E.04251
G1 X112.494 Y109.707 E.04118
G1 X113.064 Y109.225 E.02837
G1 X113.568 Y108.674 E.02838
G1 X113.998 Y108.064 E.02837
G1 X114.344 Y107.41 E.02812
G1 X114.59 Y106.767 E.02617
G1 X114.769 Y106.042 E.02838
G1 X114.855 Y105.3 E.02839
G1 X114.845 Y104.554 E.02836
G1 X114.741 Y103.815 E.02836
G1 X114.546 Y103.101 E.02813
G1 X114.268 Y102.433 E.0275
G1 X113.707 Y101.506 E.04118
G1 X113.225 Y100.936 E.02837
G1 X112.674 Y100.432 E.02838
G1 X112.069 Y100.005 E.02814
G1 X111.429 Y99.668 E.02749
G1 X110.372 Y99.303 E.0425
G1 X109.482 Y99.16 E.03426
G1 X109.006 Y99.136 E.01811
G1 X106.746 Y99.13 E.08589
G1 X105.825 Y99.107 E.03501
G1 X105.749 Y98.979 E.00566
G1 X105.749 Y97.337 E.06241
G1 X105.778 Y97.185 E.00588
G1 X105.944 Y97.13 E.00665
G1 X144.021 Y97.131 E1.44716
G1 X144.206 Y97.183 E.0073
M73 P2 R10
G1 X144.259 Y97.349 E.00662
G1 X144.227 Y99.068 E.06534
G1 X144.137 Y99.126 E.00407
G1 X140.923 Y99.138 E.12215
G1 X140.188 Y99.194 E.02802
G1 X139.481 Y99.341 E.02745
G1 X138.433 Y99.733 E.04253
G1 X137.506 Y100.293 E.04116
G1 X136.936 Y100.775 E.02837
M73 P3 R10
G1 X136.415 Y101.35 E.02949
G1 X135.848 Y102.203 E.03893
G1 X135.534 Y102.881 E.0284
G1 X135.309 Y103.593 E.02838
G1 X135.176 Y104.327 E.02835
G1 X135.147 Y104.897 E.02169
M204 S1000
G1 X135.598 Y104.972 F12000
M204 S600
G1 F1200
G1 X135.594 Y105.044 E.00274
G1 X135.644 Y105.73 E.02614
G1 X135.78 Y106.405 E.02617
G1 X136.001 Y107.057 E.02616
G1 X136.301 Y107.672 E.02601
G1 X136.659 Y108.22 E.02488
G1 X137.333 Y108.972 E.03838
G1 X137.865 Y109.404 E.02605
G1 X138.42 Y109.748 E.02482
G1 X139.369 Y110.152 E.0392
G1 X140.356 Y110.367 E.03839
G1 X140.994 Y110.407 E.0243
G1 X144.078 Y110.415 E.11721
G1 X144.377 Y110.475 E.01159
G1 X144.594 Y110.668 E.01104
G1 X144.708 Y110.957 E.01181
G1 X144.708 Y112.777 E.06917
G1 X144.586 Y113.097 E.01302
G1 X144.369 Y113.268 E.0105
G1 X144.081 Y113.327 E.01117
G1 X105.883 Y113.322 E1.45176
G1 X105.566 Y113.228 E.01257
G1 X105.341 Y112.976 E.01284
G1 X105.285 Y112.715 E.01015
G1 X105.291 Y111.046 E.06343
G1 X105.358 Y110.726 E.01243
G1 X105.5 Y110.549 E.00862
G1 X105.832 Y110.415 E.01361
G1 X109.006 Y110.407 E.12063
G1 X109.727 Y110.357 E.02747
G1 X110.367 Y110.228 E.02481
G1 X111.336 Y109.873 E.03922
G1 X112.203 Y109.355 E.03838
G1 X112.731 Y108.912 E.02619
G1 X113.197 Y108.407 E.02612
G1 X113.596 Y107.845 E.0262
G1 X113.919 Y107.242 E.026
G1 X114.147 Y106.652 E.02404
G1 X114.316 Y105.984 E.02619
G1 X114.398 Y105.3 E.02618
G1 X114.392 Y104.612 E.02615
G1 X114.299 Y103.93 E.02616
G1 X114.121 Y103.269 E.02602
G1 X113.873 Y102.664 E.02485
G1 X113.355 Y101.797 E.03838
G1 X112.912 Y101.269 E.02619
G1 X112.407 Y100.803 E.02612
G1 X111.849 Y100.405 E.02605
G1 X111.272 Y100.097 E.02486
G1 X110.299 Y99.754 E.03921
G1 X109.41 Y99.611 E.03422
G1 X109.005 Y99.593 E.01541
G1 X105.922 Y99.585 E.11717
G1 X105.623 Y99.525 E.01159
G1 X105.406 Y99.332 E.01104
G1 X105.292 Y99.043 E.01181
G1 X105.292 Y97.223 E.06917
G1 X105.414 Y96.903 E.01302
G1 X105.631 Y96.732 E.0105
G1 X105.919 Y96.673 E.01117
G1 X143.257 Y96.674 E1.41908
G1 X144.202 Y96.696 E.03593
G1 X144.483 Y96.807 E.01148
G1 X144.657 Y97.05 E.01136
G1 X144.716 Y97.351 E.01166
G1 X144.709 Y98.959 E.06111
G1 X144.649 Y99.258 E.01159
G1 X144.504 Y99.446 E.00902
G1 X144.204 Y99.583 E.01253
G1 X140.952 Y99.594 E.1236
G1 X140.273 Y99.643 E.02587
G1 X139.633 Y99.772 E.02481
M73 P4 R10
G1 X138.664 Y100.127 E.03922
G1 X137.797 Y100.645 E.03838
G1 X137.269 Y101.088 E.02619
G1 X136.792 Y101.608 E.02682
G1 X136.261 Y102.401 E.03627
G1 X135.969 Y103.024 E.02615
G1 X135.758 Y103.679 E.02615
G1 X135.633 Y104.356 E.02617
G1 X135.602 Y104.912 E.02116
M204 S1000
G1 X136.052 Y104.986 F12000
M204 S600
;TYPE:External perimeter
G1 F1200
G1 X136.05 Y105.015 E.0011
G1 X136.092 Y105.643 E.02392
G1 X136.214 Y106.262 E.02398
G1 X136.413 Y106.86 E.02395
G1 X136.686 Y107.426 E.02388
G1 X137.002 Y107.918 E.02222
G1 X137.624 Y108.619 E.03562
G1 X138.11 Y109.019 E.02392
G1 X138.604 Y109.33 E.02219
G1 X139.471 Y109.707 E.03593
G1 X140.386 Y109.911 E.03563
G1 X140.996 Y109.95 E.02323
G1 X144.231 Y109.958 E.12295
G1 X144.579 Y110.058 E.01376
G1 X144.869 Y110.266 E.01356
G1 X145.065 Y110.543 E.0129
G1 X145.166 Y110.892 E.01381
G1 X145.166 Y112.663 E.06731
G1 X145.123 Y112.989 E.0125
G1 X144.998 Y113.3 E.01274
G1 X144.774 Y113.556 E.01293
G1 X144.457 Y113.721 E.01358
G1 X144.105 Y113.784 E.01359
G1 X106.745 Y113.784 E1.41991
G1 X105.64 Y113.754 E.04201
G1 X105.32 Y113.62 E.01319
G1 X105.063 Y113.393 E.01303
G1 X104.926 Y113.174 E.00982
G1 X104.828 Y112.741 E.01687
G1 X104.834 Y110.893 E.07024
G1 X104.937 Y110.538 E.01405
G1 X105.123 Y110.28 E.01209
G1 X105.431 Y110.053 E.01454
G1 X105.768 Y109.958 E.01331
G1 X109.004 Y109.95 E.12299
G1 X109.642 Y109.908 E.0243
G1 X110.215 Y109.797 E.02218
G1 X111.105 Y109.479 E.03592
G1 X111.912 Y109.002 E.03563
G1 X112.398 Y108.6 E.02397
G1 X112.827 Y108.139 E.02393
G1 X113.195 Y107.627 E.02396
G1 X113.494 Y107.074 E.02389
G1 X113.705 Y106.536 E.02196
G1 X113.862 Y105.926 E.02394
G1 X113.941 Y105.3 E.02398
G1 X113.939 Y104.671 E.02391
G1 X113.857 Y104.045 E.024
G1 X113.696 Y103.437 E.0239
G1 X113.479 Y102.895 E.02219
G1 X113.002 Y102.088 E.03563
G1 X112.6 Y101.602 E.02397
G1 X112.139 Y101.173 E.02393
G1 X111.628 Y100.806 E.02391
G1 X111.115 Y100.526 E.02221
G1 X110.227 Y100.205 E.03589
G1 X109.337 Y100.062 E.03426
G1 X109.004 Y100.05 E.01266
G1 X105.769 Y100.042 E.12295
G1 X105.421 Y99.942 E.01376
G1 X105.131 Y99.734 E.01356
G1 X104.935 Y99.457 E.0129
G1 X104.835 Y99.108 E.0138
G1 X104.835 Y97.337 E.06731
G1 X104.877 Y97.011 E.01249
G1 X105.002 Y96.7 E.01274
G1 X105.226 Y96.444 E.01293
G1 X105.543 Y96.279 E.01358
G1 X105.895 Y96.216 E.01359
G1 X144.021 Y96.217 E1.44903
G1 X144.474 Y96.28 E.01738
G1 X144.772 Y96.445 E.01295
G1 X145.01 Y96.711 E.01357
G1 X145.144 Y97.029 E.01312
G1 X145.173 Y97.352 E.01233
G1 X145.166 Y99.108 E.06674
G1 X145.071 Y99.445 E.01331
M73 P5 R10
G1 X144.864 Y99.733 E.01348
G1 X144.55 Y99.941 E.01431
G1 X144.256 Y100.039 E.01178
G1 X140.982 Y100.05 E.12443
G1 X140.358 Y100.092 E.02377
G1 X139.785 Y100.203 E.02218
G1 X138.895 Y100.521 E.03592
G1 X138.088 Y100.998 E.03563
G1 X137.603 Y101.4 E.02394
G1 X137.17 Y101.866 E.02418
G1 X136.673 Y102.598 E.03363
G1 X136.403 Y103.167 E.02394
G1 X136.207 Y103.766 E.02395
G1 X136.089 Y104.386 E.02399
G1 X136.056 Y104.926 E.02056
M204 S1000
G1 E-1.6 F2100
;WIPE_START
G1 F9600
G1 X136.052 Y104.986 E-.0125
G1 X136.05 Y105.015 E-.00604
G1 X136.092 Y105.643 E-.1308
G1 X136.214 Y106.262 E-.13111
G1 X136.396 Y106.808 E-.11955
;WIPE_END
G1 X143.33 Y98.466 Z.389 F12000
G1 Z.2 F720
G1 E2 F1500
M204 S600
;TYPE:Solid infill
;WIDTH:0.505602
G1 F1200
G1 X142.864 Y98 E.02535
G1 X142.21 Y98 E.02516
G1 X142.474 Y98.264 E.01436
G1 X141.823 Y98.267 E.02505
G1 X141.555 Y98 E.01455
G1 X140.901 Y98 E.02516
G1 X141.171 Y98.27 E.01469
G1 X140.544 Y98.297 E.02414
G1 X140.247 Y98 E.01616
G1 X139.592 Y98 E.0252
G1 X139.948 Y98.356 E.01937
G1 X139.403 Y98.465 E.02138
G1 X138.938 Y98 E.0253
G1 X138.284 Y98 E.02516
G1 X138.907 Y98.623 E.0339
G1 X138.423 Y98.793 E.01974
G1 X137.629 Y98 E.04317
G1 X136.975 Y98 E.02516
G1 X137.972 Y98.996 E.05422
G1 X137.559 Y99.238 E.01842
G1 X136.321 Y98 E.06736
G1 X135.666 Y98 E.0252
G1 X137.151 Y99.484 E.08077
G1 X136.779 Y99.767 E.01798
G1 X135.012 Y98 E.09614
G1 X134.358 Y98 E.02516
G1 X136.427 Y100.068 E.11254
G1 X136.104 Y100.4 E.01782
G1 X133.703 Y97.999 E.13063
G1 X133.049 Y97.999 E.02516
G1 X135.792 Y100.742 E.14924
G1 X135.518 Y101.123 E.01805
G1 X132.395 Y97.999 E.16994
G1 X131.74 Y97.999 E.0252
G1 X135.253 Y101.512 E.19113
G1 X135.018 Y101.931 E.01848
G1 X131.086 Y97.999 E.21393
G1 X130.432 Y97.999 E.02516
G1 X134.813 Y102.381 E.23839
G1 X134.712 Y102.6 E.00928
G1 X134.633 Y102.855 E.01027
G1 X129.777 Y97.999 E.2642
G1 X129.123 Y97.999 E.02516
G1 X134.478 Y103.355 E.29138
G1 X134.373 Y103.904 E.0215
G1 X128.468 Y97.999 E.32128
G1 X127.814 Y97.999 E.02516
G1 X134.297 Y104.482 E.35273
G1 X134.274 Y105.113 E.02429
G1 X127.16 Y97.999 E.38706
G1 X126.505 Y97.999 E.0252
G1 X134.324 Y105.818 E.42542
G1 X134.469 Y106.618 E.03128
M73 P6 R10
G1 X125.851 Y97.999 E.46891
G1 X125.197 Y97.999 E.02516
G1 X135.226 Y108.028 E.54566
M204 S1000
G1 E-1.6 F2100
;WIPE_START
G1 F9600
G1 X133.865 Y106.667 E-.4
;WIPE_END
G1 X142.654 Y111.531 Z.375 F12000
G1 Z.2 F720
G1 E2 F1500
M204 S600
G1 F1200
G1 X143.125 Y112.001 E.0256
G1 X142.47 Y112.001 E.0252
G1 X142.205 Y111.736 E.01442
G1 X141.549 Y111.734 E.02524
G1 X141.816 Y112.001 E.01453
G1 X141.162 Y112.001 E.02516
G1 X140.887 Y111.727 E.01493
G1 X140.184 Y111.678 E.02711
G1 X140.507 Y112.001 E.01757
G1 X139.853 Y112.001 E.02516
G1 X139.362 Y111.51 E.02671
G1 X139.067 Y111.443 E.01164
G1 X138.719 Y111.328 E.0141
G1 X138.373 Y111.176 E.01454
G1 X139.199 Y112.001 E.04491
G1 X138.545 Y112.001 E.02516
G1 X124.542 Y97.999 E.76185
G1 X123.888 Y97.999 E.02516
G1 X137.89 Y112.001 E.76182
G1 X137.236 Y112.001 E.02516
G1 X123.234 Y97.999 E.76182
G1 X122.579 Y97.999 E.0252
G1 X136.582 Y112.001 E.76185
G1 X135.927 Y112.001 E.0252
M73 P7 R10
G1 X121.925 Y97.999 E.76182
G1 X121.271 Y97.999 E.02516
G1 X135.273 Y112.001 E.76182
G1 X134.619 Y112.001 E.02516
G1 X120.616 Y97.999 E.76185
G1 X119.962 Y97.999 E.02516
G1 X133.964 Y112.001 E.76182
G1 X133.31 Y112.001 E.02516
G1 X119.308 Y97.999 E.76182
G1 X118.653 Y97.999 E.0252
G1 X132.656 Y112.001 E.76185
G1 X132.001 Y112.001 E.0252
G1 X117.999 Y97.999 E.76182
G1 X117.345 Y97.999 E.02516
M73 P8 R10
G1 X131.347 Y112.001 E.76182
G1 X130.693 Y112.001 E.02516
G1 X116.69 Y97.999 E.76185
G1 X116.036 Y97.999 E.02516
G1 X130.038 Y112.001 E.76182
G1 X129.384 Y112.001 E.02516
G1 X115.381 Y97.999 E.76185
G1 X114.727 Y97.999 E.02516
G1 X128.73 Y112.001 E.76185
G1 X128.075 Y112.001 E.0252
G1 X114.073 Y97.999 E.76182
G1 X113.418 Y97.999 E.0252
M73 P9 R10
G1 X127.421 Y112.001 E.76185
G1 X126.767 Y112.001 E.02516
G1 X112.764 Y97.999 E.76185
G1 X112.11 Y97.999 E.02516
G1 X126.112 Y112.001 E.76182
G1 X125.458 Y112.001 E.02516
G1 X111.455 Y97.999 E.76185
G1 X110.801 Y97.999 E.02516
G1 X111.612 Y98.81 E.04412
G1 X110.873 Y98.539 E.03028
G1 X110.622 Y98.474 E.00998
G1 X110.147 Y97.999 E.02584
G1 X109.492 Y97.999 E.0252
G1 X109.84 Y98.347 E.01893
G1 X109.373 Y98.278 E.01816
G1 X109.116 Y98.276 E.00989
G1 X108.838 Y97.999 E.0151
G1 X108.184 Y97.999 E.02516
G1 X108.458 Y98.273 E.01491
G1 X107.799 Y98.269 E.02535
G1 X107.529 Y97.999 E.01469
G1 X106.875 Y97.999 E.02516
G1 X107.348 Y98.472 E.02573
M204 S1000
G1 E-1.6 F2100
;WIPE_START
G1 F9600
G1 X106.875 Y97.999 E-.13901
G1 X107.529 Y97.999 E-.13591
G1 X107.799 Y98.269 E-.07935
G1 X108.019 Y98.27 E-.04573
;WIPE_END
G1 X114.753 Y101.951 Z.334 F12000
G1 Z.2 F720
G1 E2 F1500
M204 S600
G1 F1200
G1 X124.804 Y112.001 E.54683
G1 X124.149 Y112.001 E.0252
G1 X115.515 Y103.368 E.46973
G1 X115.629 Y103.837 E.01857
G1 X115.673 Y104.179 E.01327
G1 X123.495 Y112.001 E.42558
G1 X122.841 Y112.001 E.02516
M73 P10 R10
